tud-amr/localPlannerBench/plannerbenchmark/tests/local_cases/mpc_panda/default_result/res.csv
t,t_planning,a0,a1,a2,a3,a4,a5,a6,q0,q0dot,fk0_x,fk0_y,fk0_z,q1,q1dot,fk1_x,fk1_y,fk1_z,q2,q2dot,fk2_x,fk2_y,fk2_z,q3,q3dot,fk3_x,fk3_y,fk3_z,q4,q4dot,fk4_x,fk4_y,fk4_z,q5,q5dot,fk5_x,fk5_y,fk5_z,q6,q6dot,fk6_x,fk6_y,fk6_z,fk7_x,fk7_y,fk7_z,goal_0_0,goal_1_0,goal_2_0
0.0,0.06068868299917085,-0.5894955555451354,-0.6672309182912054,-0.6810361888320121,-0.07269355763631946,-0.12185061571106781,-0.1921580943948856,0.00019554816435245404,0.9999972536631739,-0.0003337496523292628,0.0,0.0,0.0,-1.3122509583964285e-08,-1.6671926325688684e-06,-2.2391861696422846e-09,-3.4901685679765216e-09,0.649,-2.710505431213761e-23,-5.421010862427522e-20,0.044575128649194426,0.0694212303384212,0.649000001082607,-1.500004334873431,-0.00043575982994269527,0.24837950447726354,0.3868258222648678,0.758454792742621,-1.1037229188806496e-06,-0.00010974303213866481,0.24837950447726354,0.3868258222648678,0.758454792742621,1.8674986443759833,-0.00013418412369160977,0.29275161083231394,0.4559309185846523,0.790071273259108,-2.102878372372789e-06,-0.00020676187666269705,0.313522509865248,0.48827927275383587,0.6902156087432243,0.3174049208994413,0.49432569409387017,0.6715509985533394,0.5,-0.4,0.3
0.01,7.5550015026237816e-06,-0.5894955555451354,-0.6672309182912054,-0.6810361888320121,-0.07269355763631946,-0.12185061571106781,-0.1921580943948856,0.00019554816435245404,0.9999369405288856,-0.0062135461430866635,0.0,0.0,0.0,-6.67897516488329e-05,-0.006673886230383796,-1.1404502141730016e-05,-1.7758999334279883e-05,0.6489999992951825,-6.235150389495621e-05,-0.0068103618883201215,0.04457224148196368,0.06939800635985599,0.6490055094496787,-1.5000148421881496,-0.0011622925017516546,0.24841222181423936,0.3867724134025713,0.7584815258752975,-1.4125960358372195e-05,-0.0013284487057843124,0.24841222181423936,0.3867724134025713,0.7584815258752975,1.8674784113467373,-0.00205617978120611,0.2927919070759695,0.4558712885994436,0.7901009658228493,-3.707374001621632e-06,-0.00020582534131333933,0.31356983938090655,0.48821940250522783,0.6902466867163941,0.31745356504538075,0.49426577893621554,0.6715823354815427,0.5,-0.4,0.3
0.02,4.345998604549095e-06,-0.5894955555451354,-0.6672309182912054,-0.6810361888320121,-0.07269355763631946,-0.12185061571106781,-0.1921580943948856,0.00019554816435245404,0.9998176821896206,-0.012107870851327605,0.0,0.0,0.0,-0.00020028953127527478,-0.013346193796502917,-3.4206246780798735e-05,-5.3251718961735824e-05,0.6489999936616884,-0.00019279959449785343,-0.013620723776640243,0.04456677111525445,0.06935137741564579,0.649016517547601,-1.500032618388918,-0.0018891534801805995,0.24847914826487186,0.38666421225610864,0.7585361837756412,-3.933319727681005e-05,-0.002546927606709751,0.24847914826487186,0.38666421225610864,0.7585361837756412,1.8674389625337273,-0.003977756273494639,0.29287423806883567,0.4557503241953,0.7901618875373524,-5.292520539098375e-06,-0.00020391595815930173,0.31366653179944487,0.4880982634105628,0.6903105412772957,0.3175529418425494,0.49414460718911657,0.6716467382380328,0.5,-0.4,0.3
0.03,4.539000656222925e-06,-0.5894955555451354,-0.6672309182912054,-0.6810361888320121,-0.07269355763631946,-0.12185061571106781,-0.1921580943948856,0.00019554816435245404,0.9996394762799413,-0.01800239374319625,0.0,0.0,0.0,-0.00040051242717521887,-0.020018503685587063,-6.842008853398509e-05,-0.00010647352718529842,0.648999974655188,-0.00039135252716779534,-0.020431085664960366,0.0445587002328324,0.06928134269461662,0.6490330169270162,-1.5000576632754676,-0.0026159876466196105,0.24858024300424558,0.3865011811715923,0.758618755788484,-7.672532756005618e-05,-0.0037653848807426794,0.24858024300424558,0.3865011811715923,0.758618755788484,1.8673802980758334,-0.005899313819442243,0.2929985593926626,0.4555679804005121,0.790254027456206,-6.858070179794194e-06,-0.00020199332805526712,0.31381254040945733,0.4879158049529344,0.6904071625031278,0.3177030041509143,0.49396212729918154,0.6717441970913376,0.5,-0.4,0.3
0.04,4.401001206133515e-06,-0.5894955555451354,-0.6672309182912054,-0.6810361888320121,-0.07269355763631946,-0.12185061571106781,-0.1921580943948856,0.00019554816435245404,0.9994023212866735,-0.023897103414502786,0.0,0.0,0.0,-0.000667458460530723,-0.026690815821917832,-0.00011406491925676974,-0.00017741227445551317,0.6489999296108768,-0.0006580113942291888,-0.027241447553280486,0.04454800192199091,0.06918790148739444,0.6490549949178609,-1.500089976632659,-0.0033427947036925535,0.24871543932859436,0.38628326658267287,0.7587292258835383,-0.00012630225682728612,-0.0049838206504910516,0.24871543932859436,0.38628326658267287,0.7587292258835383,1.867302418110054,-0.007820852724733063,0.29316479796044487,0.45532419320215506,0.7903773690951141,-8.403835136414885e-06,-0.00020005818090652102,0.3140077882724168,0.48767195501779537,0.690536535462909,0.31790367431203775,0.49371826563754123,0.6718746974008146,0.5,-0.4,0.3
0.05,4.466997779672965e-06,-0.5894955555451354,-0.6672309182912054,-0.6810361888320121,-0.07269355763631946,-0.12185061571106781,-0.1921580943948856,0.00019554816435245404,0.9991062156837354,-0.02979200156306226,0.0,0.0,0.0,-0.0010011276523478414,-0.03336313021116319,-0.00017116589034349566,-0.00026605175667482783,0.6489998416434741,-0.000992777292362515,-0.034051809441600606,0.044534640239129376,0.0690710528606523,0.6490824346202941,-1.5001295582456635,-0.00406957468430612,0.2488846477373368,0.38601039707988344,0.7588675726006523,-0.00018806388934201543,-0.0062022347667155895,0.2488846477373368,0.38601039707988344,0.7588675726006523,1.8672053227738072,-0.009742372925938748,0.29337285564702664,0.4550188772637777,0.7905318903683427,-9.929627618800498e-06,-0.0001981104481679711,0.3142521721034529,0.4873666174441261,0.6906986401481026,0.3181548480766167,0.4934129240198922,0.6720382195461885,0.5,-0.4,0.3
0.060000000000000005,4.402998456498608e-06,-0.5894955555451354,-0.6672309182912054,-0.6810361888320121,-0.07269355763631946,-0.12185061571106781,-0.1921580943948856,0.00019554816435245404,0.9987511579276724,-0.035687090300510524,0.0,0.0,0.0,-0.0014015200233499316,-0.0400354468641043,-0.0002397544027513925,-0.000372371699132932,0.6489996896472274,-0.001395651332281534,-0.040862171329920725,0.04451857020882806,0.06893079567989603,0.6491153148986908,-1.5001764079001187,-0.00479632763758754,0.24908775588710408,0.3856824834652779,0.759033769018274,-0.0002620101272637386,-0.007420626988828729,0.24908775588710408,0.3856824834652779,0.759033769018274,1.867089012205045,-0.011663874344817466,0.29362260923353234,0.4546519259836859,0.7907175635528959,-1.1435260232157719e-05,-0.00019615011387483661,0.31454556220970203,0.48699967208964645,0.6908934514325203,0.3184563945416964,0.4930459797730036,0.6722347388866557,0.5,-0.4,0.3
0.07,4.313998942961916e-06,-0.5894955555451354,-0.6672309182912054,-0.6810361888320121,-0.07269355763631946,-0.12185061571106781,-0.1921580943948856,0.00019554816435245404,0.9983371464540226,-0.04158237213326484,0.0,0.0,0.0,-0.0018686355939204944,-0.046707765796626305,-0.0003198680944602664,-0.0004963477365143486,0.6489994482959213,-0.001866634642037592,-0.047672533218240845,0.04449973782205068,0.06876712863842874,0.6491536103741266,-1.500230525382276,-0.005523053629012028,0.2493246285303881,0.38529941882382623,0.759227782713985,-0.00034814086989224454,-0.008638996982807725,0.2493246285303881,0.38529941882382623,0.759227782713985,1.866953486542361,-0.013585356888753335,0.2939139103333016,0.4542232115714674,0.7909343552436763,-1.2920546455897632e-05,-0.00019417721872397667,0.3148878024083258,0.48657097491627466,0.6911209390221403,0.31880815606720886,0.4926172858218461,0.6724642257097037,0.5,-0.4,0.3
0.08,4.37600101577118e-06,-0.5894955555451354,-0.6672309182912054,-0.6810361888320121,-0.07269355763631946,-0.12185061571106781,-0.1921580943948856,0.00019554816435245404,0.9978641945867,-0.04747763307754807,0.0,0.0,0.0,-0.0024024742631433135,-0.05338008568929436,-0.0004115507951183889,-0.0006379513630082701,0.6489990880429902,-0.0024057241551349797,-0.054482895106560965,0.044478078740230735,0.06858005117683834,0.6491972914054779,-1.500291910199529,-0.006249747285400153,0.24959510008753355,0.38486108340398123,0.759449575767042,-0.000446456259282763,-0.009857347941422215,0.24959510008753355,0.38486108340398123,0.759449575767042,1.8667987455720803,-0.015506826499997883,0.2942465766289528,0.45373259079775824,0.7911822263336115,-1.4386196364357575e-05,-0.0001922057196921817,0.31527870064679436,0.48608036412243977,0.6913810674213365,0.31920993878097037,0.4921266768934083,0.6727266451947431,0.5,-0.4,0.3
0.09,4.451998393051326e-06,-0.5894955555451354,-0.6672309182912054,-0.6810361888320121,-0.07269355763631946,-0.12185061571106781,-0.1921580943948856,0.00019554816435245404,0.9973322857423748,-0.05337331153830697,0.0,0.0,0.0,-0.003003036172164182,-0.06005240924898825,-0.0005148525943601561,-0.0007971499856321082,0.6489985751213232,-0.0030129251679932236,-0.061293256994881085,0.04445352217809562,0.06836956087127682,0.6492463241086466,-1.5003605624194167,-0.006976419632341153,0.24989899662490253,0.38436733035917836,0.7596991045534932,-0.0005569559477846057,-0.011075672195497387,0.24989899662490253,0.38436733035917836,0.7596991045534932,1.8666247897892339,-0.017428270918954485,0.29462041779073006,0.4531798881591259,0.7914611318492681,-1.5831117368769083e-05,-0.00019020781722839473,0.31571805673189773,0.48552764220818073,0.691673795783563,0.31966154064613467,0.49157395137622834,0.6730219572666087,0.5,-0.4,0.3
0.09999999999999999,0.05297681500087492,-0.4927568137538495,-0.5681158045490228,-0.5743377510317493,-0.06370791202988747,-0.10300626089098706,-0.1578798562556034,0.00017799092077209935,0.9967414182488936,-0.05926919328838038,0.0,0.0,0.0,-0.0036703213391630013,-0.06672473516874032,-0.0006298297391134353,-0.0009739068083259125,0.6489978715435096,-0.003688238991385342,-0.06810361888320121,0.04442598702224591,0.0681356561252582,0.6493006703146245,-1.5004364818312892,-0.007703065325519402,0.2502361137444475,0.3838180001716273,0.759976319831495,-0.0006796398218627179,-0.012293972635610089,0.2502361137444475,0.3838180001716273,0.759976319831495,1.8664316193353034,-0.019349696088768926,0.29503520939772676,0.4525649128847003,0.791771020979162,-1.7255126075688565e-05,-0.00018819781612700124,0.31620563442101357,0.4849125941034568,0.6919990779084615,0.32016272321041295,0.49095888965836454,0.6733501165868352,0.5,-0.4,0.3
0.10999999999999999,5.22099799127318e-06,-0.4927568137538495,-0.5681158045490228,-0.5743377510317493,-0.06370791202988747,-0.10300626089098706,-0.1578798562556034,0.00017799092077209935,0.9961012682062041,-0.06419760359043301,0.0,0.0,0.0,-0.004394404074100493,-0.07240591036252456,-0.000754828400186266,-0.001165555505877838,0.6489969489005376,-0.004421938193143133,-0.0738469963935187,0.044395761338659655,0.0678818399236767,0.649359482525399,-1.500518777274196,-0.00833981789133638,0.250601022807696,0.38322126635324333,0.7602769576208878,-0.0008126235520629931,-0.013323811371680443,0.250601022807696,0.38322126635324333,0.7602769576208878,1.8662226638685744,-0.0209283275450281,0.29548430324864694,0.4518967993624203,0.7921071681568613,-1.865365010046377e-05,-0.00018636550874803672,0.3167336843172429,0.4842443725582897,0.6923519762491743,0.3207055312459524,0.49029064792200366,0.6737061459860553,0.5,-0.4,0.3
0.11999999999999998,4.301000444684178e-06,-0.4927568137538495,-0.5681158045490228,-0.5743377510317493,-0.06370791202988747,-0.10300626089098706,-0.1578798562556034,0.00017799092077209935,0.9954118321318135,-0.06912617044173568,0.0,0.0,0.0,-0.0051752985703704705,-0.07808708744951709,-0.0008899079879410749,-0.0013720621594944206,0.6489957681824292,-0.0052130808048095065,-0.07959037390383619,0.04436269512009171,0.06760814965422951,0.6494227226069811,-1.5006074408693206,-0.008976546522876131,0.2509931487705691,0.38257719820629077,0.7606009762288437,-0.0009559068352134136,-0.014353628898574628,0.2509931487705691,0.38257719820629077,0.7606009762288437,1.8659979217789042,-0.02250694320408254,0.29596703852157336,0.4511756268856173,0.7924695316305538,-2.0032773746477477e-05,-0.00018452424717971348,0.3173015044492546,0.48352305365353127,0.6927324545474798,0.32128925508994266,0.48956930164753387,0.6740900102328865,0.5,-0.4,0.3
0.12999999999999998,4.416000592755154e-06,-0.4927568137538495,-0.5681158045490228,-0.5743377510317493,-0.06370791202988747,-0.10300626089098706,-0.1578798562556034,0.00017799092077209935,0.9946731087024177,-0.07405488813359774,0.0,0.0,0.0,-0.0060130048411194065,-0.08376826640084861,-0.0010351298127342535,-0.001593386011988833,0.6489942873333118,-0.006061667780754481,-0.08533375141415368,0.044326699423355105,0.06731458429654823,0.6494903481296326,-1.5007024724294398,-0.009613251107039889,0.25141226617938506,0.3818856231613395,0.7609483202485433,-0.0011094895597389758,-0.015383424717458608,0.25141226617938506,0.3818856231613395,0.7609483202485433,1.8657573931836153,-0.024085543185093008,0.2964831674193305,0.45040118888797276,0.7928580541016873,-2.139235823131089e-05,-0.00018267486219038492,0.317908834000331,0.4827484043642483,0.6931404605562592,0.3219136314921068,0.4887946128644867,0.6745016580244035,0.5,-0.4,0.3
0.13999999999999999,4.614001227309927e-06,-0.4927568137538495,-0.5681158045490228,-0.5743377510317493,-0.06370791202988747,-0.10300626089098706,-0.1578798562556034,0.00017799092077209935,0.9938851119419964,-0.07898355053906803,0.0,0.0,0.0,-0.006907519947007927,-0.08944944588849656,-0.0011905589590480053,-0.0018294824344190148,0.6489924612445481,-0.006967696221241439,-0.09107712892447117,0.044287678078666154,0.06700114464833044,0.6495623132753104,-1.5008038754592212,-0.010249926345051945,0.2518581262997435,0.38114636310432026,0.7613189271580669,-0.0012733720024286973,-0.016413202544637056,0.2518581262997435,0.38114636310432026,0.7613189271580669,1.8655010800030027,-0.025664133188186007,0.2970324158835082,0.4495732718644294,0.7932726705715993,-2.273030199432057e-05,-0.00018082985538131827,0.3185553840409303,0.4819201828749133,0.6935759344676805,0.3225783687432522,0.4879663344656579,0.6749410305230228,0.5,-0.4,0.3
0.15,4.3289983295835555e-06,-0.4927568137538495,-0.5681158045490228,-0.5743377510317493,-0.06370791202988747,-0.10300626089098706,-0.1578798562556034,0.00017799092077209935,0.9930478249543324,-0.08391258494566192,0.0,0.0,0.0,-0.007858846856833048,-0.09513062867877235,-0.001356265864898755,-0.002080305188716331,0.6489902417373447,-0.007931170941027662,-0.09682050643478866,0.044245530066110546,0.06666782845089611,0.6496385695375926,-1.5009116460799878,-0.010886583313172465,0.2523304763610738,0.38035921573459974,0.7617127354700131,-0.0014475536540193698,-0.017442952767830748,0.2523304763610738,0.38035921573459974,0.7617127354700131,1.8652289805564326,-0.027242701261337723,0.29761450655086535,0.44869163372519927,0.7937133176729673,-2.4048414752533012e-05,-0.00017896475419103882,0.3192408630285492,0.48103811699212884,0.6940388187990708,0.3232831726505462,0.48708418863080727,0.675408071346006,0.5,-0.4,0.3
0.16,4.67100107925944e-06,-0.4927568137538495,-0.5681158045490228,-0.5743377510317493,-0.06370791202988747,-0.10300626089098706,-0.1578798562556034,0.00017799092077209935,0.9921612462735894,-0.08884178336659863,0.0,0.0,0.0,-0.008866985581726336,-0.1008118134478804,-0.0015323247011411441,-0.002345804086149972,0.6489875775789291,-0.008952093088437044,-0.10256388394510615,0.04420014713147602,0.06631463536950373,0.6497190649919389,-1.5010257841092676,-0.011523216720036533,0.2528290400987023,0.3795239734420624,0.7621296764279561,-0.001632034380977733,-0.01847267879396793,0.2528290400987023,0.3795239734420624,0.7621296764279561,1.864941094965209,-0.028821253146116617,0.29822913554000785,0.44775602569056944,0.7941799241629948,-2.5346567389059653e-05,-0.00017709256528222316,0.3199649510245663,0.4801019260087807,0.6945290483122248,0.32402772027401644,0.48614788868508185,0.6759027163775014,0.5,-0.4,0.3
0.17,4.637997335521504e-06,-0.4927568137538495,-0.5681158045490228,-0.5743377510317493,-0.06370791202988747,-0.10300626089098706,-0.1578798562556034,0.00017799092077209935,0.9912253900482786,-0.09377094366265327,0.0,0.0,0.0,-0.009931931858905486,-0.10649299885984892,-0.0017188130936602298,-0.0026259246151800076,0.6489844144913867,-0.010030460006814046,-0.10830726145542365,0.044151414022120423,0.06594156741425909,0.6498037441805267,-1.5011462949106937,-0.012159821301080788,0.25335351801769235,0.3786404242445675,0.762569672637859,-0.0018268145202767177,-0.01950238464352438,0.25335351801769235,0.3786404242445675,0.762569672637859,1.8646374261630982,-0.030399794417452115,0.2988759727131825,0.44676619332623924,0.7946724093674243,-2.6621297408744975e-05,-0.00017522499315617782,0.32072729981921844,0.47911132159147923,0.6950465483613071,0.32481166002595413,0.4851571399588138,0.6764248920984814,0.5,-0.4,0.3
0.18000000000000002,4.535002517513931e-06,-0.4927568137538495,-0.5681158045490228,-0.5743377510317493,-0.06370791202988747,-0.10300626089098706,-0.1578798562556034,0.00017799092077209935,0.9902402389499844,-0.09870048685676512,0.0,0.0,0.0,-0.011053689980633306,-0.11217418772435443,-0.0019158144270637397,-0.0029206112182345602,0.648980695114738,-0.011166276482311012,-0.11405063896574114,0.04409921015145519,0.0655486230064634,0.6498925491171688,-1.5012731727543083,-0.012796408205622247,0.25390360537571827,0.377708331002185,0.7630326500920533,-0.0020318934536268977,-0.02053205934850124,0.25390360537571827,0.377708331002185,0.7630326500920533,1.8643179714639955,-0.031978313288754646,0.2995546832734103,0.445721852534443,0.7951906969164475,-2.7875796938401216e-05,-0.0001733397444816983,0.32152755742317396,0.4780659843586619,0.6955912494373766,0.3256346367035036,0.4841116164753383,0.6769745302824101,0.5,-0.4,0.3
0.19000000000000003,4.413999704411253e-06,-0.4927568137538495,-0.5681158045490228,-0.5743377510317493,-0.06370791202988747,-0.10300626089098706,-0.1578798562556034,0.00017799092077209935,0.9892057913713569,-0.10363020828514588,0.0,0.0,0.0,-0.012232259956686777,-0.11785537870614636,-0.002123415490765363,-0.003229803920209949,0.6489763590417653,-0.01235954376861321,-0.11979401647605863,0.04404340792950801,0.06513580303828848,0.6499854182458799,-1.5014064174633328,-0.013432972172451431,0.25447897396356234,0.3767274524789902,0.7635185259579035,-0.0022472710186360293,-0.021561706586133232,0.25447897396356234,0.3767274524789902,0.7635185259579035,1.8639827309936405,-0.033556815390330404,0.3002649058816611,0.4446227138544509,0.7957347007952285,-2.9109953941053945e-05,-0.00017144912171087635,0.3223653432612399,0.4769655876267165,0.6961630723874204,0.3264962661359275,0.4830109845934951,0.6775515530588581,0.5,-0.4,0.3
0.20000000000000004,0.050673734996962594,-0.4081987758513881,-0.4701565026532712,-0.4805361328327026,-0.05991144180380623,-0.08634536857519572,-0.12726450799536887,0.0001603581377264701,0.9881220456761393,-0.10856011254674229,0.0,0.0,0.0,-0.013467641797001936,-0.12353657185379886,-0.0023417072184838956,-0.003553439394710549,0.6489713428078108,-0.013610263053923145,-0.12553739398637612,0.04398387330944465,0.06470310895248299,0.6500822867657311,-1.5015460288629177,-0.01406951343578067,0.2550792779372407,0.3756975366168305,0.7640272125270479,-0.0024729470419136575,-0.022591325083801746,0.2550792779372407,0.3756975366168305,0.7640272125270479,1.8636317048791888,-0.035135300520934304,0.30100625965944405,0.4434684746865608,0.7963043298555388,-3.0323665058807004e-05,-0.00016955388487704427,0.3232402561212469,0.47580978985426153,0.6967619331867827,0.3273961433103689,0.4818548954930841,0.6781558777346788,0.5,-0.4,0.3
0.21000000000000005,4.90699676447548e-06,-0.4081987758513881,-0.4701565026532712,-0.4805361328327026,-0.05991144180380623,-0.08634536857519572,-0.12726450799536887,0.0001603581377264701,0.9869975011332686,-0.11264518188447573,0.0,0.0,0.0,-0.014750043748168015,-0.12823817796010029,-0.002569046244651903,-0.003888891330690624,0.648965625544316,-0.014910001451217137,-0.13034275531470313,0.04392105671364018,0.06425389970334261,0.6501823247756309,-1.5016918165089292,-0.014668075870804645,0.255700081959061,0.3746261882194048,0.7645542487229076,-0.0027073136419639454,-0.02345428866977062,0.255700081959061,0.3746261882194048,0.7645542487229076,1.8632678701674807,-0.03640759852855449,0.30177327350498284,0.44226762638800166,0.7968945774667018,-3.164542986488472e-05,-0.00016779809273201676,0.32414577045756937,0.4746069541322595,0.6973825718535297,0.32832754558889393,0.4806516882900647,0.6787821969725629,0.5,-0.4,0.3
0.22000000000000006,4.907000402454287e-06,-0.4081987758513881,-0.4701565026532712,-0.4805361328327026,-0.05991144180380623,-0.08634536857519572,-0.12726450799536887,0.0001603581377264701,0.9858321136805712,-0.11672923275873132,0.0,0.0,0.0,-0.01607946160327441,-0.13293977775842322,-0.002805513229574904,-0.0042361005685137496,0.6489591501246517,-0.016257808759405752,-0.13514811664303014,0.04385477565636036,0.06378822087663627,0.6502854732406259,-1.5018435904284848,-0.015266586738686513,0.2563407141402942,0.37351340044545367,0.7650996234472347,-0.0029503123939584996,-0.02431725921362436,0.2563407141402942,0.37351340044545367,0.7650996234472347,1.8628913116928756,-0.03767991527971992,0.30256517765282953,0.4410201504153249,0.79750545134105,-3.294807884094655e-05,-0.00016609686651885072,0.32508107909198736,0.47335707239359065,0.698025012764646,0.32928965880024114,0.4794013568755095,0.6794305382643836,0.5,-0.4,0.3
0.23000000000000007,4.77099820272997e-06,-0.4081987758513881,-0.4701565026532712,-0.4805361328327026,-0.05991144180380623,-0.08634536857519572,-0.12726450799536887,0.0001603581377264701,0.9846258819832812,-0.12081342736704513,0.0,0.0,0.0,-0.017455895373022817,-0.13764137925942552,-0.0030511921502039963,-0.004595006689304747,0.6489518573137176,-0.017653685273832452,-0.13995347797135715,0.04378490467954935,0.06330607555427473,0.6503916711574577,-1.5020013504574297,-0.015865077450595896,0.2570008471966799,0.37235894224595856,0.7656632524174716,-0.003201943123414093,-0.025180203339522013,0.2570008471966799,0.37235894224595856,0.7656632524174716,1.8625020295654586,-0.03895221835238649,0.30338161112345124,0.4397257687429017,0.7981368636318079,-3.4231540235556e-05,-0.00016439323574960005,0.32604580105962144,0.47205983092729836,0.6986891742811108,0.3302820982439523,0.47810358086830707,0.6801008211314478,0.5,-0.4,0.3
0.24000000000000007,4.754998371936381e-06,-0.4081987758513881,-0.4701565026532712,-0.4805361328327026,-0.05991144180380623,-0.08634536857519572,-0.12726450799536887,0.0001603581377264701,0.9833788045416979,-0.12489777112218409,0.0,0.0,0.0,-0.018879345063809654,-0.1423429825101842,-0.0033061696787084482,-0.00496554677240393,0.6489436857848352,-0.019097631850149774,-0.14475883929968417,0.043711313933921685,0.06280746745955974,0.6505008552200945,-1.5021650964370268,-0.016463548285865947,0.2576801414224549,0.37116257572473327,0.7662450476012046,-0.0034622056402987328,-0.026043119796409463,0.2576801414224549,0.37116257572473327,0.7662450476012046,1.862100023898729,-0.04022450751616804,0.3042221991230365,0.4383841949305567,0.7987887225065222,-3.5495744645659755e-05,-0.00016268786478282164,0.32703954074582947,0.4707149065206186,0.699374970895646,0.33130446441364125,0.4767580301823124,0.6807929612487533,0.5,-0.4,0.3
0.25000000000000006,5.068999598734081e-06,-0.4081987758513881,-0.4701565026532712,-0.4805361328327026,-0.05991144180380623,-0.08634536857519572,-0.12726450799536887,0.0001603581377264701,0.9820908798158324,-0.12898226805216667,0.0,0.0,0.0,-0.020349810681663652,-0.14704458754841482,-0.003570535154221119,-0.00534765535893453,0.6489345721203593,-0.020589649370680287,-0.14956420062801118,0.04363386913474372,0.06229240104629999,0.6506129598052073,-1.502334828211134,-0.017061999502469553,0.25837824432665096,0.36992405646852144,0.7668449171388984,-0.0037310997418385627,-0.02690600729835592,0.25837824432665096,0.36992405646852144,0.7668449171388984,1.8616852948077591,-0.04149678257341461,0.30508655260962575,0.43699513449844546,0.7994609320586649,-3.6740632110277875e-05,-0.0001609815570355732,0.3280618874187519,0.4693219668688032,0.7000823131343341,0.33235634252326146,0.47536436544270183,0.6815068703447396,0.5,-0.4,0.3
0.26000000000000006,4.640998668037355e-06,-0.4081987758513881,-0.4701565026532712,-0.4805361328327026,-0.05991144180380623,-0.08634536857519572,-0.12726450799536887,0.0001603581377264701,0.9807621062265901,-0.13306692207850446,0.0,0.0,0.0,-0.021867292232227456,-0.15174619441107187,-0.0038443805531181933,-0.00574126441293023,0.6489244508123795,-0.02212973874392075,-0.1543695619563382,0.043552431563154304,0.061760881560960254,0.6507279169568758,-1.5025105456263308,-0.017660431372550627,0.25909479051721584,0.36864313371629365,0.7674627652610081,-0.004008625211806892,-0.027768864485885524,0.25909479051721584,0.36864313371629365,0.7674627652610081,1.8612578424092183,-0.042769043323198405,0.3059742681511706,0.4355582851116883,0.800153392212765,-3.796615291404378e-05,-0.00015927519412974652,0.3291124150736282,0.46788067078111917,0.7008111074512833,0.33343730234885394,0.4739222381959661,0.6822424560939969,0.5,-0.4,0.3
0.2700000000000001,4.443998477654532e-06,-0.4081987758513881,-0.4701565026532712,-0.4805361328327026,-0.05991144180380623,-0.08634536857519572,-0.12726450799536887,0.0001603581377264701,0.9793924821571053,-0.13715173698909255,0.0,0.0,0.0,-0.023431789720732017,-0.15644780313382137,-0.004127800458056297,-0.006146303281373392,0.6489132542634953,-0.02371790090454202,-0.1591749232846652,0.04346685806802229,0.061212915106917634,0.6508456563708458,-1.5026922485320462,-0.01825884418250808,0.2598294015828482,0.3673195505352403,0.768098492202424,-0.004294781819806861,-0.028631689925677314,0.2598294015828482,0.3673195505352403,0.768098492202424,1.8608176668213958,-0.04404128956161771,0.30688492778059806,0.43407333677246235,0.8008659986264431,-3.9172268399008866e-05,-0.00015756973736859477,0.3301906822739317,0.4663906683951523,0.7015612561199267,0.3345468980670782,0.4724312911283654,0.6829996220065592,0.5,-0.4,0.3
0.2800000000000001,4.375997377792373e-06,-0.4081987758513881,-0.4701565026532712,-0.4805361328327026,-0.05991144180380623,-0.08634536857519572,-0.12726450799536887,0.0001603581377264701,0.9779820059543847,-0.14123671640834345,0.0,0.0,0.0,-0.025043303151967844,-0.16114941375044814,-0.0044208920257417985,-0.006562698653165978,0.6489009127876721,-0.025354136813279488,-0.16398028461299222,0.04337700106833655,0.06064850871086291,0.6509661053783443,-1.5028799367806847,-0.01885723823296685,0.2605816859724036,0.3659530440037657,0.7687519941142607,-0.004589569320556229,-0.02949448211074583,0.2605816859724036,0.3659530440037657,0.7687519941142607,1.8603647681642186,-0.045313521082161884,0.3078180988476983,0.4325399720199179,0.8015986425893558,-4.035895178649138e-05,-0.00015586622876674443,0.33129623198914526,0.4648516013998081,0.7023326571209734,0.3356846680903503,0.4708911582932455,0.6837782673137991,0.5,-0.4,0.3
0.2900000000000001,4.647998139262199e-06,-0.4081987758513881,-0.4701565026532712,-0.4805361328327026,-0.05991144180380623,-0.08634536857519572,-0.12726450799536887,0.0001603581377264701,0.9765306759312721,-0.1453218637660679,0.0,0.0,0.0,-0.026701832530252854,-0.16585102629220907,-0.004723754953406163,-0.006990374517054539,0.6488873546111833,-0.02703844745670638,-0.16878564594131923,0.043282708556176316,0.060067670391352766,0.6510891889294633,-1.5030736102277469,-0.019455613838668534,0.2613512388720213,0.364543345401605,0.7694231629730095,-0.004892987453179103,-0.030357239461104572,0.2613512388720213,0.364543345401605,0.7694231629730095,1.8598991465592691,-0.046585737676099144,0.3087733338680012,0.4309578661380697,0.8023512109190684,-4.152618900333242e-05,-0.00015416579150716054,0.3324285914293684,0.46326310326717385,0.7031252040270356,0.33685013489878285,0.4693014653473802,0.6845782868509547,0.5,-0.4,0.3
0.3000000000000001,0.052908934998413315,-0.33477954397735027,-0.3726742130503456,-0.398687894328289,-0.06132327019900361,-0.07171523331723545,-0.10008288428084762,0.00014420044072323808,0.9750384903687471,-0.1494071822651847,0.0,0.0,0.0,-0.028407377859396777,-0.17055264078713245,-0.0050364914439605165,-0.007429252118531753,0.6488725058736424,-0.028770833846883774,-0.17359100726964624,0.043183824100311845,0.05947040922951734,0.6512148295761128,-1.5032732687319543,-0.02005397132827488,0.26213764208012075,0.3630901804071864,0.7701118864870586,-0.0052050359405099115,-0.031219960324958673,0.26213764208012075,0.3630901804071864,0.7701118864870586,1.8594208021297967,-0.047857939132889035,0.3097501703688052,0.42932668737181556,0.8031235858538568,-4.267397950630275e-05,-0.0001524696297648268,0.3335872718769479,0.4616247994934059,0.7039387858839437,0.33804280486912414,0.4676618297965069,0.6853995709362963,0.5,-0.4,0.3
0.3100000000000001,5.080000846646726e-06,-0.33477954397735027,-0.3726742130503456,-0.398687894328289,-0.06132327019900361,-0.07171523331723545,-0.10008288428084762,0.00014420044072323808,0.9735128511025857,-0.15275861574408905,0.0,0.0,0.0,-0.03015018303637298,-0.17427943529518622,-0.005357414788709981,-0.007876741580792955,0.6488563835809736,-0.030543913405493794,-0.17757788621292914,0.04308100479587511,0.058859980257882756,0.651342236829842,-1.5034790521828791,-0.020666424573197187,0.2629374495121705,0.3616007567835862,0.7708136390369169,-0.0055242544915655705,-0.031936336066733004,0.2629374495121705,0.3616007567835862,0.7708136390369169,1.8589324485643397,-0.04885830393525703,0.31074429398695713,0.4276544727803331,0.80391065135502,-4.38063463130481e-05,-0.00015092927527816675,0.33476695707694726,0.4599445211884728,0.7047680044674933,0.3392571744769454,0.4659800442554148,0.6862366686006659,0.5,-0.4,0.3
0.3200000000000001,4.430999979376793e-06,-0.33477954397735027,-0.3726742130503456,-0.398687894328289,-0.06132327019900361,-0.07171523331723545,-0.10008288428084762,0.00014420044072323808,0.9719537183729117,-0.15610909874321222,0.0,0.0,0.0,-0.03193025578954101,-0.17800622288745047,-0.005686611921292178,-0.00833277625906642,0.6488389261707191,-0.03235687881179434,-0.18156476515621203,0.042974064130191524,0.05823642812116549,0.6514713460451832,-1.5036909615065575,-0.02127882969831358,0.26375001005611143,0.36007504889156594,0.7715283271497304,-0.005850641156650793,-0.03265272747393748,0.26375001005611143,0.36007504889156594,0.7715283271497304,1.8584340897273246,-0.0498586874783805,0.3117549628979255,0.42594118431500455,0.8047123098377148,-4.492175547000918e-05,-0.0001494254969813544,0.33596685801860454,0.45822221315543965,0.7056127673984672,0.34049244589162864,0.4642560503218761,0.6870894884378602,0.5,-0.4,0.3
0.3300000000000001,4.4240005081519485e-06,-0.33477954397735027,-0.3726742130503456,-0.398687894328289,-0.06132327019900361,-0.07171523331723545,-0.10008288428084762,0.00014420044072323808,0.9703610906338807,-0.15945972812242157,0.0,0.0,0.0,-0.033747596124216614,-0.18173301196559466,-0.006024169615394961,-0.008797285694085399,0.6488200708391751,-0.034209730302097986,-0.18555164409949493,0.04286286594795668,0.057599763345632965,0.6516020903654954,-1.5039089968817718,-0.02189121916818755,0.2645749532279803,0.35851282462470513,0.772255850794222,-0.006184195812972583,-0.03336908617436681,0.2645749532279803,0.35851282462470513,0.772255850794222,1.8579257256172157,-0.050859058944605254,0.31278176654940465,0.4241865400228444,0.8055284559702155,-4.6020315070023846e-05,-0.00014792519006953924,0.3371865388344447,0.45645755782788283,0.7064729740444673,0.34174817851389144,0.4624895237727498,0.6879579306938601,0.5,-0.4,0.3
0.34000000000000014,4.563000402413309e-06,-0.33477954397735027,-0.3726742130503456,-0.398687894328289,-0.06132327019900361,-0.07171523331723545,-0.10008288428084762,0.00014420044072323808,0.9687349465223122,-0.16281064101326773,0.0,0.0,0.0,-0.03560220419955288,-0.1854598036156429,-0.006370176302532077,-0.009270197337067979,0.6487997534755315,-0.03610246857236904,-0.18953852304277782,0.04274727233406059,0.056949996571851694,0.6517344013414194,-1.504133157804426,-0.022503597435993172,0.265411906256982,0.35691384359242284,0.7729961070880844,-0.006524916993361921,-0.03408540394073928,0.265411906256982,0.35691384359242284,0.7729961070880844,1.8574073572185579,-0.051859414355281894,0.3138242922134634,0.42239024774172884,0.8063589814498272,-4.710099393675638e-05,-0.0001464264231039519,0.33842556137757135,0.4546502267053725,0.7073485208268184,0.34302392944562893,0.4606801293153993,0.688841892672985,0.5,-0.4,0.3
0.35000000000000014,5.000001692678779e-06,-0.33477954397735027,-0.3726742130503456,-0.398687894328289,-0.06132327019900361,-0.07171523331723545,-0.10008288428084762,0.00014420044072323808,0.9670753036300714,-0.16616157080559096,0.0,0.0,0.0,-0.037494079863965954,-0.18918659571325097,-0.006724721436319506,-0.009751436758707323,0.6487779086680143,-0.03803509438542464,-0.19352540198606072,0.04262714030250557,0.056287141265643964,0.6518682088853976,-1.5043634449990926,-0.023115956667720462,0.2662604730630611,0.3552778732989643,0.7737489893086694,-0.006872805763792611,-0.03480169248645873,0.2662604730630611,0.3552778732989643,0.7737489893086694,1.8568789836199218,-0.05285976109157845,0.31488210008696194,0.4205520243488552,0.8072037735743721,-4.816501400415548e-05,-0.00014493670510116758,0.3396834584179299,0.4527999004125788,0.7082392995732557,0.34431922633026035,0.4588275407983215,0.6897412670496825,0.5,-0.4,0.3
0.36000000000000015,4.459998308448121e-06,-0.33477954397735027,-0.3726742130503456,-0.398687894328289,-0.06132327019900361,-0.07171523331723545,-0.10008288428084762,0.00014420044072323808,0.9653821886430154,-0.16945556931190672,0.0,0.0,0.0,-0.03942322310211218,-0.19291335362002673,-0.007087895756086234,-0.01024092759258237,0.6487544697004215,-0.04000760841059927,-0.19751228092934361,0.04250232350107154,0.055611212369819724,0.6520034412914371,-1.5045996758158864,-0.0233619233602662,0.26712023136672874,0.35360466324215634,0.774514455911558,-0.007227811735175875,-0.03541732735464659,0.26712023136672874,0.35360466324215634,0.774514455911558,1.8563406648777137,-0.053739770093091825,0.3159547184162593,0.41867156102054953,0.8080628044268778,-4.9117807107352175e-05,4.6323089308174595e-05,0.3409597400379294,0.45090625620410607,0.709145296774678,0.345633575855064,0.45693143287392973,0.6906560430079116,0.5,-0.4,0.3
0.37000000000000016,4.497000190895051e-06,-0.33477954397735027,-0.3726742130503456,-0.398687894328289,-0.06132327019900361,-0.07171523331723545,-0.10008288428084762,0.00014420044072323808,0.9636555844145925,-0.17281539986864236,0.0,0.0,0.0,-0.04138963407492337,-0.19663980294399286,-0.007459791809518503,-0.01073859113816687,0.6487293685524455,-0.04201998676339784,-0.2014991598726265,0.042372673543492806,0.05492222531944414,0.6521400252283431,-1.5048420247861618,-0.02432606948065844,0.2679907816501828,0.3518939907181384,0.7752923286998609,-0.007589983289763785,-0.036233157446881326,0.2679907816501828,0.3518939907181384,0.7752923286998609,1.85579234334086,-0.05485743821892181,0.31704170573337465,0.4167485891867087,0.808935870488226,-5.0050267707623e-05,-0.0001359250223975407,0.34225392653655856,0.44896896696386934,0.7100663039974775,0.3469664911726677,0.45499146748296476,0.6915860111954685,0.5,-0.4,0.3
0.38000000000000017,4.956000339007005e-06,-0.33477954397735027,-0.3726742130503456,-0.398687894328289,-0.06132327019900361,-0.07171523331723545,-0.10008288428084762,0.00014420044072323808,0.9618954925101885,-0.17617805510600398,0.0,0.0,0.0,-0.04339331244265641,-0.20036667436293887,-0.007840503206242796,-0.011244346563376067,0.648702535909732,-0.04407226070434977,-0.2054860388159094,0.04223804184458897,0.05422019498157235,0.6522778856690615,-1.5050905010230236,-0.024951295942807854,0.26887171648460534,0.3501456046191542,0.7760824875624993,-0.007959323023446959,-0.03695235613783413,0.26887171648460534,0.3501456046191542,0.7760824875624993,1.8552340158272234,-0.05586162772986086,0.3181426103435138,0.4147828026864214,0.8098228438788905,-5.096726639295275e-05,-0.00014076522475277645,0.34356553734831924,0.4469876870795199,0.711002197231869,0.3483174863211801,0.45300729163897757,0.6925310483258836,0.5,-0.4,0.3
0.3900000000000002,4.739002179121599e-06,-0.33477954397735027,-0.3726742130503456,-0.398687894328289,-0.06132327019900361,-0.07171523331723545,-0.10008288428084762,0.00014420044072323808,0.9601019066891834,-0.17953854557894072,0.0,0.0,0.0,-0.045434258255840985,-0.2040935438330494,-0.008230125012276593,-0.011758110921036357,0.6486739011541038,-0.046164429646680216,-0.2094729177591923,0.04209827521384505,0.05350513866345863,0.6524169459509549,-1.5053451061654302,-0.025564322766284914,0.26976260894564913,0.3483592576885892,0.7768848118456021,-0.008335830891367016,-0.037668153470639745,0.26976260894564913,0.3483592576885892,0.7768848118456021,1.8546656820350884,-0.056861820571995375,0.31925695797550313,0.41277389928128966,0.8107235967321038,-5.1869550716765174e-05,-0.00013935893244886293,0.3448940682773856,0.4449620760582954,0.7119528528291579,0.3496860515113823,0.45097855769885725,0.6934910315388876,0.5,-0.4,0.3
0.4000000000000002,0.048426745997858234,-0.2716079022503392,-0.27492399652091887,-0.32798759293345153,-0.06800483347865105,-0.05898261543665782,-0.07609677914026258,0.00013037480144111356,0.9582748121865998,-0.18288994163652836,0.0,0.0,0.0,-0.047512471629410226,-0.2078203389612649,-0.00862875368909378,-0.012279799010603146,0.6486433923687175,-0.048296493320994636,-0.2134597967024752,0.041953218058279465,0.052777074643343434,0.6525571277356488,-1.5056058425903296,-0.026176592609073866,0.27066302524284325,0.34653469853061397,0.7776991770464403,-0.008719506410081585,-0.03838431817612616,0.27066302524284325,0.34653469853061397,0.7776991770464403,1.8540873417608161,-0.057862113629609885,0.32038426674035825,0.41072157138973164,0.811637996950987,-5.27580647056239e-05,-0.00013785113831918643,0.34623900692003934,0.44289178749653574,0.7129181427883987,0.3510716686358676,0.44890491200248045,0.6944658335991298,0.5,-0.4,0.3
0.4100000000000002,5.122998118167743e-06,-0.2716079022503392,-0.27492399652091887,-0.32798759293345153,-0.06800483347865105,-0.05898261543665782,-0.07609677914026258,0.00013037480144111356,0.9564204393434814,-0.1856167903889456,0.0,0.0,0.0,-0.04961817327446901,-0.21056969248328636,-0.009034627765967624,-0.012806857749929115,0.6486110896272554,-0.05046187963495733,-0.2167396726318097,0.04180376245758365,0.05203917287777198,0.6526977008528527,-1.505873554519966,-0.02685590219886176,0.2715705641952962,0.3446788803965336,0.7785208640723346,-0.009109120655913967,-0.03897266753529047,0.2715705641952962,0.3446788803965336,0.7785208640723346,1.853501336684053,-0.058622335328231086,0.3215214406720703,0.4086335756546057,0.8125606480559204,-5.3723647378529467e-05,-0.00013645122806670885,0.3475962758909201,0.44078426065985193,0.713892332868099,0.3524700768664061,0.44679373449260823,0.6954496571320576,0.5,-0.4,0.3
0.4200000000000002,4.443998477654532e-06,-0.2716079022503392,-0.27492399652091887,-0.32798759293345153,-0.06800483347865105,-0.05898261543665782,-0.07609677914026258,0.00013037480144111356,0.9545388847185421,-0.1882863975273578,0.0,0.0,0.0,-0.05175136761033897,-0.21331896835316577,-0.009447821789590164,-0.01333921826687081,0.6485769381933049,-0.05266008697211452,-0.22001954856114422,0.04164974315426023,0.0512914792026385,0.6528386046999376,-1.5061478884447905,-0.027193682964012568,0.272484617900844,0.34279173819517,0.7793499069935117,-0.009504578306437746,-0.03946641474894206,0.272484617900844,0.34279173819517,0.7793499069935117,1.8529077827397658,-0.05927057454898087,0.32266778309200594,0.4065098174181697,0.8134916162583989,-5.458523629777871e-05,4.099542571508585e-05,0.34896515300010966,0.43863942941712214,0.7148755102274207,0.35388054924461504,0.44464496437019735,0.6964425932122845,0.5,-0.4,0.3
0.4300000000000002,4.317000275477767e-06,-0.2716079022503392,-0.27492399652091887,-0.32798759293345153,-0.06800483347865105,-0.05898261543665782,-0.07609677914026258,0.00013037480144111356,0.9526301592201764,-0.19101886555666692,0.0,0.0,0.0,-0.05391205456127705,-0.21606797463657357,-0.009868411053234518,-0.01387680834226229,0.6485408826974985,-0.05489109266356132,-0.22329942449047874,0.04149102991816497,0.05053401402529184,0.6529797772716825,-1.5064290081081697,-0.02820066579772037,0.27340481698938446,0.34087310204030313,0.7801861424304143,-0.00990592733032126,-0.040149221111390326,0.27340481698938446,0.34087310204030313,0.7801861424304143,1.8523066247687239,-0.06014021065996098,0.3238228835249006,0.4043500892446594,0.8144307137122723,-5.542829879525186e-05,-0.0001275809231940407,0.3503451876198929,0.4364570386339995,0.7158674792564007,0.35530262763764847,0.44245833758527797,0.6974444447786677,0.5,-0.4,0.3
0.4400000000000002,4.534002073341981e-06,-0.2716079022503392,-0.27492399652091887,-0.32798759293345153,-0.06800483347865105,-0.05898261543665782,-0.07609677914026258,0.00013037480144111356,0.9506942325186377,-0.19373003695603988,0.0,0.0,0.0,-0.05610023410430593,-0.21881719327357485,-0.01029647198522799,-0.014419553848296523,0.6485028670733017,-0.057154924676307096,-0.22657930041981325,0.041327496156258386,0.049766794583834546,0.6531211555307138,-1.506716910900151,-0.028878767793076424,0.27433080499572415,0.3389227595747339,0.7810294663632876,-0.010313164432135634,-0.040738418842920544,0.27433080499572415,0.3389227595747339,0.7810294663632876,1.8516978647812596,-0.06090066121699736,0.32498634565801304,0.4021541293909571,0.8153778298086574,-5.625101142654435e-05,-0.00012585663782558633,0.35173595479263825,0.4342367972676304,0.7168681306259888,0.3567358817336897,0.4402335576184105,0.6984551027413778,0.5,-0.4,0.3
0.45000000000000023,4.477002221392468e-06,-0.2716079022503392,-0.27492399652091887,-0.32798759293345153,-0.06800483347865105,-0.05898261543665782,-0.07609677914026258,0.00013037480144111356,0.9487311035502138,-0.19646784111375307,0.0,0.0,0.0,-0.058315906312418724,-0.22156662615962952,-0.010732081191797851,-0.014967379408323279,0.6484628345573215,-0.0594515736743333,-0.22985917634914776,0.041159009609997695,0.04898984241279555,0.6532626754217681,-1.5070116157126991,-0.02957058646668529,0.2752621967727975,0.33694051910596723,0.7818797643025373,-0.010726294781739826,-0.041329420283959306,0.2752621967727975,0.33694051910596723,0.7818797643025373,1.8510814965531814,-0.061664615822863866,0.3261577396724028,0.39992170068544985,0.8163328407951622,-5.7063348859038126e-05,-0.00013083307341085933,0.35313699228164447,0.4319784376979995,0.7178773404878916,0.3581798432366429,0.43797035115828914,0.6994744432341962,0.5,-0.4,0.3
0.46000000000000024,4.407997039379552e-06,-0.2716079022503392,-0.27492399652091887,-0.32798759293345153,-0.06800483347865105,-0.05898261543665782,-0.07609677914026258,0.00013037480144111356,0.9467407799138314,-0.1991856938475687,0.0,0.0,0.0,-0.06055907103709327,-0.2243159015582426,-0.011175315616330742,-0.015520208128802442,0.6484207276963803,-0.061781049710150394,-0.23313905227848228,0.040985437189187096,0.04820317968631196,0.6534042718294438,-1.5073131032573994,-0.030249498587353936,0.27619860140188324,0.33492618205501706,0.7827369331866073,-0.011145313150325077,-0.04191825788219647,0.27619860140188324,0.33492618205501706,0.7827369331866073,1.8504575261877394,-0.06242506381958324,0.32733662878643954,0.397652556633646,0.8172956381310623,-5.7855626562452225e-05,-0.00012946273605947932,0.3545478327823419,0.42968168734419687,0.7188950021421632,0.3596340391367162,0.4356684407480381,0.7005023599012474,0.5,-0.4,0.3
0.47000000000000025,4.278001142665744e-06,-0.2716079022503392,-0.27492399652091887,-0.32798759293345153,-0.06800483347865105,-0.05898261543665782,-0.07609677914026258,0.00013037480144111356,0.9447232701174955,-0.20186797617827296,0.0,0.0,0.0,-0.06282972843455176,-0.22706526199518312,-0.011626252713267643,-0.016077961644593464,0.6483764883392582,-0.06414334611448344,-0.2364189282078168,0.04080664296597023,0.04740683066730779,0.6535458786132579,-1.5076212251415586,-0.030593427203939157,0.27713960415509853,0.33287954196743624,0.7836009152651751,-0.011570176394058808,-0.042411668005245345,0.27713960415509853,0.33287954196743624,0.7836009152651751,1.8498260030803109,-0.06307479826306202,0.32852254713636886,0.39534643822144266,0.8182661722665984,-5.855164083386357e-05,4.418553201104153e-05,0.35596798663772466,0.4273462771577507,0.7199210749885553,0.3610979753295669,0.4333275554636027,0.7015388138150893,0.5,-0.4,0.3
0.48000000000000026,4.377001459943131e-06,-0.2716079022503392,-0.27492399652091887,-0.32798759293345153,-0.06800483347865105,-0.05898261543665782,-0.07609677914026258,0.00013037480144111356,0.9426785681193325,-0.20460706632645076,0.0,0.0,0.0,-0.06512787848936323,-0.22981433844806984,-0.012084970591011572,-0.016640559793650634,0.648330057646854,-0.06653844911988492,-0.2396988041371513,0.040622489627576586,0.04660082075837793,0.6536874285673199,-1.5079361430878127,-0.03159542360334074,0.2780848108954654,0.33080042223820727,0.7844715350052665,-0.012000931214971977,-0.04309366591903196,0.2780848108954654,0.33080042223820727,0.7844715350052665,1.8491868733753032,-0.06394257347548739,0.3297150562149057,0.3930031280515099,0.8192442420865125,-5.923495308227974e-05,-0.00012072878409775164,0.3573969725325586,0.4249719422490889,0.720955349388593,0.362571162498475,0.430947421538356,0.702583593744122,0.5,-0.4,0.3
0.49000000000000027,4.490000719670206e-06,-0.2716079022503392,-0.27492399652091887,-0.32798759293345153,-0.06800483347865105,-0.05898261543665782,-0.07609677914026258,0.00013037480144111356,0.9406066781098175,-0.20731736584172736,0.0,0.0,0.0,-0.06745352094109552,-0.2325635458153111,-0.012551547587902034,-0.017207920857466908,0.6482813760958801,-0.06896638290895073,-0.24297868006648582,0.04043284016174282,0.045785175196357025,0.6538288533918224,-1.5082578344527262,-0.03227342073317066,0.2790338157752568,0.3286886199181628,0.785348682318169,-0.012437571103024223,-0.04368290355208686,0.2790338157752568,0.3286886199181628,0.785348682318169,1.848540144402914,-0.06470303210353587,0.3309137021987068,0.3906223731977044,0.8202297314623503,-5.989407133441866e-05,-0.00011892883890859268,0.35883430491179724,0.42255840385962234,0.721997710767982,0.3640531091572347,0.4285277553852145,0.7036365854045487,0.5,-0.4,0.3
0.5000000000000002,0.04714441699979943,-0.21803228276872103,-0.17568134281397788,-0.2678914659409308,-0.08059687868194605,-0.04813451184408315,-0.05515690806908639,-3.060801038334914e-05,0.9385076097025985,-0.21002160522308044,0.0,0.0,0.0,-0.06980665607171106,-0.23531303664676384,-0.013026062449899232,-0.017779961703971083,0.648230383463994,-0.07142713617679836,-0.24625855599582033,0.040237553311960855,0.044959922552448184,0.6539700837579154,-1.5085860684650323,-0.03265996471757901,0.2799861738513195,0.32654392317559555,0.7862323215377818,-0.01288002817573861,-0.04418615490971442,0.2799861738513195,0.32654392317559555,0.7862323215377818,1.8478858932845614,-0.06536601338928193,0.3321179833153314,0.38820390529341037,0.8212226208682922,-6.0410823129656117e-05,3.2363227734532284e-05,0.3602794614476176,0.42010539381716744,0.7230481528056979,0.36554328913589534,0.426068288868337,0.7046977849435307,0.5,-0.4,0.3
0.5100000000000002,5.2440009312704206e-06,-0.21803228276872103,-0.17568134281397788,-0.2678914659409308,-0.08059687868194605,-0.04813451184408315,-0.05515690806908639,-3.060801038334914e-05,0.9363867930417841,-0.21220370964395346,0.0,0.0,0.0,-0.07217735399985563,-0.23706987678885505,-0.013506639770829817,-0.018354150016014408,0.6481772451483303,-0.07391521266415774,-0.24893747065522964,0.04003779326632759,0.04412817240804488,0.6541104630969031,-1.5089223394814433,-0.03346577829444758,0.28094057445240206,0.324373095604307,0.7871175420045144,-0.013327294081001624,-0.04466650754727909,0.28094057445240206,0.324373095604307,0.7871175420045144,1.8472261304430027,-0.06591736040114296,0.33332606840888296,0.38575527172459106,0.822217235417334,-6.092233201318355e-05,3.140723300899383e-05,0.36172963634377087,0.4176200402483416,0.7241006014784549,0.3670387144624415,0.4235760717481081,0.70576104373287,0.5,-0.4,0.3
0.5200000000000002,4.349996743258089e-06,-0.21803228276872103,-0.17568134281397788,-0.2678914659409308,-0.08059687868194605,-0.04813451184408315,-0.05515690806908639,-3.060801038334914e-05,0.9342441330640435,-0.21442287715914313,0.0,0.0,0.0,-0.07456562001124882,-0.23882670365063602,-0.013993337263370785,-0.01893042043239024,0.6481219219516258,-0.0764300935734106,-0.2516163853146389,0.03983342429450932,0.04328997077322462,0.6542499443415462,-1.5092669155842342,-0.03457452733390402,0.2818965574926719,0.3221761476238909,0.7880041588841445,-0.013779439706803245,-0.04523368675104839,0.2818965574926719,0.3221761476238909,0.7880041588841445,1.8465607714731969,-0.0665687835471019,0.334537436218955,0.3832764780207261,0.823213355301023,-6.156557367312251e-05,-0.00012453041222251857,0.3631842475966609,0.41510231145822724,0.7251548190897448,0.3685387917794097,0.42105106537177883,0.7068261207324965,0.5,-0.4,0.3
0.5300000000000002,4.6099994506221265e-06,-0.21803228276872103,-0.17568134281397788,-0.2678914659409308,-0.08059687868194605,-0.04813451184408315,-0.05515690806908639,-3.060801038334914e-05,0.9320796930914238,-0.21659083277209673,0.0,0.0,0.0,-0.07697145398829908,-0.24058343328946644,-0.014486208774189928,-0.01950870731726167,0.6480643745239376,-0.0789717912523291,-0.2542952999740482,0.039624337296877685,0.04244534422307374,0.6543884793323933,-1.5096192880616786,-0.03536857343138869,0.2828537290444126,0.31995290006278754,0.788892269026187,-0.014236319218780637,-0.04571214166699457,0.2828537290444126,0.31995290006278754,0.788892269026187,1.8458899844916146,-0.06711682873341024,0.33575163550003834,0.3807672892629396,0.8242111245968916,-6.208030030775834e-05,-0.0001192597530287878,0.3646428405602236,0.41255201795989055,0.7262109751488854,0.37004306580511803,0.41849308874436736,0.7078931902053329,0.5,-0.4,0.3
0.5400000000000003,4.692999937105924e-06,-0.21803228276872103,-0.17568134281397788,-0.2678914659409308,-0.08059687868194605,-0.04813451184408315,-0.05515690806908639,-3.060801038334914e-05,0.9298934370516033,-0.21877107946997948,0.0,0.0,0.0,-0.07939485611468072,-0.24234025989967187,-0.014985310050461659,-0.020088942730375703,0.6480045632410223,-0.08154028974598922,-0.2569742146334575,0.03941042482765935,0.04159431785893234,0.6545260193775525,-1.5099797012192695,-0.03617325728785367,0.2838117770546127,0.3177032324947767,0.7897816894555669,-0.014698001913282967,-0.04619252881395408,0.2838117770546127,0.3177032324947767,0.7897816894555669,1.845213688998887,-0.06766791336662717,0.33696831929720394,0.378227555656156,0.8252103264977753,-6.259160934720316e-05,-0.0001194604157632893,0.3661050195139318,0.40996896470436583,0.7272688355344723,0.3715511317039744,0.41590193835823686,0.708962014793668,0.5,-0.4,0.3
0.5500000000000003,4.51400046586059e-06,-0.21803228276872103,-0.17568134281397788,-0.2678914659409308,-0.08059687868194605,-0.04813451184408315,-0.05515690806908639,-3.060801038334914e-05,0.9276853585237174,-0.22094834251352133,0.0,0.0,0.0,-0.08183582639782026,-0.2440970598350329,-0.015490696255745793,-0.020671058049248212,0.6479424482165541,-0.0841355928864378,-0.25965312929286677,0.03919157851631126,0.04073691802490159,0.6546625151976116,-1.510348156623588,-0.03697690154565643,0.28477036154912405,0.31542700335480534,0.7906723249378391,-0.015164487433480778,-0.04667291866659145,0.28477036154912405,0.31542700335480534,0.7906723249378391,1.8445318847368717,-0.06821878220016464,0.3381871053049651,0.375657096934677,0.8262108577421449,-6.310042825691829e-05,-0.00011910136700863435,0.3675703676680967,0.4073529556024773,0.7283282932262404,0.37306256624064466,0.41327741516655214,0.7100324867746695,0.5,-0.4,0.3
0.5600000000000003,1.7710997781250626e-05,-0.21803228276872103,-0.17568134281397788,-0.2678914659409308,-0.08059687868194605,-0.04813451184408315,-0.05515690806908639,-3.060801038334914e-05,0.9254554395905297,-0.2231287178455144,0.0,0.0,0.0,-0.08429436499413547,-0.24585388561678478,-0.016002422804304455,-0.02125498345800609,0.6478779892952065,-0.08675770014830657,-0.26233204395227605,0.0389676892728157,0.03987317191630161,0.6547979169511394,-1.5107246508873844,-0.03778156833942867,0.2857291395153675,0.3131240698920724,0.791564080272436,-0.01563577263896553,-0.04715327788390984,0.2857291395153675,0.3131240698920724,0.791564080272436,1.843844573626004,-0.06876986088784265,0.3394076076683137,0.3730557309516748,0.8272126154371531,-6.360531772860898e-05,-0.00011928605826141709,0.3690384647208102,0.40470379355248665,0.7293892417274429,0.3745769426745479,0.4106193192722646,0.7111044989779643,0.5,-0.4,0.3
0.5700000000000003,4.410998371895403e-06,-0.21803228276872103,-0.17568134281397788,-0.2678914659409308,-0.08059687868194605,-0.04813451184408315,-0.05515690806908639,-3.060801038334914e-05,0.9232036900220594,-0.2253190914822754,0.0,0.0,0.0,-0.08677047177189005,-0.24761079906927674,-0.01652054444068252,-0.021840648445980725,0.647811146065133,-0.08940661267926568,-0.26501095861168533,0.03873864617675642,0.039003108921306415,0.6549321742027155,-1.5111092030497901,-0.03858752037429903,0.2866877572291177,0.3107943006106484,0.7924568499828503,-0.0161118641026008,-0.04763288018582734,0.2866877572291177,0.3107943006106484,0.7924568499828503,1.8431517488732911,-0.06932092844553782,0.3406294280197032,0.3704232891349828,0.828215483624041,-6.411601612994026e-05,-0.00012026801022016823,0.37050887523547227,0.40202129324598807,0.7304515599595267,0.3760938186402889,0.40792746223869936,0.7121779293680287,0.5,-0.4,0.3
0.5800000000000003,4.483998054638505e-06,-0.21803228276872103,-0.17568134281397788,-0.2678914659409308,-0.08059687868194605,-0.04813451184408315,-0.05515690806908639,-3.060801038334914e-05,0.9209301289688798,-0.22749371531403598,0.0,0.0,0.0,-0.0892641466312596,-0.24936757217842598,-0.01704511561345681,-0.022427981639673397,0.6477418778511915,-0.09208233339996491,-0.2676898732710946,0.03850433724742934,0.03812675981969578,0.6550652359364652,-1.5115017043255004,-0.03939103572004249,0.2876458425380246,0.3084375544706547,0.7933505736867248,-0.01659273071178356,-0.0481135161403266,0.2876458425380246,0.3084375544706547,0.7933505736867248,1.8424534463078468,-0.06987187888959101,0.34185214489808174,0.36775958859812474,0.8292194048835918,-6.457721566763234e-05,-0.0001197928061789132,0.3719811483447464,0.399305270639039,0.7315151926106074,0.3776127377740295,0.405201659805565,0.7132527230268719,0.5,-0.4,0.3
0.5900000000000003,4.584999260259792e-06,-0.21803228276872103,-0.17568134281397788,-0.2678914659409308,-0.08059687868194605,-0.04813451184408315,-0.05515690806908639,-3.060801038334914e-05,0.9186347476539661,-0.22964314813240846,0.0,0.0,0.0,-0.09177538959988478,-0.25112442315583217,-0.017576191308224267,-0.02301691018811628,0.6476701437132046,-0.09478485840534333,-0.2703687879305039,0.03826465034334005,0.03724415582410464,0.6551970505623474,-1.5119022205651063,-0.0398859843015122,0.28860304070290177,0.30605370429031536,0.7942451248588857,-0.017078391254008948,-0.048502802622467076,0.28860304070290177,0.30605370429031536,0.7942451248588857,1.841749644079256,-0.070319980389914,0.343075359313987,0.36506446615620575,0.8302242367036713,-6.502261343458195e-05,3.7125947133663e-05,0.3734548444676916,0.3965555408855515,0.7325799890790078,0.3791332529076364,0.40244172307795256,0.714328727840753,0.5,-0.4,0.3
0.6000000000000003,0.048675965997972526,-0.1721637235334459,-0.0759836464505915,-0.21663180481471894,-0.09719145379916348,-0.03864314844815286,-0.03673357857632374,0.00011385068559820842,0.9163175509084618,-0.23186023466331826,0.0,0.0,0.0,-0.09430420075107644,-0.2528812678873135,-0.018113826117360246,-0.023607360412520942,0.6475959024490678,-0.09751418017976009,-0.2730477025899132,0.0380194717585396,0.036355330068861436,0.6553275659058819,-1.5123106858476771,-0.041000525785775344,0.28955897488744087,0.3036426160086418,0.7951404234713133,-0.017568825798188872,-0.04907349436964398,0.28955897488744087,0.3036426160086418,0.7951404234713133,1.8410403645514815,-0.07097383612075032,0.34429864476916544,0.362337747368184,0.8312298969494052,-6.541896311588388e-05,-0.00012037945534209681,0.37492950426165345,0.39377192418598245,0.7336458666240551,0.3806548985593147,0.3996474712547298,0.7154058609557653,0.5,-0.4,0.3
0.6100000000000003,5.527999746846035e-06,-0.1721637235334459,-0.0759836464505915,-0.21663180481471894,-0.09719145379916348,-0.03864314844815286,-0.03673357857632374,0.00011385068559820842,0.9139829839925382,-0.23355671541638828,0.0,0.0,0.0,-0.09684060910331693,-0.25364111552589935,-0.01865605216423743,-0.024196856818384883,0.6475194172666543,-0.10026545555657633,-0.2752140206380604,0.037770202673837884,0.03546330474987628,0.6554562230849641,-1.5127288557430645,-0.041724573333127304,0.29051329495000183,0.30121082487868056,0.7960315938014353,-0.01806309712298529,-0.04938607773325899,0.29051329495000183,0.30121082487868056,0.7960315938014353,1.8403274231325493,-0.07125851586886539,0.34552128165226575,0.35958672017791116,0.8322307132241066,-6.580341395022461e-05,5.639006893545621e-06,0.37640345583752455,0.3909612551010279,0.734706716813226,0.382175824844115,0.39682565415207777,0.7164779324373605,0.5,-0.4,0.3
0.6200000000000003,4.574001650325954e-06,-0.1721637235334459,-0.0759836464505915,-0.21663180481471894,-0.09719145379916348,-0.03864314844815286,-0.03673357857632374,0.00011385068559820842,0.9116312088559569,-0.23527515742048505,0.0,0.0,0.0,-0.09938461584196175,-0.25440092136735404,-0.019202896121497223,-0.02478534962177849,0.6474406704366871,-0.10303840082107019,-0.2773803386862076,0.03751674217784705,0.0345681269579749,0.6555829949873437,-1.513156465648325,-0.04269538555599696,0.2914655591146053,0.29875835325503736,0.7969186688475823,-0.018561142993770378,-0.04977174860578738,0.2914655591146053,0.29875835325503736,0.7969186688475823,1.839610902873869,-0.07162552039923575,0.3467427567646232,0.356811392885583,0.8332267397081383,-6.603976017332936e-05,6.71810963812601e-06,0.3778761565742951,0.3881235817798592,0.7357626014677564,0.38369548364152345,0.3939763273675744,0.7175450055349747,0.5,-0.4,0.3
0.6300000000000003,4.292000085115433e-06,-0.1721637235334459,-0.0759836464505915,-0.21663180481471894,-0.09719145379916348,-0.03864314844815286,-0.03673357857632374,0.00011385068559820842,0.9092622048799375,-0.2369959789746083,0.0,0.0,0.0,-0.10193622087648749,-0.2551607465336834,-0.01975438839515853,-0.025372784942608133,0.6473596442347354,-0.10583302274292604,-0.2795466567343548,0.03725901358239417,0.03366982161419379,0.6557078539784278,-1.5135937258894006,-0.04366686580983954,0.29241552153352046,0.2962851313489137,0.7978015045864827,-0.019063025468651053,-0.05015732893973742,0.29241552153352046,0.2962851313489137,0.7978015045864827,1.8388907334129565,-0.07199263974670574,0.3479627941351833,0.3540116741421869,0.8342178026362976,-6.6234550150963e-05,7.41228131789437e-06,0.37934728061901357,0.3852587870853421,0.7368133266566796,0.3852135397748697,0.3910993689438758,0.7186068825483398,0.5,-0.4,0.3
0.6400000000000003,4.361998435342684e-06,-0.1721637235334459,-0.0759836464505915,-0.21663180481471894,-0.09719145379916348,-0.03864314844815286,-0.03673357857632374,0.00011385068559820842,0.9068759388035496,-0.2387196237278888,0.0,0.0,0.0,-0.10449542441284679,-0.2559205953244431,-0.020310559543527496,-0.025959108146472547,0.6472763208949548,-0.10864932204332356,-0.281712974782502,0.03699693978574056,0.03276841422238892,0.6558307721947645,-1.5140407141574217,-0.04463846549508989,0.29336292282688226,0.29379107509510755,0.7986800047802939,-0.019568764015346064,-0.050542571896341364,0.29336292282688226,0.29379107509510755,0.7986800047802939,1.8381668901383088,-0.07235966549640357,0.3491811004519169,0.35118745254958494,0.8352037902046339,-6.642787878819039e-05,7.967971971039461e-06,0.3808164932925918,0.38236674996758135,0.7378587680805607,0.3867296508329049,0.3881946560270199,0.7196634368424162,0.5,-0.4,0.3
0.6500000000000004,4.402998456498608e-06,-0.1721637235334459,-0.0759836464505915,-0.21663180481471894,-0.09719145379916348,-0.03864314844815286,-0.03673357857632374,0.00011385068559820842,0.904472417020253,-0.24045089056271196,0.0,0.0,0.0,-0.10706222635097831,-0.2566804677159098,-0.020871438801531455,-0.026544264748471727,0.6471906826297003,-0.11148729950595437,-0.2838792928306492,0.03673044204202652,0.03186393263052566,0.655951721507632,-1.5144974576261174,-0.04566243232612391,0.29430748431666437,0.2912761083655881,0.7995540904764291,-0.020078367715680612,-0.050943071319054324,0.29430748431666437,0.2912761083655881,0.7995540904764291,1.837439363552017,-0.07274402009704449,0.35039735880336853,0.3483386249932257,0.8361846129431693,-6.663327556257112e-05,-1.7927643789951084e-05,0.3822834383303367,0.37944736486179526,0.7388988265394528,0.38824345319519055,0.38526208259423816,0.7207145673985712,0.5,-0.4,0.3
0.6600000000000004,4.601999535225332e-06,-0.1721637235334459,-0.0759836464505915,-0.21663180481471894,-0.09719145379916348,-0.03864314844815286,-0.03673357857632374,0.00011385068559820842,0.9020516604228083,-0.24216671740481469,0.0,0.0,0.0,-0.109636626631617,-0.257440286422859,-0.021437054705534635,-0.02712820006919585,0.6471027116192372,-0.11434695717687852,-0.28604561087879643,0.0364594409269358,0.030956405916465646,0.6560706735376325,-1.5149637599890375,-0.04658165478032308,0.29524889879722765,0.2887401369612212,0.800423763230391,-0.02059177792285507,-0.05131303872387538,0.29524889879722765,0.2887401369612212,0.800423763230391,1.8367082192721864,-0.07309371532545063,0.351611215927203,0.3454650621095293,0.8371602855842954,-6.675201342960204e-05,9.080468905789917e-06,0.38374773795792516,0.3765005264752024,0.7399335202191145,0.3897545645057237,0.3823015478519637,0.7217602930480527,0.5,-0.4,0.3
0.6700000000000004,4.494002496358007e-06,-0.1721637235334459,-0.0759836464505915,-0.21663180481471894,-0.09719145379916348,-0.03864314844815286,-0.03673357857632374,0.00011385068559820842,0.8996136435256553,-0.24389037969611352,0.0,0.0,0.0,-0.11221862537348695,-0.258200130542308,-0.022007436756834434,-0.027710857968702856,0.6470123900071976,-0.11722829117990548,-0.28821192892694364,0.0361838577918035,0.030045862561987217,0.6561875996665693,-1.5154397677228932,-0.047553254134587775,0.2961869010382669,0.2861830927052248,0.801288898203584,-0.021109036550991337,-0.051698236462055215,0.2961869010382669,0.2861830927052248,0.801288898203584,1.8359734088667494,-0.07346073229271018,0.3528223720868754,0.34256667212858727,0.8381306597047881,-6.685840898384625e-05,9.625652420353938e-06,0.3852090451122364,0.3735261274853132,0.7409626838363815,0.39126262885529456,0.37931294157068257,0.7228004453563055,0.5,-0.4,0.3
0.6800000000000004,4.8199981392826885e-06,-0.1721637235334459,-0.0759836464505915,-0.21663180481471894,-0.09719145379916348,-0.03864314844815286,-0.03673357857632374,0.00011385068559820842,0.8971584144766982,-0.24560820164413585,0.0,0.0,0.0,-0.11480822215483417,-0.25895992213750263,-0.022582612012844328,-0.028292183246090032,0.6469196999263458,-0.12013130359188168,-0.29037824697509085,0.03590361190385037,0.02913233433239615,0.6563024709906093,-1.5159254338114028,-0.04852458267659261,0.2971211850049615,0.28360490884125217,0.8021494398518112,-0.02163013545216559,-0.05208417635135494,0.2971211850049615,0.28360490884125217,0.8021494398518112,1.835234945923973,-0.07382794275336871,0.35403047669549714,0.33964336105289206,0.8390956763719939,-6.69273266518559e-05,1.0536090350637788e-05,0.38666697325025007,0.3705240824156285,0.7419862528295352,0.39276725298011045,0.3762961798666073,0.7238349587094495,0.5,-0.4,0.3
0.6900000000000004,4.75199703942053e-06,-0.1721637235334459,-0.0759836464505915,-0.21663180481471894,-0.09719145379916348,-0.03864314844815286,-0.03673357857632374,0.00011385068559820842,0.8946859402395553,-0.24732749760192996,0.0,0.0,0.0,-0.11740541722890968,-0.2597197256031154,-0.023162609572011675,-0.028872118563469946,0.6468246234562729,-0.12305599320802664,-0.29254456502323806,0.03561862437319289,0.02821585090083925,0.6564152583842239,-1.5164207961759835,-0.04949560848768597,0.2980514722480659,0.2810055062304204,0.803005300728973,-0.022155081622858005,-0.052469821816625864,0.2980514722480659,0.2810055062304204,0.803005300728973,1.834492819260984,-0.07419497979883236,0.3552352130724503,0.33669502135321006,0.8400552358263279,-6.697902741261178e-05,1.155709626768104e-05,0.388121165477454,0.3674942817834221,0.7430041168664323,0.3942680724690435,0.37325115289187294,0.7248637207991621,0.5,-0.4,0.3
0.7000000000000004,0.04924453600324341,-0.13473241719342352,0.02782627935965072,-0.1750817452514356,-0.1207937254886526,-0.030955259845912495,-0.020993578516799977,-1.1077777068447135e-05,0.892196226860842,-0.24905444378103006,0.0,0.0,0.0,-0.12001021051928715,-0.260479593131168,-0.023747457062942685,-0.029450606818385003,0.6467271426591468,-0.12600236044348836,-0.29471088307138527,0.03532881499291359,0.027296444194688248,0.6565259324467745,-1.5169258600708142,-0.050467724953821555,0.29897746762635335,0.27838481533860826,0.8038564039754601,-0.022683877393091065,-0.052854675295517586,0.29897746762635335,0.27838481533860826,0.8038564039754601,1.833747026823375,-0.07456200334136674,0.35643624413308794,0.33372155617353283,0.8410092519970791,-6.701597143314471e-05,1.1713034604728806e-05,0.38957124557288164,0.36443663182302755,0.7440161810722409,0.3957647037859272,0.3701777674584471,0.7258866351049814,0.5,-0.4,0.3
0.7100000000000004,5.044003046350554e-06,-0.13473241719342352,0.02782627935965072,-0.1750817452514356,-0.1207937254886526,-0.030955259845912495,-0.020993578516799977,-1.1077777068447135e-05,0.8896931823138585,-0.25039157945258994,0.0,0.0,0.0,-0.12261221777245504,-0.2602012476477971,-0.02433501397269215,-0.030025155238597355,0.646627640918091,-0.12896655288500733,-0.29646170052389964,0.035035897096534124,0.02637712452976789,0.6566340266662563,-1.5174429782819459,-0.051640092863159084,0.29989989660620797,0.2757492805029101,0.8046976602467083,-0.023215776408138347,-0.05315363700075118,0.29989989660620797,0.2757492805029101,0.8046976602467083,1.8329991354348938,-0.07476022896917188,0.35763408787576956,0.3307301508720132,0.8419517479674613,-6.703946745989647e-05,2.9033838786020165e-05,0.3910167483780291,0.3613577740793871,0.7450159616217674,0.39725649800461965,0.36708256346394297,0.7268971230524789,0.5,-0.4,0.3
0.7200000000000004,4.304001777200028e-06,-0.13473241719342352,0.02782627935965072,-0.1750817452514356,-0.1207937254886526,-0.030955259845912495,-0.020993578516799977,-1.1077777068447135e-05,0.8871766301726114,-0.2517472479013562,0.0,0.0,0.0,-0.1252114424502693,-0.25992301830635095,-0.024925289685399674,-0.030595726913927,0.646526125591963,-0.1319482591952439,-0.298212517976414,0.03473981261139977,0.025457923643853096,0.6567395396665384,-1.5179721708795602,-0.05288231487860308,0.30081851358396905,0.2730989151190751,0.8055290360361378,-0.02375075861159242,-0.053471939845876434,0.30081851358396905,0.2730989151190751,0.8055290360361378,1.8322491485325618,-0.0749813020523096,0.35882845986102047,0.32772080756746397,0.8428826837601586,-6.706726368137638e-05,1.0927905495446838e-05,0.3924573463206154,0.35825773007693257,0.746003406517095,0.3987431194906331,0.3639655660600108,0.7278951303968961,0.5,-0.4,0.3
0.7300000000000004,4.661000275518745e-06,-0.13473241719342352,0.02782627935965072,-0.1750817452514356,-0.1207937254886526,-0.030955259845912495,-0.020993578516799977,-1.1077777068447135e-05,0.8846465996940054,-0.25309557613968503,0.0,0.0,0.0,-0.12780788428185433,-0.25964474492073125,-0.025518286511346962,-0.0311622887749742,0.6464226041813672,-0.13494748237818582,-0.2999633354289284,0.03444051656320342,0.024538863296157475,0.6568424694307814,-1.5185134130588387,-0.05408988125047917,0.3017331112862168,0.2704336876284491,0.8063505099263693,-0.024288820476132934,-0.053780362519618825,0.3017331112862168,0.2704336876284491,0.8063505099263693,1.8314970730907014,-0.07519094591987383,0.3600191190836874,0.3246934756803853,0.8438020345360853,-6.708575093800118e-05,1.0322104859266344e-05,0.39389276002182727,0.3551364697576938,0.7469784807838967,0.4002242816925076,0.3608267490244804,0.728880620269469,0.5,-0.4,0.3
0.7400000000000004,4.731999069917947e-06,-0.13473241719342352,0.02782627935965072,-0.1750817452514356,-0.1207937254886526,-0.030955259845912495,-0.020993578516799977,-1.1077777068447135e-05,0.882103103018087,-0.25443300295107146,0.0,0.0,0.0,-0.1304015431619421,-0.25936639499771647,-0.026114006933465217,-0.03172480733758449,0.6463170841835346,-0.1379642212532376,-0.30171415288144277,0.034137964165676826,0.02361996520398972,0.6569428138521064,-1.5190666973201037,-0.05526313143825831,0.3026434858528249,0.26775356554628676,0.8071620536565337,-0.024829961471051945,-0.054079543405253054,0.3026434858528249,0.26775356554628676,0.8071620536565337,1.8307429110511753,-0.07538941026101173,0.36120582872195606,0.3216481037038629,0.8447097666955444,-6.709061009899355e-05,2.719346774041672e-05,0.3953227132738475,0.3519939606295302,0.7479411397758664,0.4016997010405562,0.35766608341937456,0.7298535459591041,0.5,-0.4,0.3
0.7500000000000004,4.565998096950352e-06,-0.13473241719342352,0.02782627935965072,-0.1750817452514356,-0.1207937254886526,-0.030955259845912495,-0.020993578516799977,-1.1077777068447135e-05,0.8795461154047065,-0.2557814619465611,0.0,0.0,0.0,-0.1329924192750828,-0.25908811884488325,-0.02671245431740027,-0.0322832481550423,0.6462095730862976,-0.1409984741918343,-0.30346497033395714,0.03383211138177493,0.02270125015381104,0.657040570732958,-1.519632061136766,-0.05647087446325772,0.3035494460470382,0.2650585111058444,0.8079636221362954,-0.025374189570226167,-0.05438798780613535,0.3035494460470382,0.2650585111058444,0.8079636221362954,1.8299866508885103,-0.0755990887669344,0.3623883675065718,0.31858463447383417,0.8456058250297709,-6.710158478914259e-05,2.6495702817687372e-05,0.3967469428404362,0.3488301595434532,0.7488913146691729,0.40316910645424264,0.3544835287153446,0.7308138360970985,0.5,-0.4,0.3
0.7600000000000005,5.141999281477183e-06,-0.13473241719342352,0.02782627935965072,-0.1750817452514356,-0.1207937254886526,-0.030955259845912495,-0.020993578516799977,-1.1077777068447135e-05,0.8769756405005042,-0.2571395489840371,0.0,0.0,0.0,-0.13558051256680603,-0.2588099066958056,-0.027313630763743976,-0.03283757736313952,0.6461000783893573,-0.14405024288952514,-0.3052157877864715,0.03352291365327543,0.021782740154303093,0.6571357377575047,-1.5202095062532925,-0.05771252470198264,0.30445078846515267,0.26234849130524784,0.8087551824969625,-0.025921505855494364,-0.054705753824372594,0.30445078846515267,0.26234849130524784,0.8087551824969625,1.8292282917908218,-0.07581990943532022,0.3635664990411975,0.3155030158117094,0.846490170075883,-6.71193242253333e-05,8.618248077668818e-06,0.39816517224048076,0.34564503345873,0.749828954559959,0.40463221395997295,0.3512790554488273,0.7317614376410947,0.5,-0.4,0.3
0.7700000000000005,4.908000846626237e-06,-0.13473241719342352,0.02782627935965072,-0.1750817452514356,-0.1207937254886526,-0.030955259845912495,-0.020993578516799977,-1.1077777068447135e-05,0.874391669043885,-0.258488199585409,0.0,0.0,0.0,-0.13816582309081415,-0.2585316294649289,-0.027917538474536197,-0.03338776069754438,0.6459886075899989,-0.1471195287464843,-0.3069666052389859,0.03321032661986778,0.020864457158534543,0.6572283125103648,-1.5207990374878255,-0.05892010394503363,0.3053473114448738,0.2596234706912341,0.8095367001561102,-0.02647191026916591,-0.055014110812391305,0.3053473114448738,0.2596234706912341,0.8095367001561102,1.8284678325812411,-0.07602953857933648,0.36473998896131,0.31240319251768317,0.84736276023843,-6.714670635071801e-05,8.008550401263949e-06,0.39957712698543774,0.3424385464407774,0.7507540063441667,0.40608874156938685,0.3480526312862156,0.7326962953358932,0.5,-0.4,0.3
0.7800000000000005,4.7670000640209764e-06,-0.13473241719342352,0.02782627935965072,-0.1750817452514356,-0.1207937254886526,-0.030955259845912495,-0.020993578516799977,-1.1077777068447135e-05,0.8717942151546065,-0.25982673634525877,0.0,0.0,0.0,-0.14074835072988634,-0.25825327992887404,-0.02852417849913862,-0.03393376442384932,0.6458751681948824,-0.15020633035836037,-0.30871742269150027,0.03289430526042464,0.01994642450953238,0.6573182924701562,-1.5214006429473426,-0.06009410004472024,0.3062388027284229,0.2568834213155451,0.8103081458870249,-0.027025401265723035,-0.05531330777050011,0.3062388027284229,0.2568834213155451,0.8103081458870249,1.8277052765836572,-0.0762281189606955,0.36590858986168845,0.3092851180017417,0.8482235607980955,-6.717708244150758e-05,2.4437335964417294e-05,0.400982520129444,0.33921067419825596,0.751666424853092,0.4075383949458469,0.34480423610414646,0.7336183620596334,0.5,-0.4,0.3
0.7900000000000005,4.518999048741534e-06,-0.13473241719342352,0.02782627935965072,-0.1750817452514356,-0.1207937254886526,-0.030955259845912495,-0.020993578516799977,-1.1077777068447135e-05,0.8691832729984263,-0.2611751201110491,0.0,0.0,0.0,-0.14332809550763104,-0.25797499675934005,-0.029133552224799363,-0.03447555422221449,0.6457597677065194,-0.15331064631042954,-0.31046824014401464,0.032574804919726016,0.019028665251010504,0.6574056750170159,-1.5220143755823918,-0.06130184055174623,0.3071250605196216,0.25412831723199547,0.8110694664203641,-0.027581995234420755,-0.05562174512821928,0.3071250605196216,0.25412831723199547,0.8110694664203641,1.826940605179433,-0.07643779427315363,0.367072067509101,0.3061487491706305,0.8490725059556585,-6.723663902983696e-05,2.3764080273505628e-05,0.4023810733172999,0.33596138907375434,0.7525661299443128,0.4089808874870567,0.341533845130413,0.7345275549889211,0.5,-0.4,0.3
0.8000000000000005,0.04890644199986127,-0.10316694832315718,0.1333389444728016,-0.14059290680475683,-0.14876872115759573,-0.02441018659366927,-0.007391640858316013,-5.964418850542702e-06,0.8665588380364478,-0.2625330072528099,0.0,0.0,0.0,-0.1459050574693653,-0.25769677860896695,-0.029745660660973314,-0.03501309573115347,0.645642413628035,-0.15643247799181834,-0.312219057596529,0.03225178101142563,0.018111202704908555,0.6574904574224218,-1.5226401438545079,-0.06254278153077752,0.3080058656993505,0.25135811766404453,0.8118206600399598,-0.02814166135044068,-0.055939328790798756,0.3080058656993505,0.25135811766404453,0.8118206600399598,1.8261738509040475,-0.07665846340238193,0.36823016517993956,0.3029940222805947,0.8499095968392832,-6.728091726527782e-05,6.30644786144257e-06,0.40377249674971505,0.3326906594595535,0.7534531174983627,0.41041592321135534,0.3382414327640318,0.7354238690234244,0.5,-0.4,0.3
0.8100000000000005,5.576999683398753e-06,-0.10316694832315718,0.1333389444728016,-0.14059290680475683,-0.14876872115759573,-0.02441018659366927,-0.007391640858316013,-5.964418850542702e-06,0.8639239185731742,-0.26355382917689046,0.0,0.0,0.0,-0.14846868614344264,-0.25636328044727413,-0.030358255930137516,-0.03554393873576292,0.6455236066540072,-0.15956848343730134,-0.3136249866645766,0.031927182184702106,0.017196970527278074,0.6575722866211307,-1.523280841628479,-0.06399694310950181,0.30888286742904586,0.24857905593177332,0.8125565728075141,-0.02870375011434833,-0.05617355177366395,0.30888286742904586,0.24857905593177332,0.8125565728075141,1.8254063483068608,-0.07672121353146454,0.3693844707933679,0.29982788470547517,0.8507287294098079,-6.736588457057116e-05,2.2709069373077692e-05,0.405157367652175,0.3294048329695504,0.7543207215385042,0.41184389042952213,0.3349332345142374,0.7363005331513446,0.5,-0.4,0.3
0.8200000000000005,4.8199981392826885e-06,-0.10316694832315718,0.1333389444728016,-0.14059290680475683,-0.14876872115759573,-0.02441018659366927,-0.007391640858316013,-5.964418850542702e-06,0.8612786727660056,-0.26459495601887323,0.0,0.0,0.0,-0.1510189806439037,-0.25502992499769517,-0.03097131013002426,-0.0360680790331533,0.6454033796611172,-0.16271855270772978,-0.3150309157326242,0.03160098955802554,0.016285989553813628,0.6576511882055078,-1.5239364787123761,-0.06551721372844337,0.3097558794112606,0.24579121147677088,0.8132772154658245,-0.02926829286406369,-0.056425772638846114,0.3097558794112606,0.24579121147677088,0.8132772154658245,1.824638084706735,-0.0768058328046547,0.37053475966061056,0.29665042065748876,0.8515299089284706,-6.748629759784833e-05,5.6235591822835496e-06,0.4065354129291725,0.3261040337873695,0.7551689332285946,0.4132645069980626,0.33160938203594537,0.7371575359015149,0.5,-0.4,0.3
0.8300000000000005,4.859000910073519e-06,-0.10316694832315718,0.1333389444728016,-0.14059290680475683,-0.14876872115759573,-0.02441018659366927,-0.007391640858316013,-5.964418850542702e-06,0.8586230749882449,-0.26562736541361603,0.0,0.0,0.0,-0.15355594116060525,-0.2536965071202063,-0.03158480172646251,-0.036585507534865794,0.6452817652990906,-0.16588268840189838,-0.3164368448006718,0.031273193533953664,0.015378267344275505,0.6577271874354195,-1.5246069875898567,-0.06700450468031384,0.310624785250634,0.2429945591727321,0.8139826254195743,-0.029835262473850568,-0.05666876686199088,0.310624785250634,0.2429945591727321,0.8139826254195743,1.8238690858326707,-0.07687946503302515,0.3716808898285969,0.2934615876822587,0.852313176252865,-6.761102302866867e-05,5.165621358734981e-06,0.4079064546055602,0.3227882624454337,0.7559977849390931,0.4146775882087309,0.3282698838964944,0.7379949080580143,0.5,-0.4,0.3
0.8400000000000005,4.542998794931918e-06,-0.10316694832315718,0.1333389444728016,-0.14059290680475683,-0.14876872115759573,-0.02441018659366927,-0.007391640858316013,-5.964418850542702e-06,0.8559571470100181,-0.2666597644187038,0.0,0.0,0.0,-0.15607956752294116,-0.25236308764659143,-0.032198707167292936,-0.037096216805098246,0.645158796056597,-0.1690608893186882,-0.3178427738687194,0.03094378361681316,0.014473813231527327,0.657800309399572,-1.5252923120187747,-0.06849179411276518,0.3114894553620409,0.24018909110592954,0.8146728353532913,-0.030404644223586078,-0.05691176451706788,0.3114894553620409,0.24018909110592954,0.8146728353532913,1.8230993703435383,-0.07695309864871341,0.37282270337063284,0.2902613643682901,0.8530785659029898,-6.771132975284992e-05,4.717702588856454e-06,0.4092702968924202,0.3194575407160798,0.756807302209511,0.41608293119555806,0.3249147699399657,0.7388126734817579,0.5,-0.4,0.3
0.8500000000000005,4.606001311913133e-06,-0.10316694832315718,0.1333389444728016,-0.14059290680475683,-0.14876872115759573,-0.02441018659366927,-0.007391640858316013,-5.964418850542702e-06,0.8532808843823708,-0.2676822996415102,0.0,0.0,0.0,-0.15858985974542697,-0.25102959632085636,-0.03281300364101216,-0.03760019891998348,0.6450345042350807,-0.17225315539600144,-0.319248702936767,0.030612749774882243,0.013572635549437835,0.6578705790241806,-1.5259924706964252,-0.06994675717880221,0.312349773849431,0.23737479870287378,0.8153478505063216,-0.030976443378576198,-0.05714592664398356,0.312349773849431,0.23737479870287378,0.8153478505063216,1.8223289318628564,-0.07701592576427922,0.3739600595477833,0.2870497298914649,0.8538260769152421,-6.779663579110809e-05,2.0615772283568562e-05,0.41062675594064507,0.31611188294076303,0.7575974707953733,0.41748034405146034,0.3215440610808188,0.7396108154458652,0.5,-0.4,0.3
0.8600000000000005,4.923000233247876e-06,-0.10316694832315718,0.1333389444728016,-0.14059290680475683,-0.14876872115759573,-0.02441018659366927,-0.007391640858316013,-5.964418850542702e-06,0.8505942828791828,-0.26872452894314797,0.0,0.0,0.0,-0.16108681784272116,-0.2496962439549643,-0.033427668099407774,-0.038097446226992904,0.644908921957063,-0.1754594853951367,-0.3206546320048146,0.03028008190392465,0.01267474267372233,0.6579380210718516,-1.5267075008140276,-0.07146636845892088,0.31320562503372124,0.23455167577884717,0.8160076690140596,-0.0315506713753767,-0.05739777127610269,0.31320562503372124,0.23455167577884717,0.8160076690140596,1.8215577575323751,-0.0771003703103891,0.37509281796353267,0.2838266666545677,0.854555699125415,-6.788524298427652e-05,3.852109815975259e-06,0.4119756467356197,0.31275130544822577,0.7583682664097773,0.4188696334219911,0.31815777998909645,0.7403893070236768,0.5,-0.4,0.3
0.8700000000000006,4.741003067465499e-06,-0.10316694832315718,0.1333389444728016,-0.14059290680475683,-0.14876872115759573,-0.02441018659366927,-0.007391640858316013,-5.964418850542702e-06,0.8478973434694768,-0.26974123827576624,0.0,0.0,0.0,-0.16357044179058242,-0.2483627086863706,-0.03404267705769956,-0.03858795150573622,0.6447820811678184,-0.1786798815957518,-0.3220605610728622,0.029945770021168452,0.0117801428828841,0.6580026601299496,-1.5274373779486623,-0.07292114843588529,0.31405688431223977,0.2317197098896912,0.8166523106216669,-0.03212732019206361,-0.05763300465233046,0.31405688431223977,0.2317197098896912,0.8166523106216669,1.8207858559403236,-0.07716342293147753,0.37622082663815193,0.2805921484747938,0.8552674504148366,-6.796529875557156e-05,2.0282941872511347e-05,0.41331677762406743,0.3093758233100373,0.7591196970171128,0.4202506002382573,0.31475594944746604,0.7411481543259495,0.5,-0.4,0.3
0.8800000000000006,4.672998329624534e-06,-0.10316694832315718,0.1333389444728016,-0.14059290680475683,-0.14876872115759573,-0.02441018659366927,-0.007391640858316013,-5.964418850542702e-06,0.8451900652722001,-0.27077865592351646,0.0,0.0,0.0,-0.1660407315817372,-0.24702931896480246,-0.03465800686932972,-0.039071707752922465,0.6446540136322902,-0.18191434099426573,-0.3234664901409098,0.029609803898432242,0.010888844697039032,0.6580645206329143,-1.5281821267292917,-0.07440911013402099,0.314903430128241,0.22887889515974896,0.8172817770215086,-0.03270639777246996,-0.057875242577320754,0.314903430128241,0.22887889515974896,0.8172817770215086,1.820013218425661,-0.07723696264047494,0.3773439376967346,0.27734615795831674,0.8559613252531447,-6.804875200786163e-05,1.914875604267039e-05,0.4146499571138681,0.30598545590055926,0.7598517444163524,0.4216230448553884,0.31133859570284755,0.7418873367833071,0.5,-0.4,0.3
0.8900000000000006,5.06599826621823e-06,-0.10316694832315718,0.1333389444728016,-0.14059290680475683,-0.14876872115759573,-0.02441018659366927,-0.007391640858316013,-5.964418850542702e-06,0.8424724576369362,-0.2718049572378951,0.0,0.0,0.0,-0.16849768713616345,-0.24569585093903326,-0.03527363323504597,-0.03954870858192097,0.6445247509394747,-0.18516286586446126,-0.3248724192089574,0.02927217349623422,0.01000085658044312,0.6581236268352559,-1.5289417309551814,-0.07589601673760724,0.3157451337527831,0.2260292227319849,0.8178960839727274,-0.03328790050210602,-0.05811934666550596,0.3157451337527831,0.2260292227319849,0.8178960839727274,1.819239850179855,-0.07731080851429116,0.3784619939772147,0.2740886734926203,0.8566373363553644,-6.812705954464518e-05,1.9406966631698754e-05,0.4159749877039084,0.3025802234668623,0.760564411544436,0.42298676223226234,0.3079057468265337,0.7426068555050102,0.5,-0.4,0.3
0.9000000000000006,0.04691080300108297,-0.076026547769837,0.24108488397074299,-0.11163310538757781,-0.18132250812653755,-0.018812592279111043,0.004234569300174468,-2.277209536503159e-06,0.8397445151991204,-0.27285240993501914,0.0,0.0,0.0,-0.17094130847798536,-0.24436252796876254,-0.035889532214582576,-0.040018947400315176,0.6443943244928996,-0.18842545493518045,-0.32627834827700497,0.028932868745691995,0.009116186733157464,0.6581800028378723,-1.529716206664005,-0.07741541190242932,0.31658187101232194,0.2231706838880383,0.8184952352482189,-0.033871832638383594,-0.0583701155628301,0.31658187101232194,0.2231706838880383,0.8184952352482189,1.8184657458083378,-0.07739499558628032,0.3795748440853562,0.2708196741870391,0.8572954809549886,-6.82083272915351e-05,2.4077944752029165e-06,0.4172916753591298,0.29916014406770114,0.761257684199706,0.42434155036357346,0.3044574281575445,0.7433066941519896,0.5,-0.4,0.3
0.9100000000000006,5.0580019888002425e-06,-0.076026547769837,0.24108488397074299,-0.11163310538757781,-0.18132250812653755,-0.018812592279111043,0.004234569300174468,-2.277209536503159e-06,0.83700908017047,-0.27359461067948954,0.0,0.0,0.0,-0.17336082045859452,-0.24195151160725104,-0.036503318296242704,-0.04048003106821068,0.6442633528671178,-0.1916994017284895,-0.32739467933088073,0.02859406834429845,0.008237705139076505,0.6582334076776428,-1.5305087081491546,-0.0791962589065911,0.31741602114170764,0.22030939554894594,0.8190740981418151,-0.03445762612863149,-0.05855023286571116,0.31741602114170764,0.22030939554894594,0.8190740981418151,1.8176920965824084,-0.07734204656679672,0.3806849084478473,0.2675459791625288,0.8579296391567076,-6.823294426600124e-05,1.8909283201203053e-05,0.4186013966504734,0.2957314257137988,0.7619248448749343,0.425688590707039,0.30099973348039133,0.7439800235138552,0.5,-0.4,0.3
0.9200000000000006,5.08499942952767e-06,-0.076026547769837,0.24108488397074299,-0.11163310538757781,-0.18132250812653755,-0.018812592279111043,0.004234569300174468,-2.277209536503159e-06,0.8342660254993745,-0.2743549141703948,0.0,0.0,0.0,-0.17575622370092595,-0.23954061863688603,-0.03711495069619985,-0.04093197607582623,0.6441318912765881,-0.1949845118323373,-0.3285110103847565,0.028255786592312086,0.007365410442836284,0.6582838933195244,-1.5313192997272518,-0.08100921427485072,0.3182475293442536,0.217445391219771,0.8196327105214317,-0.035045277142657635,-0.058737487406664624,0.3182475293442536,0.217445391219771,0.8196327105214317,1.8169188872895996,-0.07729948880036877,0.3817921125141255,0.26426762003118975,0.8585398414732044,-6.824232142282136e-05,1.857035306153474e-05,0.4199040270889159,0.29229415013902693,0.7625659097127603,0.427027749439344,0.29753275389750117,0.7446268570472567,0.5,-0.4,0.3
0.9300000000000006,4.588000592775643e-06,-0.076026547769837,0.24108488397074299,-0.11163310538757781,-0.18132250812653755,-0.018812592279111043,0.004234569300174468,-2.277209536503159e-06,0.8315153702274701,-0.27511773005788037,0.0,0.0,0.0,-0.17812751807330446,-0.2371297403640579,-0.03772438259615336,-0.041374804435525256,0.6439999943981689,-0.19828078524672385,-0.32962734143863226,0.02791804629461036,0.006499292614845213,0.6583315107496489,-1.5321480179405598,-0.08282232021616054,0.31907635817671437,0.21457867524447294,0.8201711163671752,-0.03563480210733635,-0.05892427081392301,0.31907635817671437,0.21457867524447294,0.8201711163671752,1.8161461033275026,-0.07725682580653209,0.3828964006847846,0.2609845950349295,0.8591261260921108,-6.82522725000009e-05,1.795388291159737e-05,0.4211994635596077,0.28884836666312674,0.7631809041940975,0.4283589145642475,0.2940565482758739,0.7452472178580202,0.5,-0.4,0.3
0.9400000000000006,4.608999006450176e-06,-0.076026547769837,0.24108488397074299,-0.11163310538757781,-0.18132250812653755,-0.018812592279111043,0.004234569300174468,-2.277209536503159e-06,0.8287570895381821,-0.275883580739768,0.0,0.0,0.0,-0.18047470372174154,-0.23471887899598828,-0.038331568971768835,-0.04180853708229957,0.643867716315478,-0.20158822197164913,-0.330743672492508,0.027580870414895382,0.005639339887765112,0.6583763104973043,-1.5329948639274793,-0.08463580551543774,0.31990247331739713,0.21170923255749385,0.8206893716217822,-0.03622619624671227,-0.059110531014467275,0.31990247331739713,0.21170923255749385,0.8206893716217822,1.8153737458328867,-0.07721410227245376,0.3839977207342218,0.2576968784214636,0.8596885470805805,-6.826539181985229e-05,1.6894544852377562e-05,0.4224876103380432,0.28539410422948014,0.7637698727735126,0.429681982226608,0.2905711557823804,0.7458411486039672,0.5,-0.4,0.3
0.9500000000000006,4.450001142686233e-06,-0.076026547769837,0.24108488397074299,-0.11163310538757781,-0.18132250812653755,-0.018812592279111043,0.004234569300174468,-2.277209536503159e-06,0.8259912048915108,-0.27664377464696777,0.0,0.0,0.0,-0.18279778049933357,-0.23230798111223494,-0.038936462761866505,-0.04223319711523399,0.6437351105508027,-0.20490682200711316,-0.3318600035463838,0.027244281579717505,0.004785541429667854,0.6584183426214354,-1.5338598372459695,-0.086448750686443,0.32072582834154373,0.20883706126845594,0.8211875318489014,-0.036819464003198805,-0.05929781808159492,0.32072582834154373,0.20883706126845594,0.8211875318489014,1.8146018135415165,-0.07717155155359187,0.38509600556155205,0.254404460609444,0.8602271578968496,-6.82795554421836e-05,1.6592938676678222e-05,0.42376835617571473,0.2819314094562045,0.7643328599164008,0.43099683292602553,0.28707663353971113,0.7464086920695879,0.5,-0.4,0.3
0.9600000000000006,4.504003300098702e-06,-0.076026547769837,0.24108488397074299,-0.11163310538757781,-0.18132250812653755,-0.018812592279111043,0.004234569300174468,-2.277209536503159e-06,0.8232176992173553,-0.27741657156934724,0.0,0.0,0.0,-0.18509674849280627,-0.22989716403263644,-0.03953901849774775,-0.04264880670166461,0.6436022300357144,-0.20823658535311593,-0.33297633460025955,0.026908302493490098,0.003937884863840266,0.6584576567232222,-1.5347429183467847,-0.08829219024624559,0.321546380456638,0.20596214358553833,0.8216656586781825,-0.037414595027565375,-0.05949284759110594,0.321546380456638,0.20596214358553833,0.8216656586781825,1.8138303147551065,-0.07713940019661485,0.38619119222225085,0.2511073125621786,0.8607420202009636,-6.828693362084709e-05,7.169073452479788e-07,0.4250415966060654,0.2784603114278953,0.7648699203373109,0.43230335443481577,0.2835730214962535,0.7469499016712077,0.5,-0.4,0.3
0.9700000000000006,4.162997356615961e-06,-0.076026547769837,0.24108488397074299,-0.11163310538757781,-0.18132250812653755,-0.018812592279111043,0.004234569300174468,-2.277209536503159e-06,0.8204365986249555,-0.2781583025119248,0.0,0.0,0.0,-0.18737160753673768,-0.2274861490030762,-0.04013918876366491,-0.043055390126186074,0.6434691271390391,-0.21157751200965744,-0.3340926656541353,0.02657295562797938,0.0030963586272824417,0.6584943019355306,-1.5356441116831534,-0.09007408028256532,0.32236407884985846,0.20308447678629282,0.8221238042215087,-0.03801159657146366,-0.05967353221724375,0.32236407884985846,0.20308447678629282,0.8221238042215087,1.813059246087656,-0.07708664741351079,0.387283208115347,0.24780542416406603,0.8612331831611599,-6.828726232027918e-05,1.68270712790344e-05,0.42630721474980743,0.2749808569135831,0.7653810952283973,0.43360142159737014,0.28006037705367975,0.7474648171101239,0.5,-0.4,0.3
0.9800000000000006,2.3436998162651435e-05,-0.076026547769837,0.24108488397074299,-0.11163310538757781,-0.18132250812653755,-0.018812592279111043,0.004234569300174468,-2.277209536503159e-06,0.8176479062186476,-0.27891844032761076,0.0,0.0,0.0,-0.18962235760999574,-0.22507524880179802,-0.04073692706925343,-0.04345297131117876,0.6433358536443771,-0.2149296019767377,-0.3352089967080111,0.026238263464890693,0.0022609500730007143,0.6585283269320334,-1.536563432641409,-0.09188701480212909,0.32317887684331625,0.2002040505075881,0.8225620159010596,-0.03861047473614932,-0.05986087511187407,0.32317887684331625,0.2002040505075881,0.8225620159010596,1.8122886016032256,-0.0770441085699185,0.38837198571482795,0.24449877638155618,0.8617006900663561,-6.828744980397848e-05,1.657547048081187e-05,0.4275650984708649,0.2714930828549789,0.7658664199407298,0.434890913939283,0.2765387476163663,0.7479534722536968,0.5,-0.4,0.3
0.9900000000000007,4.412999260239303e-06,-0.076026547769837,0.24108488397074299,-0.11163310538757781,-0.18132250812653755,-0.018812592279111043,0.004234569300174468,-2.277209536503159e-06,0.8148515879224054,-0.2796785760770505,0.0,0.0,0.0,-0.19184899889456453,-0.22266434769914326,-0.041332188531405634,-0.043841573171258044,0.6432024607463223,-0.21829285525435668,-0.33632532776188684,0.025904248404502173,0.0014316451339524694,0.6585597799281472,-1.5375008815864524,-0.09369994715964158,0.32399073104951,0.1973208393418914,0.8229803457248013,-0.039211222147970924,-0.060048229059646824,0.32399073104951,0.1973208393418914,0.8229803457248013,1.8115183834260624,-0.07700157206798851,0.3894574613093419,0.24118733180824653,0.8621445904869006,-6.829074286446556e-05,1.6335319180667274e-05,0.42881514167778656,0.26799700936760845,0.7663259378916027,0.4361717174475893,0.27300816405160133,0.7484159093691172,0.5,-0.4,0.3
1.0000000000000007,0.047290672999224626,-0.05075788637715637,0.3462376817592673,-0.08564181922572979,-0.21581588102307042,-0.013737281115078869,0.014016441867536505,-1.5232775493209381e-05,0.8120476698178495,-0.2804387099125954,0.0,0.0,0.0,-0.19405153123517233,-0.2202534457163613,-0.0419249255264344,-0.04422122145836141,0.6430689990830001,-0.22166727184251442,-0.3374416588157626,0.02557093267255288,0.0006084310083680697,0.658588708670955,-1.5384564594506367,-0.0955128773826582,0.3247995840099903,0.1944348361917191,0.8233788445179702,-0.03981384503568653,-0.06023559404686288,0.3247995840099903,0.1944348361917191,0.8233788445179702,1.8107485893814377,-0.07695903791658192,0.3905395538839994,0.23787107553300454,0.8625649322641454,-6.829509124758095e-05,1.6106302800549498e-05,0.4300572199402033,0.26449268054590835,0.7667596911966168,0.4374436995768769,0.2694686814828997,0.7488521695017516,0.5,-0.4,0.3
1.0100000000000007,4.8860019887797534e-06,-0.05075788637715637,0.3462376817592673,-0.08564181922572979,-0.21581588102307042,-0.013737281115078869,0.014016441867536505,-1.5232775493209381e-05,0.8092383767107751,-0.28096578016357426,0.0,0.0,0.0,-0.19621944089886512,-0.21679112510865897,-0.042512743732910835,-0.044589677532136635,0.6429361664567075,-0.22505025261259468,-0.3382980770080199,0.025240582345915932,-0.00020599412697016456,0.6586149882442693,-1.5394335725050252,-0.09770095550163206,0.3256082862440277,0.19155184099866612,0.8237525827614038,-0.04041778509356403,-0.0603782764591462,0.3256082862440277,0.19155184099866612,0.8237525827614038,1.8099801545834546,-0.07682874179617685,0.3916212361793635,0.23455647866561644,0.8629557915582506,-6.830834849401373e-05,-3.3140795184516403e-07,0.4312932455458123,0.2609859761543296,0.7671611500832574,0.4387085743993541,0.26592606914287414,0.7492556096206417,0.5,-0.4,0.3
1.0200000000000007,4.53100074082613e-06,-0.05075788637715637,0.3462376817592673,-0.08564181922572979,-0.21581588102307042,-0.013737281115078869,0.014016441867536505,-1.5232775493209381e-05,0.8064239842076815,-0.28145901101129,0.0,0.0,0.0,-0.19835272639697363,-0.21332860996969152,-0.04309556445079006,-0.044947004572318226,0.6428040333898896,-0.22844179756459745,-0.3391544952002772,0.02491325019723739,-0.0010116568915543855,0.658638690138321,-1.5404322316059642,-0.0998291239969548,0.3264168145217617,0.18867192037858244,0.8241016503850525,-0.041023075457361294,-0.060507785265879535,0.3264168145217617,0.18867192037858244,0.8241016503850525,1.809213135859399,-0.07667815752180035,0.3927024571661033,0.23124361742822247,0.8633172619388751,-6.83116622764084e-05,1.4647954656397781e-05,0.4325231195239095,0.2574770540295433,0.7675304066116954,0.4399662339833125,0.2623805001232481,0.7496263215038113,0.5,-0.4,0.3
1.0300000000000007,4.413999704411253e-06,-0.05075788637715637,0.3462376817592673,-0.08564181922572979,-0.21581588102307042,-0.013737281115078869,0.014016441867536505,-1.5232775493209381e-05,0.8036045042159838,-0.2819662022958162,0.0,0.0,0.0,-0.2004513876644471,-0.20986617547780495,-0.04367332095014759,-0.045293255760351245,0.6426726691521434,-0.23184190669852275,-0.3400109133925345,0.024588988804877462,-0.0018085917979669894,0.6586598848880848,-1.5414524650160777,-0.10198696153230694,0.32722519639224534,0.18579505380528558,0.8244261299849223,-0.04162972874710457,-0.06064448386658789,0.32722519639224534,0.18579505380528558,0.8244261299849223,1.8084475218575728,-0.07653782380827162,0.393783230408173,0.2279324648318553,0.8636494228083523,-6.831712576183179e-05,1.4353343180816165e-05,0.43374680679449895,0.2539659562141769,0.7678675357479019,0.44121663415642903,0.258832029369751,0.7499643792880046,0.5,-0.4,0.3
1.0400000000000007,4.387999069876969e-06,-0.05075788637715637,0.3462376817592673,-0.08564181922572979,-0.21581588102307042,-0.013737281115078869,0.014016441867536505,-1.5232775493209381e-05,0.8007799110604148,-0.28248836001770133,0.0,0.0,0.0,-0.2025154248154497,-0.2064038202233802,-0.04424594835867051,-0.04562848322558464,0.6425421418359291,-0.23525058001437057,-0.34086733158479177,0.024267850354534597,-0.0025968350262615472,0.6586786420492996,-1.5424942910781747,-0.10417398700701562,0.3280334618837514,0.18292120436532386,0.8247261060846867,-0.04223774552064686,-0.06078799081469382,0.3280334618837514,0.18292120436532386,0.8247261060846867,1.80768330723843,-0.07640765589033718,0.39486357243642106,0.22462297407259796,0.8639523565657028,-6.83358169411074e-05,-1.0686734658307481e-06,0.4349642770104452,0.25045270578017653,0.7681726173063931,0.44245973580932824,0.2552806930152379,0.750269862304653,0.5,-0.4,0.3
1.0500000000000007,4.6629975258838385e-06,-0.05075788637715637,0.3462376817592673,-0.08564181922572979,-0.21581588102307042,-0.013737281115078869,0.014016441867536505,-1.5232775493209381e-05,0.7979502034308067,-0.2829807689554091,0.0,0.0,0.0,-0.2045448378279126,-0.20294130518082074,-0.044813380806209266,-0.045952740635782016,0.6424125183776155,-0.23866781751214092,-0.34172374977704906,0.023949886772516166,-0.0033764227952050724,0.658695030193511,-1.5435576900972976,-0.10630263887241116,0.3288416281458282,0.18005033625843336,0.8250016749958998,-0.042847118548431096,-0.06091788850685293,0.3288416281458282,0.18005033625843336,0.8250016749958998,1.8069204995340011,-0.07625715852896146,0.3959434835868319,0.22131509941912014,0.8642261611960664,-6.835864451405646e-05,1.3775503877661542e-05,0.43617548691551083,0.24693733149212507,0.7684457501938252,0.44369548753769383,0.2517265337487615,0.7505428696326586,0.5,-0.4,0.3
1.0600000000000007,4.543999239103869e-06,-0.05075788637715637,0.3462376817592673,-0.08564181922572979,-0.21581588102307042,-0.013737281115078869,0.014016441867536505,-1.5232775493209381e-05,0.7951153946752297,-0.2835065158801203,0.0,0.0,0.0,-0.2065396266274162,-0.1994789589993765,-0.045375551847358093,-0.046266082837926534,0.6422838645538784,-0.24209361919183378,-0.34258016796930635,0.023635149763477227,-0.0041473916401051775,0.6587091169100164,-1.5446426786648375,-0.10848953625895832,0.3296497111595267,0.1771824194583147,0.8252529184175924,-0.04345785683531125,-0.061060534823016495,0.3296497111595267,0.1771824194583147,0.8252529184175924,1.8061590915199794,-0.07612680791554977,0.397022963100359,0.2180088030813402,0.8644709158573226,-6.839199955189247e-05,-1.92159833318703e-06,0.4373803887469017,0.24341986706191285,0.7686870131253968,0.4449238327929845,0.2481695986470666,0.750783479904476,0.5,-0.4,0.3
1.0700000000000007,4.5720007619820535e-06,-0.05075788637715637,0.3462376817592673,-0.08564181922572979,-0.21581588102307042,-0.013737281115078869,0.014016441867536505,-1.5232775493209381e-05,0.7922754948594768,-0.2840140496691287,0.0,0.0,0.0,-0.20849979112275335,-0.19601651996948452,-0.0459323952788817,-0.04656856507575586,0.6421562449809637,-0.24552798505344917,-0.34343658616156364,0.023323690770906146,-0.004909778852023393,0.658720968806906,-1.5457491749131522,-0.11064720312100967,0.3304577112467831,0.17431740999026044,0.8254799513116453,-0.0440699333164836,-0.0611971602939026,0.3304577112467831,0.17431740999026044,0.8254799513116453,1.8053991151459425,-0.07598646390783731,0.3981019899550147,0.21470402901457114,0.8646867436036483,-6.83967079518265e-05,-2.1296195768117504e-06,0.43857892419221317,0.23990033814435657,0.7688965363745489,0.4461447062926241,0.24460992863590525,0.7509918247429416,0.5,-0.4,0.3
