tud-amr/localPlannerBench/plannerbenchmark/tests/local_cases/fabric_panda/default_result/res.csv
t,t_planning,a0,a1,a2,a3,a4,a5,a6,q0,q0dot,fk0_x,fk0_y,fk0_z,q1,q1dot,fk1_x,fk1_y,fk1_z,q2,q2dot,fk2_x,fk2_y,fk2_z,q3,q3dot,fk3_x,fk3_y,fk3_z,q4,q4dot,fk4_x,fk4_y,fk4_z,q5,q5dot,fk5_x,fk5_y,fk5_z,q6,q6dot,fk6_x,fk6_y,fk6_z,fk7_x,fk7_y,fk7_z,goal_0_0,goal_1_0,goal_2_0
0.0,0.0010761590019683354,-0.05685746252415526,-0.6896021363943678,-0.11406377347053127,-0.48172644882330573,-0.031267196705533254,-0.3734252208154119,0.03199069687649641,0.9999972536631739,-0.0003337496523292628,0.0,0.0,0.0,-1.3122509583964285e-08,-1.6671926325688684e-06,-2.2391861696422846e-09,-3.4901685679765216e-09,0.649,-2.710505431213761e-23,-5.421010862427522e-20,0.044575128649194426,0.0694212303384212,0.649000001082607,-1.500004334873431,-0.00043575982994269527,0.24837950447726354,0.3868258222648678,0.758454792742621,-1.1037229188806496e-06,-0.00010974303213866481,0.24837950447726354,0.3868258222648678,0.758454792742621,1.8674986443759833,-0.00013418412369160977,0.29275161083231394,0.4559309185846523,0.790071273259108,-2.102878372372789e-06,-0.00020676187666269705,0.313522509865248,0.48827927275383587,0.6902156087432243,0.3174049208994413,0.49432569409387017,0.6715509985533394,0.5,-0.4,0.3
0.01,0.00095072400290519,-0.052060590292274375,-0.44617752310864145,-0.03524366963507901,-0.27690379169826074,0.017781741406499414,-0.05767402897238938,-0.011144517745016824,0.9999897525340011,-0.000897263174535349,0.0,0.0,0.0,-6.898275966510138e-05,-0.006897658789754835,-1.1777994595200301e-05,-1.834272919224819e-05,0.6489999992481379,-1.1184385667724788e-05,-0.0011406377347053128,0.04456464995143933,0.06940205801283479,0.6490056903258054,-1.5000564919300956,-0.0052528148845171485,0.24837396234745007,0.3868012931353793,0.7584668237215867,-5.2595817133068365e-06,-0.0004224525753720315,0.24837396234745007,0.3868012931353793,0.7584668237215867,1.867460031076758,-0.0038685802497968984,0.29274764243383233,0.45590619804762544,0.790081513861786,-8.93325928254198e-07,0.00011280844629865672,0.3135183274354992,0.4882521025627585,0.69022501129105,0.3174006984638481,0.49429806602353105,0.6715602444553983,0.5,-0.4,0.3
0.02,0.001016469999740366,-0.030698078002649842,-0.3223201488083619,-0.03230414059532606,-0.20497221930034704,-0.06373895669388717,-0.11561673718021548,-0.00011501015699147418,0.9999765966462453,-0.0014205675250225777,0.0,0.0,0.0,-0.0001825709491198973,-0.011359451401567865,-3.1172482182043214e-05,-4.854576844661671e-05,0.6489999947335201,-2.6115129978285798e-05,-0.0014930744310561028,0.044547204594671104,0.06937060195267528,0.6490150568367337,-1.5001366852683695,-0.008021777033059152,0.2483634566461512,0.386761036372138,0.7584887867389907,-7.720527104449454e-06,-0.00024453566098568344,0.2483634566461512,0.386761036372138,0.7584887867389907,1.8674155491259448,-0.004445252934433626,0.29273921389542595,0.4558650240090261,0.7901025663490634,-9.485465752217625e-07,1.5488539950626878e-06,0.31351042071448515,0.48820927769304706,0.6902456375914475,0.3173928892787953,0.49425493258725656,0.6715807910946969,0.5,-0.4,0.3
0.03,0.000915769996936433,-0.03288776425006834,-0.2942585463659423,-0.0346534675467767,-0.19857817665827227,-0.029183734177693557,-0.11084334951441238,-2.8694625438637797e-05,0.9999600654806343,-0.0017286635886611225,0.0,0.0,0.0,-0.00032839301878622937,-0.01458266107724168,-5.607184044809609e-05,-8.731905036154663e-05,0.6489999829609682,-4.4276288348379415e-05,-0.0018161158370093634,0.04452471186042381,0.0693302795152519,0.6490270753845045,-1.5002373601415588,-0.010071342349289532,0.24834930473544098,0.38670948329478827,0.758517834572671,-1.654457888427272e-05,-0.000881830141592016,0.24834930473544098,0.38670948329478827,0.758517834572671,1.8673595211762892,-0.005601398973969886,0.29272745456150057,0.4558123432609211,0.7901307205927236,-9.830885378727357e-07,4.799358914895843e-07,0.3134999552995417,0.48815447468329914,0.6902733736013995,0.31738266571786716,0.49419973289308944,0.671608448930124,0.5,-0.4,0.3
0.04,0.0008428970031673089,-0.032880717181853286,-0.28519278136631077,-0.03455811233248822,-0.19452012292059329,-0.022901051937156566,-0.10836343759267536,-7.714585480009236e-06,0.9999403617015802,-0.002056817826408248,0.0,0.0,0.0,-0.0005036402588424666,-0.017525243943820348,-8.599726753805516e-05,-0.00013391524469458309,0.6489999599227463,-6.590279347315076e-05,-0.0021626505124771305,0.044497652194341535,0.06928183566409551,0.649041510242254,-1.5003578823202235,-0.012056883576427483,0.24833212561558246,0.38664757187244775,0.7585529111373936,-2.828646157779642e-05,-0.0011735830173761211,0.24833212561558246,0.38664757187244775,0.7585529111373936,1.867292407414263,-0.006709864248008736,0.2927130896461834,0.4557490899206288,0.7901647797179032,-1.0250113571304544e-06,1.5340589792044168e-07,0.31348726799194543,0.4880886735306584,0.6903069565592324,0.3173702919818075,0.49413345551384147,0.6716419428847145,0.5,-0.4,0.3
0.05,0.000907223999092821,-0.03246694592188022,-0.27906829046498294,-0.0341167755558415,-0.1908826961225928,-0.020822736209889926,-0.10626816377921061,-2.868597394847504e-06,0.9999173820018215,-0.002385313069492264,0.0,0.0,0.0,-0.0007074067178761566,-0.020377171924132898,-0.00012079498884330877,-0.00018809286985536826,0.6489999209329695,-9.098510983117083e-05,-0.0025082316358020127,0.04446618518209858,0.06922550661341578,0.6490582819820853,-1.5004978522054255,-0.014001817687709106,0.24831213824250567,0.3865755650296089,0.7585937458471418,-4.231733735936257e-05,-0.0014024874760457029,0.24831213824250567,0.3865755650296089,0.7585937458471418,1.8672144573802099,-0.007793520623598027,0.2926963627182402,0.4556755206840004,0.790204452043757,-1.0673702233933846e-06,6.583459614788179e-08,0.3134725370207398,0.4880121423079096,0.6903460849266031,0.3173559340866276,0.49405637064882724,0.6716809695776024,0.5,-0.4,0.3
0.060000000000000005,0.000892771000508219,-0.031977145057387135,-0.2737966291935955,-0.033601759278794524,-0.1874162728844544,-0.019822698416235122,-0.10430513018553889,-1.2095844568040814e-06,0.999891150096229,-0.002709713974678387,0.0,0.0,0.0,-0.0009390800547494138,-0.023167855533806986,-0.0001603614842405821,-0.0002496884337224724,0.648999860664337,-0.00011947910374477507,-0.002849399391360428,0.04443040883916617,0.0691614576433318,0.6490773347569139,-1.5006569067423825,-0.015910342659995712,0.24828943345289373,0.38649366390737766,0.7586401886405759,-5.842914814660343e-05,-0.0016105929305313942,0.24828943345289373,0.38649366390737766,0.7586401886405759,1.8671258808738196,-0.008856224697993851,0.29267736525452837,0.45559183768104633,0.7902495842614562,-1.1087894543887904e-06,3.1357854627170334e-08,0.3134558311999104,0.4879250928949447,0.690390603892991,0.31733965661026214,0.4939686920003462,0.6717253739175769,0.5,-0.4,0.3
0.07,0.0009204090019920841,-0.031476349047212165,-0.26890682764970664,-0.03307521520236603,-0.18406605787116437,-0.01919244873702408,-0.10241856481174044,-4.916527896414291e-07,0.9998617113908301,-0.003029200578235306,0.0,0.0,0.0,-0.0011981331267619019,-0.02590582270192814,-0.00020460789786786587,-0.0003185610195427103,0.6489997731873949,-0.00015133327358625892,-0.003185416984148373,0.04439040440931916,0.06908983261406901,0.6490986191455715,-1.5008346991948651,-0.017784167796027213,0.24826407196907457,0.38640204769928843,0.7586921218427927,-7.652175268105645e-05,-0.0018086833888755066,0.24826407196907457,0.38640204769928843,0.7586921218427927,1.8670268742253622,-0.009899300479591628,0.29265615334324047,0.45549822238936244,0.7903000599987087,-1.1489173336387325e-06,1.416568080024605e-08,0.3134371952483886,0.48782771582989926,0.6904403977160093,0.31732150214654714,0.49387061180009306,0.6717750402799907,0.5,-0.4,0.3
0.08,0.0008757190007600002,-0.030982000784426672,-0.2642479425205474,-0.03255510906018726,-0.18081025615591428,-0.01871616100822207,-0.10058873220590675,-1.2853092641140731e-07,0.9998291153717836,-0.003343650588268227,0.0,0.0,0.0,-0.0014840769592823072,-0.028594891943883198,-0.0002534520012120986,-0.00039457978403255957,0.6489996520075254,-0.00018649496494797932,-0.0035161691361720333,0.04434624606101541,0.06901076541437473,0.649122088309593,-1.5010308942815318,-0.019624455584465225,0.24823610415363806,0.38630088413338426,0.7587494404177554,-9.65320075488642e-05,-0.0020004572551351376,0.24823610415363806,0.38630088413338426,0.7587494404177554,1.8669176260689104,-0.010923512935995795,0.2926327712408366,0.4553948450426111,0.7903557770834099,-1.1876428653870297e-06,4.06381064649991e-09,0.31341666605072666,0.48772019008462436,0.690495365585929,0.317301506202108,0.49376231065322496,0.6718298681097644,0.5,-0.4,0.3
0.09,0.00088812399917515,-0.030499606316778602,-0.2597589870656033,-0.03204736080128652,-0.17763723608060356,-0.018314301087187373,-0.09880639380868833,7.774412443671519e-08,0.9997934117256367,-0.0036531252151526107,0.0,0.0,0.0,-0.0017964456642246094,-0.03123737239662407,-0.0003068156111323605,-0.00047761995069388384,0.6489994900998473,-0.00022491216721571856,-0.003841720226773906,0.04429800386855093,0.06892438372329045,0.6491476967836813,-1.5012451661172082,-0.021432150769929638,0.24820557556437833,0.3861903332822058,0.758812045847499,-0.00011841217169984415,-0.002187454532471266,0.24820557556437833,0.3861903332822058,0.758812045847499,1.866798319352721,-0.011929429426477296,0.29260725797376846,0.45528186818264105,0.7904166405184894,-1.224931102416205e-06,-2.669952453571156e-09,0.31339427699161054,0.48760268676655677,0.6905554141770436,0.317279701107095,0.49364396126822324,0.6718897643935957,0.5,-0.4,0.3
0.09999999999999999,0.0008596850020694546,-0.030030976127706763,-0.25541058574033426,-0.03155399449981158,-0.17453970125871066,-0.017953299024476718,-0.09706634620962684,2.0584829720490828e-07,0.9997546492282844,-0.003957743099975015,0.0,0.0,0.0,-0.0021347903447326323,-0.03383496334394776,-0.00036462354247583623,-0.000567561192352052,0.6489992799421626,-0.0002665341055635864,-0.004162193834786771,0.04424574498249967,0.06883081055936226,0.6491754000055743,-1.5014771970824792,-0.023208081824948507,0.24817252896070163,0.38607054922750345,0.758879843790123,-0.00014212194998422195,-0.002370419844505028,0.24817252896070163,0.38607054922750345,0.758879843790123,1.8666691322723783,-0.012917524857606924,0.29257964970263894,0.4551594482464616,0.7904825598088325,-1.2607760546493958e-06,-7.61469000701287e-09,0.31337005947512186,0.48747537077052006,0.6906204548194458,0.31725611737652054,0.49351573012081135,0.6719546408027379,0.5,-0.4,0.3
0.10999999999999999,0.0009446960029890761,-0.029576614068925935,-0.251186372694879,-0.031075616205127346,-0.17151255577172242,-0.017617439506293964,-0.09536523781054174,2.908130291972941e-07,0.9997128753835481,-0.004257641745006974,0.0,0.0,0.0,-0.0024986761587039584,-0.03638907031871413,-0.0004268031003709108,-0.0006642868533843579,0.648999013546071,-0.0003113114433614353,-0.004477733779784886,0.04418953418111456,0.06873016504051584,0.6492051541046725,-1.5017266771049826,-0.024953004265152463,0.2481370051667909,0.3859416809144358,0.7589527430327054,-0.0001676251353383467,-0.0025497621022011595,0.2481370051667909,0.3859416809144358,0.7589527430327054,1.8665302387939724,-0.01388822207966198,0.29254998072496546,0.4550277363949401,0.7905534477750632,-1.2951841920551852e-06,-1.1506610568881581e-08,0.3133440435676621,0.48733840163810127,0.690690402247509,0.31723078428592316,0.493377778319066,0.6720244124292746,0.5,-0.4,0.3
0.11999999999999998,0.0008448200023849495,-0.029136521173895966,-0.24707602608841006,-0.03061227315368127,-0.16855194886342673,-0.017298726566060074,-0.09370068002615572,3.495888802500008e-07,0.9996681363062032,-0.004552963965697982,0.0,0.0,0.0,-0.0028876806826007495,-0.03890093519688676,-0.000493283794869216,-0.0007676835174528136,0.6489986824863591,-0.0003591963427797969,-0.004788489941836159,0.0441294341723047,0.06862256281524247,0.6492369157962119,-1.5019933031540125,-0.026667622643311777,0.2480990434983161,0.3858038726553615,0.7590306549597028,-0.00019488803705045843,-0.00272573305788209,0.2480990434983161,0.3858038726553615,0.7590306549597028,1.8663818089902346,-0.014841910418189469,0.29251828396080487,0.45488687900905916,0.7906292199567174,-1.3281677854264213e-06,-1.4707676294738181e-08,0.31331625831344534,0.4871919340695308,0.6907651739723553,0.31720373015506037,0.49323026211821713,0.6720989971528483,0.5,-0.4,0.3
0.12999999999999998,0.0008249200036516413,-0.02871049610393911,-0.2430723221254888,-0.030163782210342327,-0.16565479185567278,-0.016992796045293496,-0.09207083499476898,3.9089592401187034e-07,0.9996204766947792,-0.004843852696051395,0.0,0.0,0.0,-0.003301392879424653,-0.0413716966366232,-0.0005639971590701513,-0.0008776407356543072,0.6489982779287629,-0.00041014246951352637,-0.005094612673372972,0.044065505781772804,0.068508116339481,0.6492706423236478,-1.5022767788572144,-0.02835260299758305,0.24805868200042558,0.3856572644643065,0.75911349325134,-0.00022387868115145243,-0.0028985045014128605,0.24805868200042558,0.3856572644643065,0.75911349325134,1.8662240092797593,-0.01577895530883425,0.292484591216343,0.45473701802374317,0.7907097942770386,-1.3597419096826776e-06,-1.739769033698435e-08,0.3132867319103731,0.4870361182658787,0.6908446899307542,0.31717498250738807,0.4930733332644087,0.6721783152865889,0.5,-0.4,0.3
0.13999999999999999,0.0009171600031550042,-0.028298256175802963,-0.23916976312562632,-0.029729864742081197,-0.1628184925978814,-0.01669711429723761,-0.09047420483026175,4.194183418091875e-07,0.9995699398398874,-0.005130448901004928,0.0,0.0,0.0,-0.0037394123764047456,-0.04380242105834926,-0.0006388766204397604,-0.0009940508368076648,0.648997790656197,-0.00046410497446829063,-0.005396250495476395,0.0439978080836611,0.06838693507361526,0.649306291425053,-1.5025768141925129,-0.030008580471175918,0.24801595759566014,0.3855019923015962,0.7592011736944015,-0.00025456637404706157,-0.0030682045793306812,0.24801595759566014,0.3855019923015962,0.7592011736944015,1.8660570026109273,-0.016699703806438763,0.2924489333424771,0.4545782911746757,0.7907950908348855,-1.3899229683012036e-06,-1.9661089136098486e-08,0.31325549181982554,0.4868711001804774,0.6909288722680273,0.3171445681707318,0.49290713924698243,0.6722622893583342,0.5,-0.4,0.3
0.15,0.00086657700012438,-0.027899488969259992,-0.23536388606764624,-0.029310205200492406,-0.16004080011865995,-0.016410124988022398,-0.08890951543451575,4.377381570586559e-07,0.9995165676471014,-0.00541289073653334,0.0,0.0,0.0,-0.004201348915258667,-0.0461941199057561,-0.0007178574018945368,-0.0011168087834262537,0.6489972110935345,-0.0005210404658972626,-0.005693549142897207,0.043926398499540456,0.06825912563452183,0.649343821312303,-1.5028931252292532,-0.03163616427728946,0.24797090618514306,0.3853381882668163,0.7592936140522873,-0.00028692144921848244,-0.003234936100377071,0.24797090618514306,0.3853381882668163,0.7592936140522873,1.8658809486117434,-0.0176044879856299,0.29241134033956034,0.45441083219463413,0.7908850317632384,-1.4187279061761954e-06,-2.1529308854781326e-08,0.3132225648422936,0.4866970217177844,0.6910176451909842,0.31711251334747736,0.49273182349781247,0.6723508439625254,0.5,-0.4,0.3
0.16,0.0008429099980276078,-0.027513874903944927,-0.23165089036798658,-0.028904477301412573,-0.15731970912701743,-0.016130819898291057,-0.08737564844456064,4.4728654448244925e-07,0.999460400665693,-0.005691313240729242,0.0,0.0,0.0,-0.00468682190590262,-0.04854775999233131,-0.0008008764408338566,-0.0012458120550095004,0.6489965293310198,-0.0005809069778462844,-0.005986651194902131,0.04385133287858188,0.06812479192040465,0.6493831906574264,-1.503225433903261,-0.0332359411108441,0.2479235627236971,0.38516598075984304,0.7593907339684104,-0.00032091511165646924,-0.0033987863087763916,0.2479235627236971,0.38516598075984304,0.7593907339684104,1.8656960037172625,-0.01849362717911862,0.29237184143253087,0.4542347709783722,0.7909795411249119,-1.4461737575334883e-06,-2.3002824680630474e-08,0.3131879771739315,0.4865140208995873,0.6911109348598832,0.3170788436676512,0.4925475255577583,0.6724439056514666,0.5,-0.4,0.3
0.17,0.000881684994965326,-0.02714109734159198,-0.2280274256791951,-0.028512356034862726,-0.1546533987884492,-0.015858511735296885,-0.08587159927731325,4.48837892328958e-07,0.9994014781194387,-0.005965848257069235,0.0,0.0,0.0,-0.0051954600463972374,-0.05086427012571194,-0.0008878723197537347,-0.0013809605487711694,0.6489957351463886,-0.000643663937525448,-0.006275695967916256,0.04377266556573379,0.0679840352180305,0.6494243585831284,-1.5035734678163624,-0.03480847760532982,0.24787396127939368,0.38498549462082526,0.7594924548894763,-0.00035651933710358427,-0.003559832365409895,0.24787396127939368,0.38498549462082526,0.7594924548894763,1.865502321281424,-0.019367429535292933,0.2923304651286584,0.45405023372661246,0.7910785448303008,-1.4722773669135715e-06,-2.4063247477078276e-08,0.313151754451648,0.48632223200959207,0.6912086693034347,0.3170435842316461,0.49235438122136393,0.6725414028498149,0.5,-0.4,0.3
0.18000000000000002,0.000926752996747382,-0.02678084697081623,-0.22449046478579782,-0.028133523081005793,-0.15204019202921315,-0.01559270846782522,-0.08439645012248725,4.427785558910447e-07,0.9993398379377979,-0.006236624461583047,0.0,0.0,0.0,-0.005726900987913288,-0.053144545610039895,-0.0009787852048064561,-0.0015221564921750028,0.6489948180257648,-0.0007092721328080978,-0.006560819528264884,0.04369044946175238,0.06783695429788197,0.6494672846558034,-1.5039369600542976,-0.03635432217745154,0.2478221350832038,0.3847968512554514,0.7595987000012528,-0.00039370680338411424,-0.003718144557052944,0.2478221350832038,0.3847968512554514,0.7595987000012528,1.8653000516775045,-0.020226193156176367,0.292287239264455,0.4538573430753292,0.7911819705688661,-1.4970552050462044e-06,-2.4680283356934285e-08,0.31311392179083775,0.4861217857228495,0.6913107783481354,0.31700675964623637,0.4921525226663112,0.6726432657835129,0.5,-0.4,0.3
0.19000000000000003,0.001040754999849014,-0.026432823468622316,-0.2210372240160854,-0.02776766903877477,-0.14947852756135493,-0.0153330410869508,-0.08294935186852953,4.292589829338291e-07,0.9992755167866884,-0.00650376743524946,0.0,0.0,0.0,-0.006280791032008793,-0.05538945147728431,-0.001073556790123811,-0.001669304363909695,0.6489937671834035,-0.0007776936803988465,-0.006842154759074942,0.04360473607736929,0.06768364550055266,0.649511928880064,-1.504315649018978,-0.03787400646482865,0.24776811657197356,0.38460016874936936,0.759709394172591,-0.0004324508412547214,-0.003873788248932128,0.24776811657197356,0.38460016874936936,0.759709394172591,1.8650893423898935,-0.0210702069652748,0.2922421910454366,0.4536562182141185,0.7912897477496329,-1.5205232395201845e-06,-2.481590840892195e-08,0.3130745038180823,0.4859128092239811,0.6914171935569764,0.31696839405595995,0.491942078571619,0.672749426418162,0.5,-0.4,0.3
0.20000000000000004,0.0009189819975290447,-0.026096736081276842,-0.21766511125110444,-0.02741449431912664,-0.14696694007026778,-0.015079220670093305,-0.08152951156898747,4.0828287085318414e-07,0.9992085500985335,-0.006767399753697041,0.0,0.0,0.0,-0.006856784852259746,-0.057599824922685804,-0.0011721302465333295,-0.0018223108211976214,0.6489925715803397,-0.0008488919948934741,-0.00711983144946269,0.04351557558301424,0.06752420281648011,0.6495582516941836,-1.5047092782723068,-0.03936804648394653,0.247711937426626,0.38439556197423075,0.7598244639051445,-0.00047272539755193507,-0.004026825114874326,0.247711937426626,0.38439556197423075,0.7598244639051445,1.8648703380989917,-0.02189975139466017,0.2921953470808872,0.4534469749960922,0.7914018074478728,-1.5426968386911105e-06,-2.4426970783759938e-08,0.3130335247001925,0.4856954263167451,0.6915278481745679,0.3169285111710907,0.4917231742271475,0.6728598184038567,0.5,-0.4,0.3
0.21000000000000005,0.0008614210019004531,-0.025772303552686865,-0.21437169075627727,-0.02707370924402043,-0.1445040457852783,-0.014831012059668108,-0.0801361834828434,3.797610849005794e-07,0.9991389721014349,-0.007027641083034357,0.0,0.0,0.0,-0.007454545235045783,-0.05977647722029248,-0.0012744501737685782,-0.0019810846320646534,0.6489912199420028,-0.0009228317588200127,-0.007393976392653956,0.04342301685501735,0.06735871796039254,0.6496062139660898,-1.5051175963895858,-0.04083694358998131,0.24765362860678672,0.38418314268699655,0.7599438372872149,-0.0005145050063432441,-0.004177313938088616,0.24765362860678672,0.38418314268699655,0.7599438372872149,1.864643180760499,-0.022715098946705668,0.2921467334149642,0.45322972604091827,0.7915180823562339,-1.5635906972549423e-06,-2.3466874173039276e-08,0.3129910081704673,0.48546975752662946,0.6916426770768687,0.31688713429299126,0.49149593163610816,0.6729743770246509,0.5,-0.4,0.3
0.22000000000000006,0.0008395129989366978,-0.025459175996220065,-0.21115472725488005,-0.026745011840629426,-0.14208866622859473,-0.014588226668978549,-0.07876868774606377,3.3955083956665887e-07,0.9990668162481292,-0.007284611920720025,0.0,0.0,0.0,-0.008073742760970263,-0.06192019530988395,-0.001380462541878579,-0.0021455365922668393,0.6489897007750438,-0.0009994788936709546,-0.00766471348509416,0.04332710750484317,0.06718728047874048,0.6496557769836753,-1.5055404400623573,-0.04228118527560374,0.24759322522661742,0.38396302747410593,0.7600674125408143,-0.0005577873100656284,-0.004325311060091542,0.24759322522661742,0.38396302747410593,0.7600674125408143,1.8644079809644316,-0.023516514599312845,0.29209638180665753,0.4530045919834775,0.7916384661265076,-1.6281819284361104e-06,-2.163223643616985e-08,0.31294697966855933,0.48523592070182764,0.6917615718123024,0.31684428768012973,0.4912604681258183,0.6730929934358154,0.5,-0.4,0.3
0.23000000000000007,0.0008617800049250945,-0.025157220159032934,-0.20801188240654434,-0.026428148421391642,-0.13971934926947482,-0.014350676277340435,-0.0774262980525342,2.9490109430437115e-07,0.9989921138681562,-0.007538419022470653,0.0,0.0,0.0,-0.008714055807256652,-0.06403174371376738,-0.0014901146914171525,-0.002315579525018943,0.6489880023824792,-0.0010788005297059599,-0.007932163603500455,0.04322789397240845,0.06700997769456866,0.649706902469908,-1.5059774839259616,-0.04370124719977289,0.24753075210647701,0.3837353142235994,0.760195152337588,-0.0006025253314475796,-0.004470871176304145,0.24753075210647701,0.3837353142235994,0.760195152337588,1.8641649042081725,-0.024304256746977365,0.2920443110634522,0.4527716680264662,0.7917629353226079,-1.69135613684713e-06,-1.933781544182639e-08,0.31290146009439657,0.484994029540042,0.6918845154673188,0.316799992623545,0.49101690085099076,0.6732156519429656,0.5,-0.4,0.3
0.24000000000000007,0.000866628994117491,-0.02486613291881888,-0.2049411419185212,-0.026122865304641585,-0.13739495383128786,-0.014118215389999189,-0.07610840679798114,2.4235429515782576e-07,0.9989148957620657,-0.007789177282557629,0.0,0.0,0.0,-0.00937517008695814,-0.0661118636306652,-0.0016033552487200366,-0.00249112816133155,0.6489861128790793,-0.001160764980583103,-0.008196445087714372,0.043125421500676886,0.06682689490311122,0.6497595525599785,-1.5064284908006074,-0.04509759062330944,0.24746623821670452,0.38350010589901073,0.7603269892733859,-0.0006486952404873234,-0.004614046882377158,0.24746623821670452,0.38350010589901073,0.7603269892733859,1.8639140847029787,-0.025078576292919548,0.29199054568648675,0.4525310576622891,0.7918914272216883,-1.7531284799072651e-06,-1.633269759281769e-08,0.3128544720077535,0.4847441953012119,0.6920114475364852,0.31675427132013984,0.49076534252344045,0.6733422924551389,0.5,-0.4,0.3
0.25000000000000006,0.0008590850047767162,-0.02458566613221394,-0.20194050744830505,-0.025828908674844303,-0.13511433926568417,-0.013890706727430549,-0.07481440518640137,1.8161953274961757e-07,0.9988351916273346,-0.008036995713049722,0.0,0.0,0.0,-0.010056778523596644,-0.06816127609842176,-0.0017201341028745647,-0.0026720991067104146,0.6489840202051871,-0.0012453417179907088,-0.008457673740760788,0.043019734198687515,0.06663811538375822,0.649813689804553,-1.5068932280041814,-0.04647066531568608,0.24739971192378027,0.3832575026956986,0.7604628573716978,-0.0006962737186476926,-0.004754889379972171,0.24739971192378027,0.3832575026956986,0.7604628573716978,1.863655654211556,-0.02583971814341822,0.29193510971591125,0.45228286150981767,0.7920238805502763,-1.8135128244335744e-06,-1.2561456723750308e-08,0.31280603762432524,0.4844865263245997,0.6921423089730381,0.3167071456445895,0.49050590292549356,0.6734728563417786,0.5,-0.4,0.3
0.26000000000000006,0.0008884029957698658,-0.02431557984506945,-0.19900806170196716,-0.02554603298037221,-0.13287641015098128,-0.013668024238616974,-0.07354371015198619,1.1243275205943618e-07,0.9987530300891605,-0.008281980821075454,0.0,0.0,0.0,-0.010758581051289864,-0.07018068217135146,-0.0018404023690154147,-0.0028584107886749474,0.6489817121399327,-0.001332501346265803,-0.008715962827509232,0.04291087507621779,0.06644372045808951,0.6498692771662801,-1.5073714672379508,-0.04782090963154504,0.247331201012431,0.38300760211983464,0.7606026920480625,-0.0007452379452774003,-0.004893448496658871,0.247331201012431,0.38300760211983464,0.7606026920480625,1.8633897421087682,-0.026587921117540977,0.2918780267493334,0.4520271773967951,0.7921602354466548,-1.8725220504734813e-06,-7.970418523101097e-09,0.3127561788308198,0.4842211281106822,0.6922770421502141,0.31665863716380793,0.4902386889917826,0.67360728639387,0.5,-0.4,0.3
0.2700000000000001,0.0008489209940307774,-0.02405564150299165,-0.19614196244788973,-0.025274000582956424,-0.13068011329464257,-0.013450050841422215,-0.07229576250604008,3.453346002891494e-08,0.9986684387246618,-0.008524236714681523,0.0,0.0,0.0,-0.011480284423019876,-0.0721707637308825,-0.0019641123531878688,-0.0030499834063473525,0.6489791763137012,-0.0014222155778389328,-0.008971423157312954,0.04279888607728239,0.0662437895453313,0.6499262780162257,-1.5078629844769487,-0.049148750963645085,0.247260732708664,0.3827504990628452,0.7607464300756842,-0.0007955655850279125,-0.005029772797577917,0.247260732708664,0.3827504990628452,0.7607464300756842,1.8631164754399316,-0.02732341820384883,0.2918193199616897,0.45176410043732185,0.7923004334245357,-1.93016803445565e-06,-2.506232171448075e-09,0.3127049172017934,0.4839481033980207,0.6924155908239193,0.3166087671532146,0.4899638048860018,0.673745526786421,0.5,-0.4,0.3
0.2800000000000001,0.0009086630016099662,-0.02380562556482428,-0.19334043705379633,-0.025012581362031036,-0.12852443481388132,-0.01323667676301446,-0.07107002516383754,-5.233435890505469e-08,0.9985814440862776,-0.008763865177516867,0.0,0.0,0.0,-0.012221602026408382,-0.07413218423619057,-0.0020912175186507723,-0.0032467388819567306,0.6489764002198932,-0.0015144572094703595,-0.009224163163142517,0.04268380811219718,0.06603840021566064,0.6499846561302263,-1.508367559864585,-0.05045460616523742,0.2471883337016304,0.38248628587294303,0.7608940095521824,-0.0008472347761624718,-0.00516390967503406,0.2471883337016304,0.38248628587294303,0.7608940095521824,1.862835978976725,-0.028046436799212274,0.29175901212404326,0.451493723106319,0.7924444173379391,-1.9864616327700128e-06,3.8840098507200715e-09,0.31265227401552736,0.4836675522371228,0.6925579000966433,0.31655755661206647,0.48968135207465624,0.6738875230421955,0.5,-0.4,0.3
0.2900000000000001,0.0008510789994033985,-0.02356531323390265,-0.19060177781363752,-0.024761552434083803,-0.12640839759537126,-0.013027798336565588,-0.06986598161279639,-1.484213984635214e-07,0.9984920717244528,-0.009000965739452057,0.0,0.0,0.0,-0.01298225370645223,-0.07606558942020139,-0.0022216724535180942,-0.0034486008141183483,0.6489733712260166,-0.0016092000992379881,-0.009474288976762828,0.042565681088306266,0.06582762824151189,0.6500443756851496,-1.5088849776111872,-0.05173888194324232,0.24711403016439012,0.3822150524239643,0.7610453698673705,-0.0009002241195925254,-0.005295905421497794,0.24711403016439012,0.3822150524239643,0.7610453698673705,1.8625483752708831,-0.028757198929898108,0.29169712562137523,0.45121613531119353,0.7925921313471654,-2.0414126682616504e-06,1.1252652023716059e-08,0.3125982702689958,0.4833795720615225,0.692703916382502,0.31650502627789684,0.4893914293980326,0.6740332219965836,0.5,-0.4,0.3
0.3000000000000001,0.0009136119988397695,-0.023334492100779133,-0.18792433796039476,-0.024520697777636574,-0.12433105904056663,-0.012823317089995873,-0.0686831345745687,-2.539723544908889e-07,0.9984003462096424,-0.009235635744487318,0.0,0.0,0.0,-0.013761965594751674,-0.07797160793886167,-0.0023554328396519237,-0.003655494432768825,0.6489700765841442,-0.0017064191442490247,-0.009721904501103665,0.042444543939460316,0.06561154764701545,0.650105401255064,-1.5094150258962185,-0.053001975226022346,0.24703784777366591,0.3819368861816742,0.7612004516719837,-0.000954512668521465,-0.0054258052905742805,0.24703784777366591,0.3819368861816742,0.7612004516719837,1.8622537847058385,-0.029455921457335867,0.2916336824694563,0.45093142446086987,0.7927435208857798,-2.0950299196959685e-06,1.9651364967579465e-08,0.31254292669199724,0.4830842577562456,0.6928535873733286,0.3164511966401357,0.4890941331385588,0.6741825717635246,0.5,-0.4,0.3
0.3100000000000001,0.0008413100003963336,-0.023112955965958984,-0.18530652810007542,-0.024289808040025146,-0.12229150906541664,-0.01262313907380519,-0.06752100481569151,-3.6922538185963463e-07,0.998306291153662,-0.009467970415093,0.0,0.0,0.0,-0.014560469944832805,-0.07985085198053815,-0.002492455422731864,-0.0038673465556559572,0.6489665034407669,-0.0018060902590378246,-0.009967111478880032,0.04232043465432144,0.06539023075568033,0.6501676978073093,-1.5099574967739486,-0.054244273508609255,0.2469598117286513,0.38165187226769326,0.7613591968472865,-0.0010100799186045794,-0.005553653548858972,0.2469598117286513,0.38165187226769326,0.7613591968472865,1.8619523255464365,-0.030142816270501804,0.29156870433085974,0.45063967553234674,0.792898532628531,-2.147321113878758e-06,2.9131042997114498e-08,0.31248626376050154,0.4827817017238212,0.693006862005731,0.3163960879529579,0.48878955708671357,0.674335521702404,0.5,-0.4,0.3
0.3200000000000001,0.0008546129975002259,-0.022900504524574025,-0.18274681311149954,-0.024068680205623638,-0.12028886828971008,-0.012427174321980858,-0.06637913008863278,-4.944116194543307e-07,0.9982099292304122,-0.009698062914742936,0.0,0.0,0.0,-0.015377504973207423,-0.08170391783975609,-0.002632697983433266,-0.004084085546292687,0.6489626388460803,-0.0019081903546306256,-0.010210009559280283,0.042193390303564136,0.06516374823642097,0.6502312306984794,-1.5105121860823767,-0.0554661551779273,0.246879946768942,0.38136009352117134,0.7615215484755105,-0.0010669057985582733,-0.005679493521071946,0.246879946768942,0.38136009352117134,0.7615215484755105,1.8616441139868496,-0.030818090466407717,0.2915022125301838,0.45034097113490645,0.793057114460157,-2.198292920601356e-06,3.9741706508999997e-08,0.31242830170927516,0.48247199394796725,0.6931636904290663,0.3163397202474231,0.4884777926046141,0.6744920223858718,0.5,-0.4,0.3
0.3300000000000001,0.0008474459973513149,-0.022696943194973285,-0.1802437092987217,-0.023857117405466283,-0.1183222863959762,-0.012235336442922531,-0.06525706416844296,-6.297547867034478e-07,0.9981112821959987,-0.009926004407303438,0.0,0.0,0.0,-0.016212814705860442,-0.08353138645993555,-0.002776119309655023,-0.004305641273296893,0.6489584697627273,-0.0020126973182439892,-0.010450696361336519,0.04206344706603144,0.06493216914801551,0.6502959656703142,-1.5110788933552242,-0.05666798981991085,0.24679827719164002,0.3810616305583278,0.761687450811074,-0.0011249706611645965,-0.0058033676298002495,0.24679827719164002,0.3810616305583278,0.761687450811074,1.861329264196785,-0.03148194651999711,0.29143422806853,0.4500353915721012,0.7932192154450228,-2.2479509500416864e-06,5.153241033721556e-08,0.31236906054382363,0.4821552220550756,0.69332402397428,0.3162821133429439,0.4881589286874073,0.6746520255685337,0.5,-0.4,0.3
0.34000000000000014,0.0008473389971186407,-0.022502082915761695,-0.17779578183170153,-0.0236549286999648,-0.11639094063327726,-0.012047542286738933,-0.06415437598052381,-7.754708079419949e-07,0.9980103709082753,-0.010151884114677009,0.0,0.0,0.0,-0.017066148829879946,-0.08533382394765167,-0.0029226791697422533,-0.004531945071045042,0.648953983074029,-0.0021195899935978983,-0.010689267535391182,0.04193064025390253,0.06469556098207636,0.650361868845507,-1.5116574217368361,-0.05785013851021062,0.2467148268676817,0.38075656182996237,0.7618568492525436,-0.0011842552746304032,-0.0059253174311496215,0.2467148268676817,0.38075656182996237,0.7618568492525436,1.861007888366103,-0.0321345824444062,0.29136477163728425,0.4497230149016213,0.7933847857975524,-2.2962997527375377e-06,6.455115524484772e-08,0.31230856005169666,0.48183147137360227,0.6934878151235664,0.3162232868581289,0.48783305202257066,0.6748154841564662,0.5,-0.4,0.3
0.35000000000000014,0.0008899739987100475,-0.02231573994733213,-0.17540164240660205,-0.023461928862594378,-0.11449403443737594,-0.011863711672965349,-0.06307064880023522,-9.317674689593798e-07,0.9979072153458254,-0.010375789372408125,0.0,0.0,0.0,-0.01793726254997403,-0.08711178206130125,-0.003072338286654412,-0.004762929701575187,0.6489491655917297,-0.0022288481618218097,-0.01092581682239083,0.04179500433692229,0.0644539897046055,0.650428906723436,-1.5122475778998368,-0.05901295408993811,0.24662961925743832,0.38044496367703373,0.7620296903153091,-0.0012447408142679138,-0.006045383647068445,0.24662961925743832,0.38044496367703373,0.7620296903153091,1.8606800967479074,-0.03277619194250016,0.2912938636312497,0.44940391699314797,0.7935537768534221,-2.3433428219640246e-06,7.884480322795095e-08,0.3122468198132,0.4815008249914657,0.6936550174808213,0.3161632602210412,0.487500247047226,0.6749823521775313,0.5,-0.4,0.3
0.36000000000000015,0.0008498879979015328,-0.022137735667381753,-0.17305994709009043,-0.02327793815921822,-0.11263079614963556,-0.011683767161590294,-0.06200547951320173,-1.0988440923722147e-06,0.9978018346264015,-0.010597805683290717,0.0,0.0,0.0,-0.01882591644964042,-0.08886579867637227,-0.003225058313033402,-0.004998529317680353,0.6489440040632799,-0.002340452522931977,-0.011160436111016775,0.04165657296573924,0.06420751979620112,0.6504970461758205,-1.5128491719654102,-0.060156781427611966,0.24654267742562827,0.38012691038439295,0.7622059216049331,-0.0013064088544695236,-0.006163606194948307,0.24654267742562827,0.38012691038439295,0.7622059216049331,1.8603459977002093,-0.033406964550403435,0.29122152416116454,0.4490781715842772,0.7937261410414755,-2.389082598411177e-06,9.445899580053096e-08,0.3121838592115458,0.4811633638115389,0.6938255857428426,0.3161020526789068,0.48716059600355044,0.6751525847524439,0.5,-0.4,0.3
0.37000000000000016,0.0008501109987264499,-0.021967896471139642,-0.17076939428539095,-0.02310278223509246,-0.1108004778403564,-0.011507633873447345,-0.06095847793016573,-1.2768912271885314e-06,0.9976942470248452,-0.010818016768917138,0.0,0.0,0.0,-0.01973187635677333,-0.09059639822915609,-0.003380801807129635,-0.0052386794271380875,0.6489384851786826,-0.0024543846778580687,-0.011393215492608957,0.0415153789943942,0.06395621429097718,0.6505662544423118,-1.5134620174260653,-0.061281957668293516,0.2464540240555763,0.37980247423275487,0.7623854917911588,-0.001369241360954019,-0.006280024214934184,0.2464540240555763,0.37980247423275487,0.7623854917911588,1.8600056977262247,-0.03402708577363114,0.2911477730656393,0.4487458503346043,0.7939018318563444,-2.4335204770549586e-06,1.1143807501865638e-07,0.3121196974424737,0.48081916660532714,0.6939994756712649,0.31603968330730253,0.48681417899237817,0.675326138066577,0.5,-0.4,0.3
0.38000000000000017,0.0008539940026821569,-0.021806053529994512,-0.16852872290059473,-0.022936291856756302,-0.10900235419537252,-0.011335239316970919,-0.05992926615216565,-1.4660903407201512e-06,0.9975844699904991,-0.011036504620200456,0.0,0.0,0.0,-0.020654913213504107,-0.09230409214011993,-0.003539532209546326,-0.005483316858024861,0.6489325955769238,-0.0025706271110076707,-0.011624243314959882,0.04137145450200145,0.06370013481425404,0.650636499126022,-1.5140859310707797,-0.06238881247095547,0.2463636814628627,0.37947172554898445,0.7625683505825429,-0.0014332206832664174,-0.006394676095438311,0.2463636814628627,0.37947172554898445,0.7625683505825429,1.859659301513381,-0.03463673721636737,0.29107262992255456,0.44840702287804457,0.7940808038317378,-2.4766568162811683e-06,1.2982500630174393e-07,0.31205435352338246,0.4804683100649043,0.6941766440651888,0.3159761710188643,0.486461074025065,0.6755029693424693,0.5,-0.4,0.3
0.3900000000000002,0.0008643660039524548,-0.021652042779180064,-0.16633671054640242,-0.022778302887351443,-0.10723572150250993,-0.011166513267618569,-0.05891747797616764,-1.6666135275812913e-06,0.9974725201641323,-0.011253349545486227,0.0,0.0,0.0,-0.021594802950092484,-0.09398937921896225,-0.0037012138207659882,-0.005732379725069319,0.6489263218520113,-0.002689163173342949,-0.011853606233527445,0.041224830813657826,0.0634393416190728,0.6507077481889992,-1.5147207329124042,-0.06347766823471726,0.2462716716083857,0.3791347327547677,0.7627544487016966,-0.0014983295475139975,-0.006507599496920402,0.2462716716083857,0.3791347327547677,0.7627544487016966,1.859306911971099,-0.035236096704393136,0.29099611405993736,0.4480617568734655,0.7942630125143856,-2.5184909489623157e-06,1.4966130435899866e-07,0.3119878463019885,0.480110868853185,0.6943570487344919,0.31591153457153076,0.4861013570736933,0.6756830368130164,0.5,-0.4,0.3
0.4000000000000002,0.0008527369936928153,-0.021505704575602358,-0.16419217198099867,-0.02262865592943747,-0.10549989666010418,-0.01100138761659128,-0.05792275834216337,-1.8786232089198384e-06,0.997358413394385,-0.011468630218494593,0.0,0.0,0.0,-0.02255132636268828,-0.09565274605164523,-0.003865811779423877,-0.005985807396998855,0.6489196505586383,-0.002809977065966956,-0.01208138926240096,0.04107553852061792,0.06317389362158415,0.6507799699476522,-1.5153662461172273,-0.06454884031494429,0.2461780161108812,0.37879156241373424,0.7629437378611105,-0.0015645510493267887,-0.006618831374462463,0.2461780161108812,0.37879156241373424,0.7629437378611105,1.8589486302673968,-0.035825338402069605,0.2909182445663625,0.4477101180536973,0.7944484144386069,-2.5590211957233114e-06,1.7098695989734708e-07,0.31192019446455677,0.47974691565259714,0.6945406484737888,0.3158457925763688,0.48573510211968124,0.6758662996953182,0.5,-0.4,0.3
0.4100000000000002,0.0008631899981992319,-0.021366883785531088,-0.16209395746568633,-0.022487196402570103,-0.10379421629033103,-0.010839796293876089,-0.05694476280665367,-2.102271856618568e-06,0.9972421647537585,-0.011682423722866415,0.0,0.0,0.0,-0.023524268994807994,-0.09729466737187588,-0.0040332920412974455,-0.006243540464840494,0.6489125682174952,-0.0029330538241839066,-0.012307675821695334,0.04092360749976453,0.06290384843535829,0.6508531330681318,-1.5160222969366042,-0.06560263722943345,0.246082736258913,0.3784422792770966,0.7631361707395479,-0.001631868647027039,-0.006728407998828676,0.246082736258913,0.3784422792770966,0.7631361707395479,1.8585845558643876,-0.036404632923789655,0.2908390403008844,0.4473521702729907,0.794636967101491,-2.598244879863847e-06,1.9384037017785433e-07,0.31185141654370857,0.47937652121222607,0.6947274030370297,0.31577896350498413,0.4853623812008682,0.6760527181651678,0.5,-0.4,0.3
0.4200000000000002,0.000846794995595701,-0.021235429489120022,-0.1600409513894543,-0.022353774232345303,-0.10211803586964929,-0.010681675146623812,-0.05598315705865292,-2.3377016950732992e-06,0.997123788554157,-0.01189480559751303,0.0,0.0,0.0,-0.024513421022361783,-0.09891560641614311,-0.004203621358979679,-0.0065055207111344385,0.6489050613202443,-0.0030583793020411195,-0.012532547785721035,0.04076906693240941,0.0626292624046613,0.6509272065616744,-1.516688714640554,-0.06663936085573069,0.2459858530223737,0.3780869463278629,0.7633317009589862,-0.0017002661550005434,-0.0068363649767571935,0.2459858530223737,0.3780869463278629,0.7633317009589862,1.8582147865527088,-0.03697414744016419,0.29075851990254203,0.4469879755529794,0.7948286289386656,-2.6361583444332403e-06,2.1825826918009383e-07,0.3117815309258476,0.47899975439348513,0.6949172731127109,0.31571106569655893,0.4849832644571311,0.6762422533321586,0.5,-0.4,0.3
0.4300000000000002,0.0008515790032106452,-0.021111194946331208,-0.15803207084559512,-0.02222824380698954,-0.10047072892723152,-0.010526961864040452,-0.05503761645425259,-2.5850444293505733e-06,0.9970032983619929,-0.012105849879042242,0.0,0.0,0.0,-0.025518577142093372,-0.1005160152650003,-0.004376767262208887,-0.006771691080025699,0.6488971163341779,-0.003185940157321567,-0.012756085528044489,0.040611945322451146,0.06235019063673907,0.651002159779913,-1.5173653314532505,-0.06765930661975415,0.24588738706351526,0.3777256248236813,0.7635302830620893,-0.0017697277372572353,-0.006942737270033395,0.24588738706351526,0.3777256248236813,0.7635302830620893,1.857839418484943,-0.03753404577936572,0.290676701799451,0.44661759412720947,0.7950233593006377,-2.672756970877654e-06,2.442756617442379e-07,0.31171055585821833,0.47861668221437526,0.6951102202996821,0.31564211736452996,0.48459782017459313,0.6764348672153913,0.5,-0.4,0.3
0.4400000000000002,0.000861692002217751,-0.020994037456216308,-0.15606626434064297,-0.02211046382506232,-0.09885168628158458,-0.010375595893814163,-0.054107825583053104,-2.8444209620769485e-06,0.9968807070128752,-0.012315629143791064,0.0,0.0,0.0,-0.026539536463290537,-0.10209633517011375,-0.004552698038826923,-0.0070419956481977955,0.6488887197065734,-0.003315723836982712,-0.012978367966114384,0.0404522705139193,0.06206668703314927,0.6510779624101592,-1.518051982490311,-0.0686627636764008,0.2457873587475348,0.37735837433836883,0.763731872490196,-0.001840237901173904,-0.007047559213812878,0.2457873587475348,0.37735837433836883,0.763731872490196,1.8574585462080713,-0.038084488523817205,0.2905936042175079,0.44624108448428706,0.7952211184296898,-2.708035199524949e-06,2.7192575827259674e-07,0.3116385094556202,0.4782273698923859,0.6953062070835323,0.31557213660293093,0.48420611482847914,0.6766305227197645,0.5,-0.4,0.3
0.45000000000000023,0.0008590639990870841,-0.020883818237580204,-0.1541425105576808,-0.0220002971651522,-0.0972603153175654,-0.010227518367427968,-0.05319347785688294,-3.1159411206660997e-06,0.9967560266258836,-0.012524214548445543,0.0,0.0,0.0,-0.027576102402636946,-0.10365699686840026,-0.004731382716340249,-0.0073163795966158796,0.6488798578687627,-0.003447718563026359,-0.013199472604365008,0.04029006970793101,0.06177880432017885,0.6511545844706625,-1.5187485056978205,-0.06965001508251942,0.24568578815273853,0.37698525280217426,0.7639364255618087,-0.001911781491410585,-0.007150864534107889,0.24568578815273853,0.37698525280217426,0.7639364255618087,1.857072262694999,-0.038625633102543466,0.2905092451887273,0.44585850340970024,0.7954218674373136,-2.741986551700488e-06,3.0123991194216937e-07,0.31156540970679747,0.4778318808860904,0.6955051968135372,0.3155011413924181,0.48380821312466804,0.6768291836128313,0.5,-0.4,0.3
0.46000000000000024,0.0008509449980920181,-0.020780402349295235,-0.1522598171688314,-0.021897610797151856,-0.09569603930704529,-0.010082672036612048,-0.05229427512087831,-3.3997033879129863e-06,0.9966292686174497,-0.012731675869444466,0.0,0.0,0.0,-0.028628082582081868,-0.1051984208837975,-0.004912791044059296,-0.0075947891830480405,0.6488705172399325,-0.0035819133187865258,-0.01341947557601653,0.040125369479084606,0.06148659407838315,0.6512319963058524,-1.5194547417930135,-0.07062133796265366,0.2455826950803046,0.3766063165408259,0.7641438994515675,-0.0019843436839932205,-0.007252686364526727,0.2455826950803046,0.3766063165408259,0.7641438994515675,1.856680659375206,-0.03915763387940869,0.29042364255923026,0.4454699060263631,0.7956255682821686,-2.7746036534337708e-06,3.322475577837575e-07,0.3114912744805231,0.4774302769354855,0.6957071536801532,0.31542914960599844,0.48340417803999436,0.6770308145022065,0.5,-0.4,0.3
0.47000000000000025,0.0008634339974378236,-0.020683658544955963,-0.1504172197331568,-0.021802275625212586,-0.09415829675575793,-0.009941001204035016,-0.05140992728629007,-3.6957946366348273e-06,0.9965004437148477,-0.012938081541560913,0.0,0.0,0.0,-0.029695288729608804,-0.10672101781715904,-0.005096893475792687,-0.007877171715334605,0.6488606842306646,-0.0037182978356264038,-0.013638451683988048,0.039958195791314974,0.06119010677128061,0.6513101685815632,-1.5201705342065395,-0.07157700366799129,0.24547809906366613,0.3762216203134064,0.7643542521696962,-0.002057909980556337,-0.007353057262377808,0.24547809906366613,0.3762216203134064,0.7643542521696962,1.856283826164549,-0.039680642237463745,0.29033681399690403,0.4450753458339301,0.7958321837485481,-2.8058782607323015e-06,3.6497615367794833e-07,0.3114161215313961,0.47702261810112134,0.695912042693042,0.3153561790144787,0.482994070861344,0.6772353808135081,0.5,-0.4,0.3
0.48000000000000026,0.0008412179959123023,-0.020593459214065635,-0.14861378061120134,-0.021714166421982317,-0.09264654079222068,-0.009802451670907611,-0.05054015198054068,-4.00428987312393e-06,0.9963695619693096,-0.013143498695017613,0.0,0.0,0.0,-0.030777536582792954,-0.10822518862512805,-0.005283661153074384,-0.008163475525377564,0.6488503452462353,-0.0038568625800288053,-0.013856474440240173,0.03978857401323244,0.06088939177323564,0.6513890722802526,-1.520895729026259,-0.07251727792878201,0.24537201937753325,0.37583121734910163,0.764567442541908,-0.002132466202738737,-0.007452009224080267,0.24537201937753325,0.37583121734910163,0.764567442541908,1.855881851494258,-0.04019480665962022,0.29024877699875073,0.4446748747469256,0.7960416774253414,-2.835801286288466e-06,3.994511237224649e-07,0.31133996850536816,0.47660896280206705,0.6961198296596116,0.3152822472916518,0.4825779512235888,0.677442848768821,0.5,-0.4,0.3
0.49000000000000027,0.0008898060041246936,-0.020509680289864246,-0.14684858795166966,-0.021633161728304623,-0.09116023858798528,-0.009666970683067905,-0.04968467421875161,-4.3252519843686645e-06,0.9962366327687757,-0.013347993191982219,0.0,0.0,0.0,-0.03187464579503891,-0.10971132488815621,-0.005473065888902319,-0.0084536499438225,0.6488394866896839,-0.003997598741073409,-0.014073616104459997,0.039616528932966924,0.06058449739656081,0.6514686786962111,-1.5216301749425,-0.07344242100064387,0.24526447504657034,0.3754351593828631,0.764783430189755,-0.0022079984867271426,-0.007549573700051248,0.24526447504657034,0.3754351593828631,0.764783430189755,1.855474822339162,-0.04070027280582436,0.29015954889793805,0.4442685431317329,0.7962540136854745,-2.8643628276462552e-06,4.356958034851602e-07,0.31126283294501367,0.47618936785275573,0.69633048116406,0.31520737201923343,0.48215587714640484,0.6776531853656648,0.5,-0.4,0.3
0.5000000000000002,0.0008429330046055838,-0.02043220108700841,-0.14512075474817365,-0.02155914367916012,-0.08969887079069261,-0.009534506868692089,-0.04884322608943226,-4.658731495288898e-06,0.9961016648502871,-0.01355162966212351,0.0,0.0,0.0,-0.03298643984439724,-0.11117980906838905,-0.005665080151968398,-0.008747645275407265,0.6488280949646618,-0.004140498218290847,-0.014289947721743043,0.03944208477253852,0.06027547091786818,0.6515489594307697,-1.522373723194718,-0.07435268780507191,0.24515548485375013,0.3750334966900263,0.7650021755114116,-0.0022844932779423986,-0.007645781609054159,0.24515548485375013,0.3750334966900263,0.7650021755114116,1.8550628242451743,-0.04119718358694508,0.29006914687057345,0.44385639984248515,0.7964691576658196,-2.891552196726722e-06,4.737313877541463e-07,0.31118473229456267,0.4757638884987497,0.696543964546904,0.31513157069157,0.48172790507001406,0.6778663583564526,0.5,-0.4,0.3
0.5100000000000002,0.0008953309952630661,-0.020360904307183625,-0.14342941786989893,-0.02149199800569107,-0.08826193100754554,-0.009405010204311864,-0.04801554645517303,-5.004766336743753e-06,0.9959646663120324,-0.01375447153653043,0.0,0.0,0.0,-0.03411274594486568,-0.11263101475811847,-0.005859677051361165,-0.00904541277495341,0.6488161564780759,-0.004285553609876199,-0.014505539158534643,0.039265265201772655,0.0599623586036971,0.6516298863875095,-1.5231262275195088,-0.07524832806427736,0.2450450673483953,0.37462627811991855,0.76522363966288,-0.002361937325861899,-0.007740663351924139,0.2450450673483953,0.37462627811991855,0.76522363966288,1.8546459413560739,-0.041685679235517956,0.28997758794221046,0.44343849225589244,0.7966870752475591,-2.9173579505929603e-06,5.135768808726612e-07,0.311105683904705,0.47533257845146193,0.6967602478849874,0.31505486072012456,0.48129408988988615,0.678082336228432,0.5,-0.4,0.3
0.5200000000000002,0.0008514759974787012,-0.020295675924471512,-0.14177373719688235,-0.02143161391014689,-0.0868489253039827,-0.009278431965016237,-0.04720138067312257,-5.363381618891191e-06,0.9958256446250576,-0.01395658108164552,0.0,0.0,0.0,-0.03525339496007797,-0.11406530691854166,-0.006056830321722002,-0.009346904623975642,0.6488036576425362,-0.00443275820126211,-0.014720459138591555,0.03908609335177988,0.05964520573544678,0.6517114317674741,-1.5238875440999133,-0.0761295864308604,0.2449332408539275,0.3742135511284989,0.7654477845396044,-0.002440317678975175,-0.007834248824955287,0.2449332408539275,0.3742135511284989,0.7654477845396044,1.8542242564396079,-0.042165897373495624,0.28988488899410547,0.4430148663050513,0.7969077330369928,-2.9417679235400828e-06,5.552490491330525e-07,0.31102570503718413,0.4748954899218776,0.6969792999719489,0.31497725943775956,0.48085448499044325,0.6783010881840902,0.5,-0.4,0.3
0.5300000000000002,0.0008562010043533519,-0.020236405024234516,-0.14015289480111437,-0.021377883898549166,-0.08545937171106899,-0.009154724669729525,-0.04640048032468724,-5.734589419594087e-06,0.9956846066446451,-0.014158019432043766,0.0,0.0,0.0,-0.03640822131929372,-0.11548304210987244,-0.00625651430883771,-0.009652073907887195,0.6487905848786186,-0.004582105954039031,-0.014934775277693024,0.038904591828017546,0.059324056633639016,0.6517935680643908,-1.5246575315159718,-0.07699670261246973,0.24482002347533793,0.37379536181005923,0.7656745727584857,-0.0025196216798674988,-0.007926567432790044,0.24482002347533793,0.37379536181005923,0.7656745727584857,1.85379785091294,-0.04263797307720188,0.28979106676923805,0.4425855665122656,0.797131098346775,-2.9647692603389363e-06,5.987623762117311e-07,0.3109448128691922,0.47445267365330374,0.6972010902991406,0.31489878410282846,0.48040914227779685,0.6785225841220126,0.5,-0.4,0.3
0.5400000000000003,0.0008578600027249195,-0.020182983861495002,-0.13856609407621967,-0.021330703834880033,-0.08409279978880169,-0.009033842061060393,-0.045612602959113346,-6.11838858625949e-06,0.9955415586213743,-0.01435884662158204,0.0,0.0,0.0,-0.03757706293560775,-0.11688456871326336,-0.006458703955653213,-0.009960874593780302,0.6487769246169521,-0.004733591495205823,-0.015148554116678516,0.03872078272294937,0.05899895468153494,0.6518762680599006,-1.525436050696475,-0.07784991149153554,0.24470543310638893,0.37337175492802344,0.7659039676402818,-0.002599836960425987,-0.008017648100762168,0.24470543310638893,0.37337175492802344,0.7659039676402818,1.8533668048674836,-0.043102038939581894,0.2896961378781028,0.442150636020917,0.7973571391775702,-2.9863484505527922e-06,6.441290215054504e-07,0.31086302449757364,0.47400417895318775,0.6974255890369843,0.3148194519030822,0.4799581122115561,0.6787467946181831,0.5,-0.4,0.3
0.5500000000000003,0.00084548800077755,-0.020135307671183628,-0.13701255901734366,-0.02128997274003558,-0.08274875017929229,-0.008915739049860441,-0.044837511853268064,-6.514764545362403e-06,0.9953965062118718,-0.014559121615085715,0.0,0.0,0.0,-0.03875976112629147,-0.11827022714402424,-0.006663374788687297,-0.010273261508759393,0.6487626633001409,-0.0048872101067561,-0.015361861155027317,0.03853468762832087,0.058669942348131325,0.6519595048188028,-1.5262229648718664,-0.07868944324063443,0.24458948743656572,0.37294277394487557,0.7661359331923885,-0.002680951437166612,-0.008107519287040642,0.24458948743656572,0.37294277394487557,0.7661359331923885,1.8529311970931364,-0.04355822512988817,0.28960011880428965,0.44171011662641835,0.797585824200119,-3.006491364017477e-06,6.913587808085944e-07,0.3107803569428556,0.473550053724034,0.6976527670167549,0.31473927995941,0.4795014438357379,0.678973690907715,0.5,-0.4,0.3
0.5600000000000003,0.0009003020022646524,-0.020093274637913744,-0.13549153345282394,-0.021255592760106162,-0.0814267741957686,-0.008800371685193042,-0.04407497577849928,-6.923689133299807e-06,0.9952494544892547,-0.014758902338142022,0.0,0.0,0.0,-0.03995616053519452,-0.1196403500576393,-0.00687050290483708,-0.01058919031880859,0.6487477873845304,-0.005042957715580373,-0.015574760882427673,0.03834632764706479,0.05833706121055751,0.6520432516843145,-1.5270181395282587,-0.07951552343338614,0.24447220395778912,0.37250846105124813,0.7663704340919854,-0.0027629533066761748,-0.008196208994219193,0.24447220395778912,0.37250846105124813,0.7663704340919854,1.8524911051019366,-0.04400665945096288,0.28950302590986476,0.44126404880628134,0.797817122737698,-3.025183287251457e-06,7.404590507444075e-07,0.3106968271531128,0.4730903444934512,0.6978825957127777,0.31465828532942086,0.4790391848088101,0.6792032448669981,0.5,-0.4,0.3
0.5700000000000003,0.0008386819972656667,-0.020056785836985336,-0.1340022803300822,-0.021227469099214302,-0.08012643343147818,-0.008687697121533486,-0.04332476878165459,-7.3451204382792405e-06,0.9951004079532806,-0.014958245706550449,0.0,0.0,0.0,-0.04116610905712984,-0.12099526254810061,-0.007080064958556062,-0.010908617508173886,0.6487322833418259,-0.005200830883680667,-0.015787316810028734,0.03815572340485152,0.0580003519758954,0.652127482273348,-1.5278214423625125,-0.08032837315123935,0.24435359997089723,0.3720688571941987,0.7666074356695407,-0.002845831041166574,-0.008283744780608109,0.24435359997089723,0.3720688571941987,0.7666074356695407,1.8520466051511781,-0.04444746739418882,0.28940487544055504,0.44081247174932886,0.7980510047489677,-3.0424089608459455e-06,7.914347959197404e-07,0.31061245200767373,0.4726250964433606,0.698115047225029,0.3145764850108735,0.47857138143289923,0.6794354289962554,0.5,-0.4,0.3
0.5800000000000003,0.0008515580047969706,-0.020025745127339067,-0.13254408104882698,-0.02120550990867623,-0.07884729937736779,-0.0085776735798926,-0.04258666997600663,-7.77900266041522e-06,0.9949493705402073,-0.015157207655163802,0.0,0.0,0.0,-0.04238945776417069,-0.12233528233910024,-0.0072920381493917176,-0.011231500359241555,0.6487161376605703,-0.005360826798690876,-0.015999591501020878,0.03796289506129931,0.05765985450244365,0.6522121704718089,-1.5286327432383473,-0.08112820908634574,0.24423369259191346,0.37162400210470387,0.7668469038926643,-0.00292957338413807,-0.008370153771199741,0.24423369259191346,0.37162400210470387,0.7668469038926643,1.8515977722659924,-0.044880772192249674,0.2893056835307566,0.4403554233840812,0.7982874408111967,-3.0581526177471184e-06,8.442885195735286e-07,0.3105272483206847,0.4721543534383927,0.6983500942621319,0.3144938959449703,0.47809807868218923,0.6796702164024936,0.5,-0.4,0.3
0.5900000000000003,0.0008421059974352829,-0.02000005910766159,-0.13111623479420942,-0.021189626236019388,-0.07758895306384461,-0.008470260319761072,-0.041860463340942344,-8.225265990201151e-06,0.9947963456323735,-0.01535584316564048,0.0,0.0,0.0,-0.04362606083379277,-0.1236607199685539,-0.007506400209869408,-0.011557796932895712,0.6486993368474936,-0.005522943264691948,-0.01621164660010764,0.03776786232085686,0.05731560782044573,0.6522972904299175,-1.5294519141434428,-0.08191524364061037,0.2441124987581079,0.37117393432439927,0.7670888053502994,-0.0030141693461476354,-0.008455462668247043,0.2441124987581079,0.37117393432439927,0.7670888053502994,1.8511446802614262,-0.04530669486979896,0.2892054662083693,0.43989294040634697,0.7985264021038508,-3.0723980223475425e-06,8.990202377597706e-07,0.3104412328445347,0.4716781580535034,0.6985877101247319,0.3144105350195189,0.477619320230542,0.6799075807828404,0.5,-0.4,0.3
0.6000000000000003,0.0009285760024795309,-0.019979637065741435,-0.12971805790396762,-0.021179731972196025,-0.07635098472197199,-0.008365417611250467,-0.04114593753318718,-8.683826504456141e-06,0.9946413360675045,-0.015554206293728624,0.0,0.0,0.0,-0.044875775478795184,-0.12497187896645615,-0.007723129393709585,-0.011887466049337908,0.6486818674287358,-0.005687178693316631,-0.016423542862467833,0.037570644443371964,0.05696765015230107,0.6523828165575541,-1.530278829147493,-0.08268968502115863,0.2439900352338623,0.3707186912315893,0.767333107237246,-0.003099608200679725,-0.008539697761564298,0.2439900352338623,0.3707186912315893,0.767333107237246,1.8506874017640322,-0.04572535429212559,0.2891042393994692,0.4394250583060432,0.7987678603925411,-3.085128510354696e-06,9.556274569999523e-07,0.3103544222731516,0.4711965516008339,0.6988278686892488,0.31432641907197073,0.47713514847836486,0.6801474964082597,0.5,-0.4,0.3
0.6100000000000003,0.0008468969972454943,-0.019964390869945087,-0.1283488832848081,-0.021175743735912772,-0.07513299344715574,-0.008263106699437056,-0.04044288570574078,-9.154586082646274e-06,0.9944843441477502,-0.01575235019602185,0.0,0.0,0.0,-0.04613846187893646,-0.12626905602640623,-0.007942204464365814,-0.012220467269352336,0.6486637159509545,-0.00585353209513852,-0.016635340182189793,0.037371260254358274,0.05661601893227814,0.652468723519631,-1.531113364361182,-0.08345173733241443,0.2438663186163508,0.3702583090665506,0.7675797773390021,-0.0031858794801167337,-0.008622884938551768,0.2438663186163508,0.3702583090665506,0.7675797773390021,1.8502260082329913,-0.0461368672119311,0.28900201893282906,0.43895181139326966,0.7990117880133147,-3.0963270293656938e-06,1.0141051557414557e-06,0.3102668332451801,0.47070957415583736,0.6990705443919865,0.31424156489234856,0.4766456045787472,0.680389938107626,0.5,-0.4,0.3
0.6200000000000003,0.0008565349999116734,-0.01995423493143747,-0.1270080598181902,-0.021177580833491944,-0.07393458688727461,-0.0081632897803771,-0.039751105334255465,-9.63743234418213e-06,0.9943253716484647,-0.0159503271556129,0.0,0.0,0.0,-0.04741398311422765,-0.1275525411712978,-0.008163604683872144,-0.012556760876001742,0.6486448689823239,-0.006022003071334003,-0.01684709761954892,0.037169728154972,0.056260750825746955,0.6525549862314939,-1.5319553978960472,-0.0842016006648145,0.24374136534104324,0.36979282295615934,0.7678287840169233,-0.0032729729718055135,-0.008705049693866183,0.24374136534104324,0.36979282295615934,0.7678287840169233,1.849760569980785,-0.04654134831429564,0.2888988205442923,0.43847323282366857,0.7992581578572895,-3.105976180066028e-06,1.074445769701747e-06,0.3101784823470454,0.4702172645827051,0.6993157122136004,0.3141559892260647,0.4761507284628988,0.6806348812521632,0.5,-0.4,0.3
0.6300000000000003,0.0008529460028512403,-0.01994908617245944,-0.12569495179393186,-0.021185165222693036,-0.07275538094862422,-0.00806592997910606,-0.03907039805368706,-1.013223860666034e-05,0.9941644198267304,-0.01614818860734013,0.0,0.0,0.0,-0.04870220509982281,-0.128822617913066,-0.008387309801988157,-0.012896307856738612,0.6486253131134284,-0.0061925918056128446,-0.01705887342788384,0.036966066131709927,0.05590188174794799,0.652641579854352,-1.5328048098251992,-0.08493947118040307,0.24361519168704027,0.3693222669378578,0.7680800961936826,-0.0033608787142177326,-0.008786217138854895,0.24361519168704027,0.3693222669378578,0.7680800961936826,1.8492911561934406,-0.046938910259907596,0.2887946598810094,0.43798935462308647,0.7995069433556117,-3.114058258013056e-06,1.136639181128704e-06,0.31008938611591114,0.46971966055910686,0.6995633476639059,0.3140697087766404,0.47565055886490504,0.6808823017402226,0.5,-0.4,0.3
0.6400000000000003,0.0008584460010752082,-0.019948863904482222,-0.12440893840218581,-0.021198421385577287,-0.07159499949881487,-0.007970991314660794,-0.03840056950145493,-1.0638863866429976e-05,0.9940014894296366,-0.01634598516269482,0.0,0.0,0.0,-0.05000299652245037,-0.13007956340677015,-0.008613300045630696,-0.013239069885917033,0.6486050349580623,-0.006365299056413948,-0.017270725080110773,0.03676029176584003,0.05553944688231439,0.6527284797907413,-1.5336614821448642,-0.08566554119548486,0.24348781378225098,0.3688466739829884,0.768333683339029,-0.00344958699320196,-0.00886641201077327,0.24348781378225098,0.3688466739829884,0.768333683339029,1.8488178349503517,-0.047329663726659275,0.28868955250554607,0.43750020771156733,0.7997581184647372,-3.1205552959323495e-06,1.200672712151421e-06,0.3099995610425406,0.46921679860027443,0.6998134267670207,0.313982740208334,0.47514513334582714,0.6811321759824008,0.5,-0.4,0.3
0.6500000000000004,0.0008490559994243085,-0.01995348986529838,-0.12314941317818762,-0.02121727636562168,-0.07045307410765089,-0.007878438690430603,-0.03774142916836315,-1.1157152803249556e-05,0.9938365807023153,-0.016543766633496406,0.0,0.0,0.0,-0.05131622877833466,-0.13132364859959586,-0.008841556108582244,-0.013585009307692112,0.6485840211539373,-0.006540126149353613,-0.017482709293966545,0.03655242224257434,0.05517348069836266,0.652815661680021,-1.5345252987367315,-0.08637999926030647,0.24335924760841754,0.3683660760195133,0.7685895154558351,-0.0035390883383238383,-0.008945658681655262,0.24335924760841754,0.3683660760195133,0.7685895154558351,1.8483406732437053,-0.04771371744967365,0.28858351389986725,0.4370058219266958,0.8000116576520232,-3.1254491064459982e-06,1.2665311224192496e-06,0.30990902357406447,0.46870871408244646,0.7000659260468337,0.3138951001486808,0.4746344883171662,0.6813844808869852,0.5,-0.4,0.3
0.6600000000000004,0.0008610360018792562,-0.019962888034639026,-0.12191578356303001,-0.02124165957491017,-0.06932924376367611,-0.007788237851037008,-0.037092790256200825,-1.168693580748696e-05,0.9936696933957413,-0.016741582055903283,0.0,0.0,0.0,-0.05264177591255172,-0.13255513837430455,-0.009072059141465211,-0.013934089119292514,0.6485622583633053,-0.006717074969929848,-0.017694882057622763,0.03634247435999541,0.05480401696916776,0.6529031013939034,-1.5353961453310625,-0.08708303023614523,0.24322950900599885,0.36788050395414185,0.7688475630664245,-0.003629373519293776,-0.009023981167092143,0.24322950900599885,0.36788050395414185,0.7688475630664245,1.8478597369975218,-0.048091178259840314,0.2884765594692076,0.4365062260463145,0.8002675358816216,-3.128721325186938e-06,1.3341966109067793e-06,0.3098177901166652,0.46819544126569884,0.7003208225127892,0.3138068051909564,0.4741186590637146,0.6816391938457177,0.5,-0.4,0.3
0.6700000000000004,0.0009056259950739332,-0.019976984694773575,-0.1207074703715314,-0.02127150285674964,-0.06822315463807849,-0.007700355377561752,-0.03645446953978798,-1.2228029033290856e-05,0.9935008267743042,-0.016939479712578632,0.0,0.0,0.0,-0.05397951455977588,-0.13377429168829008,-0.00930479074197342,-0.01428627295465483,0.6485397332735026,-0.00689614795646357,-0.017907298653371866,0.036130464537743996,0.054431088788436194,0.6529907750320217,-1.5362739094705469,-0.08777481536956298,0.24309861367891486,0.3673899876938842,0.7691077971991769,-0.0037204335424774423,-0.009101403134582665,0.24309861367891486,0.3673899876938842,0.7691077971991769,1.8473750910863238,-0.048462151120926694,0.2883687045458292,0.4360014478106335,0.8005257286006717,-3.1303534542113555e-06,1.4036488222343019e-06,0.3097258770381784,0.4676770133161774,0.7005780936459813,0.3137178718965614,0.47359767976581174,0.681896292719871,0.5,-0.4,0.3
0.6800000000000004,0.0008468270025332458,-0.01999570834258027,-0.1195239073545542,-0.021306740392515677,-0.0671344598417346,-0.007614758660930518,-0.03582628723951081,-1.2780234475633213e-05,0.993329979623156,-0.01713750715542055,0.0,0.0,0.0,-0.055329323886363586,-0.1349813617073136,-0.009539732945350588,-0.014641525068405952,0.6485164325974206,-0.007077348093282962,-0.018120013681939363,0.035916408825479015,0.054054728587192305,0.6530786589175352,-1.5371584804748795,-0.08845553236429732,0.24296657719916326,0.3668945561670538,0.7693701893753961,-0.0038122596474891644,-0.009177947911841105,0.24296657719916326,0.3668945561670538,0.7693701893753961,1.846886799353447,-0.04882673916530987,0.28825996439267804,0.43549151394375674,0.8007862117257762,-3.1303269056569587e-06,1.4748648573346262e-06,0.3096333006706211,0.46715346232775706,0.7008377173855469,0.31362831679733943,0.4730715835210282,0.6821557558266256,0.5,-0.4,0.3
0.6900000000000004,0.0009020709985634312,-0.020018989600368714,-0.11836454077102432,-0.021347308608419602,-0.06606281918647028,-0.007531415875372718,-0.03520806689647765,-1.3343340073602888e-05,0.9931571502553407,-0.017335711227406632,0.0,0.0,0.0,-0.056691085533730985,-0.13617659593486175,-0.009776868215107249,-0.014999810320182083,0.6484923430739057,-0.007260678904141605,-0.01833308108586452,0.03570032291111788,0.0536749681500907,0.653166729592771,-1.5380497494060266,-0.0891253554507227,0.24283341501131392,0.3663942373437314,0.7696347115964403,-0.0039048433038653203,-0.00925363849484261,0.24283341501131392,0.3663942373437314,0.7696347115964403,1.8463949246290077,-0.04918504372843328,0.28815035420694307,0.4349764501746386,0.801048961629758,-3.1286230455649545e-06,1.5478192887117062e-06,0.3095400773126521,0.4666248193431412,0.7010996721153484,0.31353815639783134,0.4725404023652912,0.6824175619257391,0.5,-0.4,0.3
0.7000000000000004,0.0008511630003340542,-0.02004676120834692,-0.11722882893925934,-0.021393146168234373,-0.06500789896914372,-0.0074502959652936185,-0.03459963525321108,-1.3917119839869657e-05,0.9929823365187106,-0.017534138083527332,0.0,0.0,0.0,-0.05806468356298207,-0.13736023633722422,-0.010016179433967732,-0.015361094159273277,0.6484674514680976,-0.007446144445861096,-0.01854655417194872,0.03548222212886544,0.05329183863136806,0.6532549638149079,-1.5389476090341665,-0.0897844554529229,0.24269914243688517,0.3658890582557154,0.7699013363311049,-0.003998176207815142,-0.009328497555607676,0.24269914243688517,0.3658890582557154,0.7699013363311049,1.8458995287475366,-0.049537164382014554,0.28803988912352174,0.43445628125749575,0.8013139551286897,-3.1252232378062878e-06,1.622484180285877e-06,0.3094462232319653,0.46609111437442424,0.7013639366509438,0.3134474071774688,0.4720041672934763,0.6826816902065053,0.5,-0.4,0.3
0.7100000000000004,0.0008476579969283193,-0.020078958004483255,-0.11611624181878666,-0.02144419395052724,-0.06396937176791029,-0.0073713686305939,-0.03400082214269934,-1.4501334016122025e-05,0.9928055358026366,-0.01773283321161904,0.0,0.0,0.0,-0.05945000440074292,-0.13853251946408446,-0.010257649895038622,-0.01572534260958193,0.648441744571707,-0.007633749302197415,-0.01876048563363106,0.035262121467039914,0.05290537057044693,0.6533433385517003,-1.5398519538042814,-0.09043299985360337,0.24256377467861023,0.3653790450159702,0.7701700365032513,-0.004092250279047839,-0.009402547449860715,0.24256377467861023,0.3653790450159702,0.7701700365032513,1.8454006725652963,-0.049883198966060416,0.2879285842183992,0.43393103099168795,0.8015811694691867,-3.1201088880323724e-06,1.6988291118265678e-06,0.30935175466762477,0.46555237642313224,0.7016304902268289,0.31335608559271366,0.47146290827947696,0.6829481202749863,0.5,-0.4,0.3
0.7200000000000004,0.0008428750006714836,-0.020115516759108887,-0.11502626066289001,-0.021500394877223272,-0.06294691621638038,-0.007294604290338846,-0.03341146037901693,-1.5095729255638992e-05,0.9926267450445122,-0.017931841452979932,0.0,0.0,0.0,-0.060846936786159905,-0.1396936765649282,-0.01050126329319062,-0.0160925222548842,0.6484152092032391,-0.007823498577928778,-0.018974927573136333,0.03504003557570466,0.052515593907203645,0.6534318309772439,-1.5407626798033704,-0.09107115285696478,0.24242732682460177,0.3648642228375908,0.7704407854796768,-0.00418705765767467,-0.009475810224546487,0.24242732682460177,0.3648642228375908,0.7704407854796768,1.844898415977285,-0.050223243619771624,0.2878164545119489,0.4334007222410852,0.8018505823159586,-3.1132614875711264e-06,1.7768212081051976e-06,0.30925668783234744,0.465008633499757,0.701899312483951,0.3132642080791509,0.47091665429577045,0.6832168321415196,0.5,-0.4,0.3
0.7300000000000004,0.0008712560011190362,-0.02015637631338882,-0.11395837755336746,-0.02156169405829783,-0.06194021684109008,-0.00721997409394734,-0.03283138565488475,-1.57000388322282e-05,0.9924459607360637,-0.018131207021325424,0.0,0.0,0.0,-0.062255371719027404,-0.14084393370197718,-0.010747003716646943,-0.016462600224385553,0.6483878322081663,-0.008015397893147853,-0.019189931521908565,0.03481597877411079,0.052122537996912015,0.6535204184677837,-1.5416796847282754,-0.09169907544931784,0.24228981385241133,0.3643446160523015,0.7707135570582169,-0.004282590701182011,-0.009548307624987734,0.24228981385241133,0.3643446160523015,0.7707135570582169,1.8443928179339455,-0.05055739281135377,0.28770351497214985,0.432865376952942,0.8021221717396114,-3.1046626572388274e-06,1.856425172629475e-06,0.30916103891472796,0.46445991264280506,0.7021703834574818,0.3131717910535276,0.4703654333324991,0.6834878062084857,0.5,-0.4,0.3
0.7400000000000004,0.0008233190019382164,-0.02020147734386507,-0.11291209512189071,-0.021628038545244116,-0.06094896384414683,-0.007147449874424228,-0.032260436444310536,-1.6313982876999524e-05,0.9922631789294655,-0.018330973523090016,0.0,0.0,0.0,-0.06367520240899807,-0.1419835118584699,-0.010994855638769523,-0.0168355441785581,0.6483596004590544,-0.008209453377772761,-0.019405548462491543,0.03458996505796137,0.051726231624874615,0.653609078597567,-1.5426028678540968,-0.09231692545807063,0.2421512506330022,0.36382024812850133,0.7709883254560739,-0.004378841981477369,-0.009620061102161558,0.2421512506330022,0.36382024812850133,0.7709883254560739,1.843883936457585,-0.050885739366804,0.28758978051773953,0.43232501617629004,0.802395916204689,-3.094294190908518e-06,1.937603326215842e-06,0.30906482408142527,0.4639062399373709,0.7024436835648408,0.31307885091575904,0.4698092724160776,0.6837610232583271,0.5,-0.4,0.3
0.7500000000000004,0.0008742999998503365,-0.02025076243370072,-0.11188692613209361,-0.021699377406939613,-0.05997285293863153,-0.007077004150289307,-0.03169845390600978,-1.693726864073459e-05,0.9920783952432672,-0.01853118397538687,0.0,0.0,0.0,-0.06510632422584844,-0.14311262704415612,-0.011244803910037487,-0.017211322295252705,0.6483305008556479,-0.008405671666252187,-0.019621828847943983,0.03436200810650085,0.05132670302075163,0.6536977891347405,-1.543532130003172,-0.0929248576085425,0.24201165193462781,0.36329114168887383,0.7712650652983715,-0.004475804282002824,-0.009691091819511609,0.24201165193462781,0.36329114168887383,0.7712650652983715,1.8433718286585168,-0.051208374497723315,0.2874752660212931,0.43177966007986923,0.8026717945579595,-3.0821380988791575e-06,2.020315650009749e-06,0.30896805947929973,0.4633476405332559,0.7027191935939722,0.31298540405088976,0.4692481976273469,0.684036464441825,0.5,-0.4,0.3
0.7600000000000005,0.0008954759978223592,-0.020304176003980046,-0.11088239315193138,-0.02177566165847572,-0.05901158517463667,-0.007008610105705609,-0.031145281794643487,-1.7569590784491678e-05,0.9918916048681378,-0.01873188082464306,0.0,0.0,0.0,-0.06654863465075726,-0.1442314903966113,-0.011496833750209934,-0.017589903256074773,0.6483005203249148,-0.00860405989247232,-0.01983882262201338,0.034132121289438315,0.050923979872598446,0.6537865280372923,-1.5444673735146095,-0.09352302357912982,0.24187103242662744,0.36275731852757254,0.7715437516069201,-0.0045734705949169304,-0.009761420659786777,0.24187103242662744,0.36275731852757254,0.7715437516069201,1.842856550750934,-0.05152538782816335,0.28735998631223963,0.4312293279696086,0.8029497860169245,-3.0681766508733286e-06,2.104519833343206e-06,0.3088707612375119,0.4627841386626421,0.7029968946918552,0.3128914668310207,0.4686822341192839,0.6843141112666087,0.5,-0.4,0.3
0.7700000000000005,0.0008283040006062947,-0.020361664283831016,-0.10989802821630357,-0.021856844228855477,-0.05806486677703493,-0.0069422415772487645,-0.030600766375615485,-1.821063169650827e-05,0.9917028025724329,-0.018933105964544825,0.0,0.0,0.0,-0.06800203322856439,-0.14534030827927483,-0.011750930740666698,-0.01797125623301542,0.648269645821058,-0.00880462568485831,-0.02005657923859814,0.03390031767371056,0.05051808934062264,0.6538752734490406,-1.545408502214358,-0.09411157205473168,0.2417294066831413,0.3622187996270016,0.7718243597891941,-0.004671834118342826,-0.0098310682316862,0.2417294066831413,0.3622187996270016,0.7718243597891941,1.8423381580685256,-0.051836867420585256,0.28724395617981824,0.4306740383056772,0.803229870158556,-3.052392418636474e-06,2.1901713261407788e-06,0.30877294546958406,0.4622157576573414,0.7032767683532493,0.31279705561720383,0.468111406134288,0.6845939455859023,0.5,-0.4,0.3
0.7800000000000005,0.0008358620034414344,-0.020423175210805056,-0.10893337252901669,-0.021942879859682962,-0.05713240897425054,-0.006877873030501608,-0.030064756341626864,-1.8860061835207953e-05,0.9915119827075833,-0.01913490075366899,0.0,0.0,0.0,-0.06946642152097639,-0.14643928237611403,-0.01200708081692082,-0.01835535087532904,0.6482378643254956,-0.009007377161667161,-0.020275147680886695,0.0336666100300917,0.05010905807066901,0.6539640036956705,-1.5463554213857909,-0.09469064877855182,0.24158678918675378,0.3616756051741969,0.7721068656275141,-0.0047708882536813815,-0.009900054876378,0.24158678918675378,0.3616756051741969,0.7721068656275141,1.8418167050798369,-0.05214289980096638,0.2871271903759812,0.43011380871911103,0.8035120269082512,-3.034768318050468e-06,2.277223395838468e-06,0.30867462827543257,0.4616425199656252,0.7035587964096665,0.31270218676131134,0.46753573702104845,0.6848759495875011,0.5,-0.4,0.3
0.7900000000000005,0.0008381229999940842,-0.020488658505724733,-0.1079879761009821,-0.022033725183887964,-0.0562139278679612,-0.00681547956349067,-0.02953710273497645,-1.95175400986351e-05,0.9913191392133167,-0.019337306032110955,0.0,0.0,0.0,-0.07094170306068895,-0.14752860978330745,-0.012265270261296814,-0.01874215729664977,0.6482051628468115,-0.009212322926462011,-0.020494576479483523,0.03343101083965377,0.04969691220744303,0.6540526972808155,-1.5473080377407902,-0.0952603966021874,0.24144319433205996,0.36112775457682905,0.7723912452684268,-0.0048706266029869836,-0.009968400673789537,0.24144319433205996,0.36112775457682905,0.7723912452684268,1.8412922454033906,-0.05244356998307218,0.28700970361823874,0.4295486560280385,0.8037962365289968,-3.0152876507313605e-06,2.3656271888015945e-06,0.3085758257433639,0.46106444716865747,0.703842961018561,0.3126068766078733,0.46695524925101617,0.6851601057829656,0.5,-0.4,0.3
0.8000000000000005,0.0008504939978593029,-0.02055806548159414,-0.10706139751830968,-0.02212933852728116,-0.055309144258777754,-0.0067550368700458885,-0.029017658872009744,-2.0182714219898915e-05,0.9911242656227102,-0.01954036213883997,0.0,0.0,0.0,-0.07242778330638977,-0.14860848309730987,-0.012525485695767984,-0.019131646062337082,0.6481715284206848,-0.009419472063775225,-0.020714913731322403,0.033193532300086634,0.049281677407482016,0.6541413328821912,-1.5482662593913268,-0.09582095553441344,0.24129863642917088,0.3605752664788353,0.7726774752122776,-0.004971042966406827,-0.010036125448939092,0.24129863642917088,0.3605752664788353,0.7726774752122776,1.8407648318225733,-0.05273896149195147,0.2868915105924606,0.4289785962535112,0.8040824796107388,-2.9939341449350634e-06,2.4553317962269436e-06,0.3084765539520491,0.4604815599965353,0.7041292446527325,0.3125111414958974,0.4663699644344837,0.6854463969970305,0.5,-0.4,0.3
0.8100000000000005,0.0009850179994828068,-0.02063134915189238,-0.10615320358135283,-0.022229680020970366,-0.054417783530045005,-0.006696521248853754,-0.028506280270264528,-2.0855221186818064e-05,0.9909273550670834,-0.01974410892715035,0.0,0.0,0.0,-0.07392456959861916,-0.14967909050059816,-0.012787714074948326,-0.019523788177044907,0.6481369481097944,-0.009628834134941163,-0.020936207116595214,0.03295418633187975,0.04886337885188194,0.6542298893477748,-1.5492299958214981,-0.0963724627882233,0.24115312970715,0.36001815877569476,0.7729655323029742,-0.005072131339679419,-0.010103248777905794,0.24115312970715,0.36001815877569476,0.7729655323029742,1.840234516300293,-0.053029156386675325,0.28677262595562664,0.4284036446349565,0.8043707370599558,-2.9706919958686095e-06,2.546284324176154e-06,0.30837682897246943,0.45989387834395656,0.7044176300899391,0.31241499776066434,0.46577990333629304,0.6857348063572257,0.5,-0.4,0.3
0.8200000000000005,0.0008321679997607134,-0.02070846409925267,-0.10526296906923527,-0.022334711468587426,-0.05353957549850641,-0.006639909576774974,-0.028002824581101593,-2.153468768754953e-05,0.9907284002807325,-0.019948585781169235,0.0,0.0,0.0,-0.07543197111645181,-0.15074061584380694,-0.013051942679232164,-0.01991855507250461,0.6481014090037074,-0.009840419174109208,-0.02115850391680492,0.032712984584373786,0.048442041258789696,0.6543183456920361,-1.5501991578600347,-0.09691505282670562,0.24100668831739336,0.35945644862935966,0.7732553937179316,-0.0051738859116940905,-0.010169789993897924,0.24100668831739336,0.35945644862935966,0.7732553937179316,1.8397013499934176,-0.053314235282348105,0.2866530643385373,0.4278238156452638,0.8046609900894225,-2.945545905141144e-06,2.6384299680326517e-06,0.30827666686984173,0.45930142128552204,0.7047081004027078,0.3123184617355061,0.4651850858911778,0.6860253172836958,0.5,-0.4,0.3
0.8300000000000005,0.0008899320018826984,-0.020789366461373304,-0.10439027645274401,-0.022444396330752875,-0.05267425428572037,-0.006585179299737884,-0.027507151522434437,-2.2220730578546686e-05,0.9905273936055086,-0.020153831631058,0.0,0.0,0.0,-0.07694989883497629,-0.1517932387255098,-0.013318159108077111,-0.020315918595515726,0.6480648982187517,-0.0100542376844241,-0.021381851031490793,0.03246993844168581,0.04801768889566836,0.6544066810922178,-1.5511736576532489,-0.09744885740742733,0.2408593263369523,0.358890152482852,0.7735470369581937,-0.005276301062108313,-0.010235768193059365,0.2408593263369523,0.358890152482852,0.7735470369581937,1.8391653832669996,-0.05359427737144407,0.286532840348484,0.42723912300551536,0.8049532202081607,-2.918481119447608e-06,2.7317120908070675e-06,0.308176083705524,0.4587042070906853,0.7050006389483398,0.31222154975356886,0.46458553121875446,0.6863179134792143,0.5,-0.4,0.3
0.8400000000000005,0.0008327799951075576,-0.020874013910883338,-0.10353471562232186,-0.022558699706298674,-0.05182155819571843,-0.00653230842377657,-0.027019122815511165,-2.2912957376812827e-05,0.9903243269952476,-0.020359884968059412,0.0,0.0,0.0,-0.0784782654835438,-0.15283713456912862,-0.01358635127342486,-0.02071585099613718,0.6480274028978764,-0.010270300634372098,-0.02160629499479832,0.03222505902851312,0.04759034559134355,0.6544948748846674,-1.5521534086384086,-0.0979740056255293,0.24071105777180152,0.35831928607453783,0.7738404398387329,-0.005379371359022262,-0.010301202240191905,0.24071105777180152,0.35831928607453783,0.7738404398387329,1.8386266657082935,-0.05386936044447137,0.2864119685718795,0.42664957969937467,0.8052474092115789,-2.889483468340702e-06,2.8260723055287956e-06,0.3080750955389014,0.45810225323836157,0.7052952293591085,0.3121242781495597,0.4639812576381722,0.6866125789193944,0.5,-0.4,0.3
0.8500000000000005,0.0008262839983217418,-0.020962365625334184,-0.10269588363156634,-0.022677588302549567,-0.050981229597711564,-0.006481275504099465,-0.02653860212555914,-2.361096677379944e-05,0.9901191920200547,-0.020566783859338824,0.0,0.0,0.0,-0.08001698550475894,-0.15387247469712323,-0.01385650739325473,-0.021118324916071914,0.6479889102105023,-0.010488619454290712,-0.02183188199186131,0.03197835721582117,0.04716003474783915,0.6545829065612204,-1.5531383255175366,-0.0984906239555979,0.2405618965600589,0.35774386445209205,0.7741355804789145,-0.005483091556709868,-0.010366110774394217,0.2405618965600589,0.35774386445209205,0.7741355804789145,1.8380852461405752,-0.05413956091000389,0.2862904635768567,0.426055197987145,0.8055435391717839,-2.858539401023875e-06,2.921450561353331e-06,0.3079737184292583,0.45749557643120814,0.705591855532638,0.31202666326148293,0.4633722826824349,0.6869092978430781,0.5,-0.4,0.3
0.8600000000000005,0.0008737870011827908,-0.021054382207513184,-0.1018733844678501,-0.022801030354321378,-0.05015301480023415,-0.006432059627379708,-0.026065455003100813,-2.431434917094921e-05,0.9899119798704406,-0.020774565962521637,0.0,0.0,0.0,-0.08156597501418629,-0.15489942640261534,-0.014128615985265163,-0.021523313377237983,0.6479494073523653,-0.010709206033039596,-0.022058657874886804,0.03172984362642013,0.04672677935200949,0.6546707557656342,-1.5541283242316142,-0.09899883629236234,0.2404118565751595,0.35716390198615877,0.7744324372931257,-0.00558745659340526,-0.01043051221459775,0.2404118565751595,0.35716390198615877,0.7744324372931257,1.837541172636765,-0.054404953814119264,0.28616833991583573,0.42545598941950413,0.8058415924280659,-2.8256360221073433e-06,3.017785233331606e-06,0.3078719684376388,0.4568841926095814,0.7058905016224584,0.3119287214323684,0.46275862311239957,0.6872080547429056,0.5,-0.4,0.3
0.8700000000000006,0.0008521589988959022,-0.021149721869166804,-0.10106715463375582,-0.022928948417615336,-0.04933703997457384,-0.006384687807575187,-0.02559965597584818,-2.5014496917922932e-05,0.9897026753275702,-0.02098330181307115,0.0,0.0,0.0,-0.0831251515554883,-0.15591815331336895,-0.014402665957520938,-0.021930789629589206,0.6479088815507412,-0.010932072714823887,-0.022286668178430016,0.03147952895599439,0.04629060185224004,0.6547584022785868,-1.5551234916854568,-0.09949876492175816,0.24026096514657408,0.35657942794185854,0.7747309254083662,-0.005692512600642595,-0.010494421488482883,0.24026096514657408,0.35657942794185854,0.7747309254083662,1.8369944176657576,-0.05466561197520839,0.28604562938395417,0.42485198716376993,0.8061414678736113,-2.888606915093003e-06,3.1139947913811153e-06,0.30776986979081117,0.4562681158978398,0.706191058999463,0.31183047547433584,0.462140289492993,0.6875087395837344,0.5,-0.4,0.3
0.8800000000000006,0.0008221440002671443,-0.02127786077976085,-0.10132667632228731,-0.02321923967069109,-0.04789337720729747,-0.006022368234164646,-0.024938645770651358,0.0007324139904306979,0.98949119511059,-0.021207870435170688,0.0,0.0,0.0,-0.08469443438528398,-0.15692869833711126,-0.014678648048145426,-0.02234072631195928,0.6478673200561353,-0.011157232291449949,-0.02251595766260617,0.031227426734829353,0.04585152216508563,0.6548458260326959,-1.5561242493865186,-0.10015423386556807,0.24010929597742703,0.3559904880557629,0.7750308356552759,-0.00579840079452419,-0.010606289138375826,0.24010929597742703,0.3559904880557629,0.7750308356552759,1.836444805897413,-0.05499407964207845,0.28592242147435865,0.42424325143872643,0.8064429005793076,-3.3391893554375596e-06,-9.151837747904592e-05,0.3076674878389648,0.4556473406517229,0.7064932369005286,0.31173198622487247,0.4615172638691054,0.687811056773654,0.5,-0.4,0.3
0.8900000000000006,0.000846445000206586,-0.021374739039572543,-0.10044764908527082,-0.023338813153522237,-0.04714720067293254,-0.006003785778179421,-0.02449625631000868,0.000667514461807461,0.9892775826788658,-0.021418754010051257,0.0,0.0,0.0,-0.08627384998433751,-0.15794195714935966,-0.014956568779623598,-0.022753126028072918,0.6478247072678557,-0.011384713792043066,-0.02274815005931308,0.030973526753169688,0.045409534683407735,0.6549330129084465,-1.5571297807574664,-0.10063097647674145,0.23995677510347188,0.35539699112916395,0.7753324678708605,-0.005904886171252599,-0.010666040182426298,0.23995677510347188,0.35539699112916395,0.7753324678708605,1.835892699259401,-0.05524354247985262,0.2857986246242519,0.42362965668355596,0.8067462894126063,-3.7134776428313104e-06,-8.364238017130338e-05,0.3075647759742173,0.45502185582562227,0.7067974800728485,0.31163321547888373,0.46088955659984027,0.6881154596355106,0.5,-0.4,0.3
0.9000000000000006,0.0009618109979783185,-0.02147623230677162,-0.09959179829556253,-0.023464544370173507,-0.04640756430395854,-0.005984719196900579,-0.024059690227270725,0.0006081006618242447,0.9890618526609207,-0.021630559949604663,0.0,0.0,0.0,-0.08786331023820579,-0.1589464252038087,-0.015236415452512227,-0.023167960773600543,0.6477810306193043,-0.011614529173951544,-0.0229815381908483,0.03071783924907818,0.04496466453346731,0.6550199423875228,-1.5581400073199432,-0.10110025229561068,0.23980340912625905,0.3547989592773823,0.7756357965265012,-0.006011968401467885,-0.010725613681002541,0.23980340912625905,0.3547989592773823,0.7756357965265012,1.8353381426560413,-0.055488579660362566,0.28567424459864077,0.4230112236468136,0.8070516116943509,-4.015315170366664e-06,-7.640424154993584e-05,0.3074617404164931,0.45439168570938976,0.7071037671616833,0.3115341695413253,0.46025719263697407,0.6884219270621192,0.5,-0.4,0.3
0.9100000000000006,0.0008496020018355921,-0.02156756667045026,-0.0987765191334804,-0.023598407887830436,-0.0456860077529585,-0.005968240530989086,-0.023635826472702792,0.000554374934269116,0.9888439828341218,-0.02184543810984409,0.0,0.0,0.0,-0.08946272940094804,-0.15994235323309372,-0.015518176608724682,-0.023585202566995537,0.6477362775636362,-0.01184669101029706,-0.023216183634550035,0.03046037576643299,0.044516935100213595,0.6551065941539448,-1.55915502710711,-0.10156220746330819,0.23964922924165863,0.35419642248447886,0.7759407311978254,-0.006119697140411005,-0.010784788106943534,0.23964922924165863,0.35419642248447886,0.7759407311978254,1.8347811026899055,-0.055729194450520186,0.2855493178057646,0.42238798642851677,0.8073587590906359,-4.350389909365843e-06,-6.983794767822203e-05,0.3073584093592294,0.45375684332687605,0.7074119815412679,0.31143487507015744,0.4596201810648871,0.6887303408778347,0.5,-0.4,0.3
0.9200000000000006,0.0008480859978590161,-0.02159908696781357,-0.09811018204423316,-0.023754852536453847,-0.04499310824337843,-0.0059508749950263895,-0.023239293577609343,0.0005418628893129034,0.9886238918141107,-0.022071471047620042,0.0,0.0,0.0,-0.09107202592377703,-0.16093020998901622,-0.01580184296035935,-0.024004823525217794,0.6476904355181126,-0.012081212687431326,-0.02345216771342834,0.030201149744537324,0.04406636689939475,0.6551929481885026,-1.5601751961556194,-0.10202454658006888,0.23949430427851023,0.3535894208915641,0.7762470869553336,-0.0062281947646822405,-0.010844927411812581,0.23949430427851023,0.3535894208915641,0.7762470869553336,1.8342214297947108,-0.055968527288197664,0.28542392753822105,0.421759997063384,0.8076674983406598,-4.974181018615408e-06,-6.844340209987733e-05,0.3072548452300463,0.4531173234974198,0.7077218675625108,0.3113353905930043,0.4589785060084545,0.689040441248838,0.5,-0.4,0.3
0.9300000000000006,0.0008259239984909073,-0.02171993585805118,-0.09730173487131588,-0.023895500796310337,-0.04427016062437472,-0.005931104586201552,-0.022816285938516367,0.0004930529636877562,0.9884016423734486,-0.02228546337203766,0.0,0.0,0.0,-0.09269113352059943,-0.161911303266065,-0.0160874044638434,-0.024426801956301997,0.6476434915325666,-0.01231810984981927,-0.023689716238792877,0.029940165651782452,0.04361298069678951,0.6552789853457536,-1.5611998427702702,-0.10247222207840252,0.23933857990594382,0.35297791976612314,0.776555069478076,-0.006337281726557669,-0.010903956982644378,0.23933857990594382,0.35297791976612314,0.776555069478076,1.8336594328702507,-0.056200979194474227,0.28529800350034595,0.42112719629839845,0.807978110244332,-5.537695364635643e-06,-6.243145901220666e-05,0.30715101050468313,0.452473154716961,0.7080337408396971,0.3112356847111013,0.4583322123652904,0.6893525502967747,0.5,-0.4,0.3
0.9400000000000006,0.0008902910049073398,-0.02184434952290029,-0.09651394484302966,-0.024041860344865107,-0.04355477208338554,-0.005911505441229356,-0.022399318232667553,0.0004482694489639108,0.9881772419713322,-0.022500623926739714,0.0,0.0,0.0,-0.09431997116957215,-0.16288431162579073,-0.016374849782484224,-0.024851111412701226,0.6475954331457381,-0.012557396562286825,-0.023928671246755982,0.029677432971648408,0.043156799650394234,0.6553646857460541,-1.5622288938177922,-0.10291266424453097,0.239182064554327,0.3523619369781156,0.7768646544520217,-0.006446958100767727,-0.010962797317922487,0.239182064554327,0.3523619369781156,0.7768646544520217,1.833095153764403,-0.056429198900599095,0.2851715538954923,0.42048960022668674,0.8082905732202635,-6.04484175833204e-06,-5.689613124735052e-05,0.30704691405483175,0.45182435630145334,0.7083475810715688,0.31113576642106344,0.4576813200537462,0.6896666479596633,0.5,-0.4,0.3
0.9500000000000006,0.0008683269988978282,-0.021971962963384967,-0.09574624163763557,-0.024193826621058512,-0.04284722310943723,-0.005892256099170365,-0.021988458957316104,0.00040717213649059646,0.9879506781866537,-0.022717034311808836,0.0,0.0,0.0,-0.09595846009072466,-0.16384944205711488,-0.016664168443725234,-0.02527772566767135,0.6475462479114147,-0.012799087460788871,-0.024169089850204634,0.0294129617072077,0.04269784575726811,0.6554500296965441,-1.5632622777400618,-0.10334595047071032,0.23902477341236933,0.3517414848452281,0.7771758179788576,-0.0065572219803496645,-0.01102144531821599,0.23902477341236933,0.3517414848452281,0.7771758179788576,1.8325286342026752,-0.05665324548752281,0.2850445950970519,0.4198472184031868,0.8086048661452014,-6.499999685929346e-06,-5.1799104097708694e-05,0.3069425734133547,0.4511709407460955,0.7086633684365764,0.3110356534724767,0.45702584211860176,0.6899827146592633,0.5,-0.4,0.3
0.9600000000000006,0.0009073000037460588,-0.022102750733649507,-0.09499768547897158,-0.02435125703257182,-0.04214750996323269,-0.005873455234008423,-0.021583612341634972,0.0003694380025860824,0.9877219381962122,-0.022934727352478704,0.0,0.0,0.0,-0.09760652351352876,-0.1648068954366168,-0.01695535034053074,-0.025706618955267473,0.6474959234023846,-0.01304319774195301,-0.02441102811641522,0.02914676155281652,0.042236140510318945,0.6555349976758789,-1.5642999237677504,-0.10377215941015659,0.23886672152431335,0.3511165748092454,0.777488536767044,-0.006668071485046635,-0.011079904447983412,0.23886672152431335,0.3511165748092454,0.777488536767044,1.831959915302348,-0.056873179993369924,0.28491714337720175,0.4192000594392036,0.8089209685503672,-6.907183921391907e-06,-4.710359793089723e-05,0.30683800606747125,0.4505129196341747,0.7089810837929564,0.31093536357967116,0.4563657906986553,0.6903007315018517,0.5,-0.4,0.3
0.9700000000000006,0.0008457009971607476,-0.022236690310498408,-0.09426739402559203,-0.024514022425924792,-0.0414556089972018,-0.005855191102820345,-0.021184680604685258,0.00033477382423974434,0.9874910088483541,-0.023153735450014992,0.0,0.0,0.0,-0.0992640865822776,-0.1657568632416626,-0.01724838571407942,-0.026137765945590433,0.6474444472106828,-0.01328974314882042,-0.024654540686740938,0.02887884190520862,0.04177170492702288,0.65561957032658,-1.5653417619174272,-0.10419136966900969,0.23870792377818056,0.3504872174907947,0.7778027880892225,-0.006779504778624871,-0.01113817916973147,0.23870792377818056,0.3504872174907947,0.7778027880892225,1.83138903758007,-0.05708906250396402,0.2847892148900385,0.4185481310633461,0.8092388605718641,-7.2700739137738575e-06,-4.277606243583993e-05,0.30673322943582837,0.4498503036918699,0.7093007086260319,0.31083491439765826,0.45570117708037905,0.6906206802249417,0.5,-0.4,0.3
0.9800000000000006,0.0008821649971650913,-0.0223737607494508,-0.0935545384520382,-0.024682005962195108,-0.04077147975175799,-0.0058375428144036845,-0.020791564800270668,0.0003029133249773892,0.9872578766657946,-0.02337409076930275,0.0,0.0,0.0,-0.10093107626784772,-0.16669952812618893,-0.01754326513924861,-0.026571141720610203,0.6473918069478231,-0.013538739957930415,-0.024899680911000185,0.028609211876706234,0.04130455957424456,0.6557037284478983,-1.5663877229891683,-0.10460365961274745,0.23854839491812707,0.3498534227245534,0.7781185497423511,-0.0068915200776742845,-0.011196274822925106,0.23854839491812707,0.3498534227245534,0.7781185497423511,1.8308160409616057,-0.05730095212826558,0.2846608256837648,0.4178914401592899,0.8095585229044701,-7.592043188021672e-06,-3.8785885320644434e-05,0.3066282608765899,0.44918310281947194,0.7096222249992025,0.3107343235294544,0.4550320117279172,0.6909425431477506,0.5,-0.4,0.3
0.9900000000000007,0.000905060995137319,-0.022513942554695965,-0.09285833856441661,-0.024855101963335735,-0.040095066907825494,-0.005820581253034668,-0.02040416506676629,0.00027361456384001373,0.987022527848024,-0.02359582525486564,0.0,0.0,0.0,-0.10260742128481516,-0.1676350644558586,-0.017839979511023257,-0.027006721751406178,0.647337990245036,-0.013790204967636643,-0.025146500970622137,0.02833788030761652,0.040834724591565695,0.6557874529891236,-1.5674377385624816,-0.1050091071981378,0.23838814955606852,0.34921519959196323,0.7784358000109322,-0.007004115659468063,-0.01125419753260421,0.23838814955606852,0.34921519959196323,0.7784358000109322,1.8302409647917086,-0.05750890698671973,0.28453199171215227,0.417229992800766,0.8098799367591119,-7.876186058390278e-06,-3.510512271115516e-05,0.30652311769516094,0.4485113261204502,0.7099456155088915,0.3106336085331065,0.45435830431104535,0.6912663031256727,0.5,-0.4,0.3
1.0000000000000007,0.0009078400034923106,-0.0226572175818682,-0.09217805840202709,-0.025033214891916983,-0.03942630203311759,-0.00580436990855214,-0.020022380848505605,0.00024665759222265493,0.9867849482735535,-0.02381897064503854,0.0,0.0,0.0,-0.10429305201343471,-0.16856363879436728,-0.01813852003173936,-0.027444481876698134,0.6472829847535144,-0.014044155487539211,-0.025395051990255494,0.028064855777878574,0.04036221971326524,0.6558707250433036,-1.5684917409907486,-0.10540778982469634,0.23822720218256174,0.34857255645173646,0.7787545176330349,-0.007117289869000377,-0.011311954127300107,0.23822720218256174,0.34857255645173646,0.7787545176330349,1.8296638478440876,-0.05771298420211535,0.284402728845253,0.4165637942840994,0.8102030838236604,-8.125341904778655e-06,-3.170825563051597e-05,0.30641781715147676,0.44783498192862886,0.7102708632430599,0.310532786928341,0.4536800637313447,0.6915919435083682,0.5,-0.4,0.3
1.0100000000000007,0.0008967649991973303,-0.022803568866012508,-0.09151300231736803,-0.025216258346233672,-0.03876510512052844,-0.005788965607337257,-0.019646111090390994,0.0002218423495453688,0.9865451235020195,-0.02404355848515973,0.0,0.0,0.0,-0.10598790042604236,-0.16948541034576614,-0.0184388781990863,-0.027884398282551296,0.6472267781446694,-0.014300609328930942,-0.025645384139174665,0.02779014661802857,0.039887064289074514,0.6559535258413374,-1.5695496633943598,-0.10579978420360622,0.23806556717701127,0.34792550096835817,0.7790746817688459,-0.007231041125285539,-0.011369552065256913,0.23806556717701127,0.34792550096835817,0.7790746817688459,1.8290847283314438,-0.057913239892656634,0.284273052879427,0.41589284915852615,0.8105279462267287,-8.342117246327343e-06,-2.857196990530171e-05,0.3063123764668949,0.447154077833646,0.7105979517429465,0.3104318762028702,0.45299729814675255,0.691919448101118,0.5,-0.4,0.3
1.0200000000000007,0.0008316780003951862,-0.0229529805779764,-0.09086251138510648,-0.02540415427744505,-0.0381113859849449,-0.0057744191870930245,-0.019275254410203335,0.00019898677191424762,0.986303038776158,-0.024269620139043904,0.0,0.0,0.0,-0.10769190001748932,-0.17040053135758482,-0.018741045794800806,-0.028326447483151815,0.6471693581104011,-0.014559584796157305,-0.025897546722637003,0.027513760919542954,0.039409277303815646,0.6560358367464157,-1.5706114396526807,-0.10618516624202078,0.23790325881725555,0.3472740401387678,0.7793962719715196,-0.0073453679269915775,-0.01142699936796551,0.23790325881725555,0.3472740401387678,0.7793962719715196,1.8285036439155558,-0.05810972916697888,0.28414297954674234,0.415217161254491,0.8108545065042018,-8.52890582293348e-06,-2.5674957110119294e-05,0.30620681283071804,0.4464686207048493,0.7109268649677403,0.3103308938183771,0.45231001499463586,0.6922488011291493,0.5,-0.4,0.3
1.0300000000000007,0.0008669380040373653,-0.023105437911886656,-0.09022596020204321,-0.02559683220180939,-0.03746504549574148,-0.005760776090021083,-0.018909709250924833,0.00017792509088695912,0.9860586790236601,-0.024497186800011707,0.0,0.0,0.0,-0.10940498573924784,-0.17130914748804404,-0.01904501487399077,-0.028770606302557535,0.6471107123633842,-0.014821100678811412,-0.026151588265411453,0.027235706544615445,0.03892887739602395,0.65611763924878,-1.5716770043950097,-0.10656401094133339,0.23774029128859137,0.34661818031738517,0.7797192681601057,-0.007460268857476278,-0.01148430456044953,0.23774029128859137,0.34661818031738517,0.7797192681601057,1.827920631717402,-0.05830250612088621,0.28401252452380654,0.41453673371011135,0.8111827475682267,-8.68790687366443e-06,-2.2997734420272288e-05,0.3061011434063825,0.44577861671376773,0.7112575872618947,0.31022985721620977,0.45161822101351656,0.6925799872046363,0.5,-0.4,0.3
1.0400000000000007,0.0008475760041619651,-0.023260927043903035,-0.08960275396339279,-0.02579422856370392,-0.036825976691021944,-0.005748076907526906,-0.01854937401521861,0.00015850630208240525,0.9858120288589189,-0.024726289500799338,0.0,0.0,0.0,-0.11112709393686952,-0.17221139814126787,-0.019350777755033913,-0.02921685185733933,0.6470508286373746,-0.015085176244685692,-0.026407556587429548,0.026955991135417367,0.03844588287564282,0.656198914960777,-1.5727462929906342,-0.1069363923077715,0.2375766786922845,0.3459579272396289,0.7800436505943691,-0.007575742589284884,-0.011541476617485905,0.2375766786922845,0.3459579272396289,0.7800436505943691,1.8273357283272962,-0.0584916238356112,0.2838817034400781,0.41385156899597125,0.8115126526784464,-8.821141782375971e-06,-2.0522481472099417e-05,0.3059953853373379,0.4450840713552835,0.7115901033248477,0.310128783822807,0.45092192226356614,0.6929129912961377,0.5,-0.4,0.3
1.0500000000000007,0.0009354200010420755,-0.023419435013078194,-0.08899232585921091,-0.025996286068227098,-0.03619406575373274,-0.00573635785575137,-0.01819414718272966,0.00014059278565354272,0.9855630725846768,-0.02495695912305529,0.0,0.0,0.0,-0.11285816229050326,-0.17310741677325892,-0.01965832701000109,-0.02966516154003581,0.6469896946875351,-0.015351831233416357,-0.026665498873066587,0.02667462212288627,0.03796031174087245,0.6562796456121867,-1.573819241538107,-0.10730238327413208,0.23741243505361165,0.3452932860440625,0.7803693998513231,-0.00769178788816428,-0.011598524915276043,0.23741243505361165,0.3452932860440625,0.7803693998513231,1.8267489698150345,-0.05867713437741828,0.2837505318857039,0.41316166893839673,0.8118442054152608,-8.930469243578184e-06,-1.8232892532201762e-05,0.3058895557526447,0.4443849894676193,0.7119243981829184,0.31002769105487665,0.45022112414597865,0.6932477987002376,0.5,-0.4,0.3
1.0600000000000007,0.0009162549977190793,-0.023580949721959066,-0.08839413465978274,-0.02620295319987903,-0.03556919290743177,-0.005725651221791264,-0.017843927413384586,0.0001240590626716959,0.9853117941935775,-0.025189226405653943,0.0,0.0,0.0,-0.11459812975821262,-0.1739973311718379,-0.019967655455559483,-0.030115513003352502,0.6469272982907874,-0.015621085850753847,-0.026925461733748858,0.02639160673508317,0.03747218169424476,0.6563598130458055,-1.5748957868538342,-0.1076620556312775,0.2372475743294723,0.34462426129328627,0.7806964968033272,-0.007808403616641036,-0.011655459187874799,0.2372475743294723,0.34462426129328627,0.7806964968033272,1.8261603917400284,-0.05885908879837894,0.2836190254189208,0.4124670347413434,0.8121773896549361,-9.017599086687416e-06,-1.6114042457496952e-05,0.3057836717723088,0.44368137525123785,0.7122604571631828,0.30992659632434394,0.4495158314213116,0.6935843950151914,0.5,-0.4,0.3
