tud-amr/localPlannerBench/plannerbenchmark/tests/local_cases/fabric_panda/default_result/res.csv
t,t_planning,a0,a1,a2,a3,a4,a5,a6,q0,q0dot,fk0_x,fk0_y,fk0_z,q1,q1dot,fk1_x,fk1_y,fk1_z,q2,q2dot,fk2_x,fk2_y,fk2_z,q3,q3dot,fk3_x,fk3_y,fk3_z,q4,q4dot,fk4_x,fk4_y,fk4_z,q5,q5dot,fk5_x,fk5_y,fk5_z,q6,q6dot,fk6_x,fk6_y,fk6_z,fk7_x,fk7_y,fk7_z,goal_0_0,goal_1_0,goal_2_0
0.0,0.0006334819991025142,0.014614355162122825,-0.6266607093784353,-0.0686908269841864,-0.5842809944856966,-0.08268695129943815,-0.5079767541391341,0.04405447986827749,0.9999972536631739,-0.0003337496523292628,0.0,0.0,0.0,-1.3122509583964285e-08,-1.6671926325688684e-06,-2.2391861696422846e-09,-3.4901685679765216e-09,0.649,-2.710505431213761e-23,-5.421010862427522e-20,0.044575128649194426,0.0694212303384212,0.649000001082607,-1.500004334873431,-0.00043575982994269527,0.24837950447726354,0.3868258222648678,0.758454792742621,-1.1037229188806496e-06,-0.00010974303213866481,0.24837950447726354,0.3868258222648678,0.758454792742621,1.8674986443759833,-0.00013418412369160977,0.29275161083231394,0.4559309185846523,0.790071273259108,-2.102878372372789e-06,-0.00020676187666269705,0.313522509865248,0.48827927275383587,0.6902156087432243,0.3174049208994413,0.49432569409387017,0.6715509985533394,0.5,-0.4,0.3
0.01,0.000530235000042012,-0.04212742946914952,-0.14974428155304859,-0.016410702375597608,-0.19906184942244876,-0.03471487283107956,-0.13952935104443415,-0.017807934978305115,0.9999957321846963,-0.00018853951957753312,0.0,0.0,0.0,-6.269373538574833e-05,-0.006268280494496553,-1.0704117892169403e-05,-1.6670522267055423e-05,0.6489999993789803,-6.869082698418642e-06,-0.000686908269841864,0.04456500916442714,0.0694041891570863,0.6490051716121461,-1.5000671112736552,-0.006278496795526618,0.24837205389246225,0.38680707983605167,0.75845992714091,-1.047467229955438e-05,-0.000936564506677077,0.24837205389246225,0.38680707983605167,0.75845992714091,1.8674464951281489,-0.005213928468112939,0.2927454296783529,0.45591332392432815,0.7900721170267071,2.1124401222561397e-07,0.00023385261620682135,0.3135145881589251,0.48825659579709335,0.6902144442089748,0.3173966738562283,0.4943020671751803,0.6715494586355669,0.5,-0.4,0.3
0.02,0.0005028320010751486,-0.019950505668595853,-0.16019556240212685,-0.017583051416329834,-0.18001864206829138,-0.028813246688974406,-0.13915772829775608,-0.0033445856184684624,0.9999905467788326,-0.0006073431344796871,0.0,0.0,0.0,-0.00014034546906924677,-0.007765709204286985,-2.3962309254420854e-05,-3.731831245661443e-05,0.6489999968878977,-1.537923563439703e-05,-0.0008510152935978402,0.04455270137495408,0.06938293032382586,0.6490115753890565,-1.5001497924341893,-0.00826891936187759,0.24836439069538435,0.38678349283341484,0.7584644338028455,-2.3328244146090664e-05,-0.001283702573898306,0.24836439069538435,0.38678349283341484,0.7584644338028455,1.867380372982261,-0.006609295036277432,0.2927396500704376,0.45589120023256025,0.7900707802135088,7.008620674702566e-07,5.562255280141572e-05,0.313506519072186,0.4882274983943413,0.6902103727786469,0.3173881768295222,0.49427166627504804,0.6715448760618503,0.5,-0.4,0.3
0.03,0.0005034850000811275,-0.01613807708756862,-0.16006191316898832,-0.017588786002895727,-0.17515310192546707,-0.027582202773178605,-0.13757164914687386,-0.0011119891571198105,0.9999829755464799,-0.0008083863862296968,0.0,0.0,0.0,-0.0002340191119321932,-0.009367675012738906,-3.99564344959321e-05,-6.222613249634152e-05,0.6489999913471387,-2.56476937120084e-05,-0.0010268458077611383,0.04453794489677163,0.06935722604163042,0.6490192979236905,-1.5002504907309078,-0.010068979888870662,0.24835571231033018,0.386754799291004,0.7584695066122127,-3.905894378769036e-05,-0.0015717568658909047,0.24835571231033018,0.386754799291004,0.7584695066122127,1.8673003435520386,-0.008000834831548563,0.29273335099016007,0.4558642483852198,0.7900687032965663,8.785680033788874e-07,2.229743025011343e-05,0.31349745371498666,0.4881919913927578,0.6902049507630699,0.3173785944112159,0.4942345601792135,0.671538828794192,0.5,-0.4,0.3
0.04,0.0005586150000453927,-0.014988941905783579,-0.15866924477525807,-0.0174577909833223,-0.1723112839533154,-0.0269833792774426,-0.1359312150563584,-0.0004789568728828852,0.9999737192360836,-0.0009699208627289447,0.0,0.0,0.0,-0.000343699382993225,-0.010968296154098353,-5.8684095209734806e-05,-9.138978322351418e-05,0.6489999813355762,-3.767503038990938e-05,-0.0012027336677900957,0.04452069331281583,0.0693271113954647,0.6490283365340948,-1.500368705165769,-0.011820321909736139,0.24834572141826777,0.3867211321226253,0.7584753260973461,-5.7546495060352414e-05,-0.001847511007774691,0.24834572141826777,0.3867211321226253,0.7584753260973461,1.8672065585991566,-0.009376553524355074,0.29272617843090865,0.4558326133491846,0.7900661190285163,9.496256819947741e-07,1.120911204754646e-05,0.313487039176107,0.4881502944779207,0.6901984358292961,0.31736757389483566,0.49419098253936666,0.6715315791565446,0.5,-0.4,0.3
0.05,0.0004933969976264052,-0.014458856711077217,-0.15707323603430207,-0.017306864599884952,-0.170077847112157,-0.026555140799631116,-0.13436500668931567,-0.00024123208703556384,0.9999629430154917,-0.0011197297647914267,0.0,0.0,0.0,-0.0004692467149513677,-0.012554989357729172,-8.012170543323425e-05,-0.0001247719958037773,0.6489999652095889,-5.1448146166142564e-05,-0.0013773115776233185,0.044500957592488934,0.0692926312252,0.6490386780621005,-1.5005041492201243,-0.013543211607607887,0.24833436378675475,0.38668255881216085,0.7584819345267507,-7.87314337821631e-05,-0.0021172707447383587,0.24833436378675475,0.38668255881216085,0.7584819345267507,1.8670991810237187,-0.010735875349650195,0.29271806181703974,0.4557963610067537,0.790063094976664,9.74450770584297e-07,6.438776651461128e-06,0.3134752103731865,0.48810250651384135,0.6901909079259494,0.3173550512248027,0.49414103838432505,0.6715232094117971,0.5,-0.4,0.3
0.060000000000000005,0.0004928740017930977,-0.014132807575532563,-0.15546579255328402,-0.017157260585472886,-0.16810578024890876,-0.026190665167918264,-0.132868043115225,-0.0001351699845138544,0.9999507116859031,-0.0012641678768188897,0.0,0.0,0.0,-0.0006105014374292681,-0.014125722206993352,-0.00010424227899207717,-0.00016233013468951732,0.648999941111505,-6.695194840236421e-05,-0.0015503802236221682,0.04447875890319582,0.06925383130353951,0.6490503074768514,-1.5006565987923037,-0.015243737256405189,0.2483216314949908,0.3866391353080664,0.7584893411690369,-0.00010257096792201762,-0.0023827396756674977,0.2483216314949908,0.3866391353080664,0.7584893411690369,1.8669783671698095,-0.01207953792987142,0.29270898484100194,0.4557555438844599,0.790059658374244,9.761661364225285e-07,4.044278181197618e-06,0.31346195625978196,0.48804870255390587,0.690182403303626,0.3173410163380586,0.49408480697810137,0.6715137574960339,0.5,-0.4,0.3
0.07,0.000535570001375163,-0.01388953485800077,-0.1538877028448627,-0.017013488894327335,-0.16627401202791448,-0.025855402471632455,-0.13142475162198108,-8.192797739844776e-05,0.9999370619276637,-0.0014053086129316233,0.0,0.0,0.0,-0.000767302782909204,-0.015680380551188002,-0.00013101867308470247,-0.00020402125212509208,0.648999906976942,-8.417147669713327e-05,-0.001721952829476897,0.04445412049997008,0.06921075640880406,0.6490632094500962,-1.5008258562425423,-0.01692451373624999,0.24830752931618333,0.38659091332537976,0.7584975445996259,-0.00012902860621600263,-0.0026445550762859583,0.24830752931618333,0.38659091332537976,0.7584975445996259,1.866844266629408,-0.013408232755818589,0.29269894628901594,0.4557102099672153,0.7900558229253213,9.651739167625231e-07,2.711169237511017e-06,0.31344728044583337,0.4879889492868151,0.6901729434231044,0.3173254737461731,0.49402235850543186,0.6715032463198863,0.5,-0.4,0.3
0.08,0.0004976560012437403,-0.013684924875941876,-0.15234605275085367,-0.016876315026351604,-0.1645301814135275,-0.025535568178163617,-0.1300228960294635,-5.280008673035274e-05,0.9999220198974474,-0.0015439894602955842,0.0,0.0,0.0,-0.0009394929327279269,-0.01721925798420764,-0.00016042427780161946,-0.00024980316463401805,0.6489998605417889,-0.00010309235388133502,-0.0018920877184201703,0.04442706584665611,0.06916345001433226,0.649077368696925,-1.5010117380566623,-0.018586944619792024,0.2482920664272848,0.38653794202130914,0.7585065392209386,-0.0001580707570554695,-0.002903009061317399,0.2482920664272848,0.38653794202130914,0.7585065392209386,1.8666970236780724,-0.014722496247049712,0.2926879503351923,0.4556604046153584,0.7900515967889612,9.467242108703174e-07,1.911879328540811e-06,0.31343119160697663,0.48792330899530706,0.6901625436224064,0.31730843296618866,0.4939537584121199,0.6714916925632373,0.5,-0.4,0.3
0.09,0.0005422139984148089,-0.013500377301545172,-0.15083979506129774,-0.016745596244759145,-0.16284809657634336,-0.025224805314101456,-0.12865399515511966,-3.578639211494559e-05,0.9999056070633475,-0.001680600701093507,0.0,0.0,0.0,-0.001126917717109157,-0.018742718921784245,-0.00019243313440547028,-0.0002996346397619649,0.6489997993489418,-0.0001237008625681719,-0.0020608508686836865,0.044397618098839624,0.06911195435996592,0.649092770040214,-1.5012140695502987,-0.02023190970955456,0.2482752537092363,0.386480268688707,0.7585163175884807,-0.0001896653641019335,-0.0031582559882412514,0.2482752537092363,0.386480268688707,0.7585163175884807,1.866536778466908,-0.016022742632147945,0.2926760033506001,0.4556061713053965,0.7900469854962954,9.237036301024508e-07,1.4054982778125696e-06,0.31341370037898936,0.48785184109624685,0.6901512163081152,0.31728990543102475,0.49387906909453666,0.6714791099178011,0.5,-0.4,0.3
0.09999999999999999,0.0004952730014338158,-0.013327152425062341,-0.14936619796026052,-0.016620999113405262,-0.16121320152273622,-0.02491985915386237,-0.1273122529116698,-2.532585261099962e-05,0.9998878425359802,-0.0018153446052960663,0.0,0.0,0.0,-0.001329426507611885,-0.020251117295416083,-0.00022701991575095495,-0.0003534753680515851,0.6489997207548166,-0.00014598393087948445,-0.002228306831131278,0.04436579996155168,0.06905631058611188,0.649109398408219,-1.5014326822303152,-0.021860026834010608,0.24825710271025345,0.3864179391356147,0.7585268713631572,-0.00022378127536346073,-0.0034103866741731466,0.24825710271025345,0.3864179391356147,0.7585268713631572,1.866363667860092,-0.017309301384139983,0.2926631126606066,0.4555475520171356,0.7900419931801547,8.978079882215108e-07,1.0709850948248736e-06,0.31339481816797377,0.4877746028947546,0.6901389723124794,0.31726990330953775,0.49379835072234696,0.6714655104680541,0.5,-0.4,0.3
0.10999999999999999,0.0004983270009688567,-0.013160786851275329,-0.1479225398602006,-0.016502189279048368,-0.1596167316308552,-0.02461892988260596,-0.12599365441132843,-1.862602068687564e-05,0.9998687441254371,-0.0019483352635268198,0.0,0.0,0.0,-0.0015468719428484608,-0.021744779713696264,-0.0002641598782593428,-0.0004112858906575963,0.6489996219356517,-0.00016992909910213785,-0.0023945168222653307,0.04433163366251622,0.06899655885617062,0.6491272388182003,-1.5016674123318663,-0.02347176823827251,0.24823762520242246,0.3863509979210047,0.7585381917432716,-0.0002603879196481502,-0.0036594594006913806,0.24823762520242246,0.3863509979210047,0.7585381917432716,1.8661778260102937,-0.018582444036665202,0.29264928600300966,0.45548458746823406,0.7900366231526101,8.700877119207351e-07,8.428602484436901e-07,0.3133745566417897,0.4876916500078848,0.6901258215367871,0.3172484390041785,0.4937116616975391,0.6714509053469137,0.5,-0.4,0.3
0.11999999999999998,0.0005008829975849949,-0.012998845703709683,-0.14650650098311968,-0.016388876035154328,-0.15805306190863444,-0.024320964047480575,-0.12469535738802967,-1.4191368009683864e-05,0.9998483288676023,-0.002079641788682388,0.0,0.0,0.0,-0.001779109655844381,-0.0232240055672379,-0.0003038288141940936,-0.0004730275273743793,0.6489994998936075,-0.000195524486252696,-0.002559538715055814,0.044295140961896864,0.06893273845485685,0.6491462763599788,-1.5019180999388382,-0.025067518509830466,0.24821683297760283,0.38627948851185073,0.758550269677021,-0.0002994551274661977,-0.003905514456692895,0.24821683297760283,0.38627948851185073,0.758550269677021,1.8659793847583035,-0.0198424019834837,0.292634531271951,0.45541731726865947,0.7900308782007844,8.412223706681808e-07,6.835485285901916e-07,0.31335292749595234,0.48760303662555493,0.6901117732839346,0.3172255249209993,0.49361905893525504,0.6714353050751776,0.5,-0.4,0.3
0.12999999999999998,0.0004978870019840542,-0.012839928420279346,-0.1451161897786611,-0.016280815988922816,-0.15651838702682985,-0.024025319275763082,-0.12341530079324214,-1.1177380195513549e-05,0.9998266133059541,-0.002209308778519557,0.0,0.0,0.0,-0.002025998041829409,-0.024689071047838552,-0.0003460030108601,-0.0005386623153915648,0.6489993514626675,-0.00022275876100676933,-0.002723427475407357,0.04425634317236834,0.06886488786465353,0.6491664961826258,-1.5021845884199168,-0.02664760597996397,0.24819473774893402,0.3862034533929365,0.7585630959743224,-0.00034095302613375533,-0.004148581599514645,0.24819473774893402,0.3862034533929365,0.7585630959743224,1.8657684739163447,-0.021089378199630145,0.2926188563897103,0.4553457800282457,0.7900247607498304,8.116679544483919e-07,5.704213992974855e-07,0.3133299423406867,0.48750881568241106,0.6900968364431574,0.3172011733595608,0.4935205980476756,0.6714187197503214,0.5,-0.4,0.3
0.13999999999999999,0.0004983590006304439,-0.012683193898927074,-0.1437500778087955,-0.016177805973275748,-0.1550100143248705,-0.02373159291820981,-0.1221519535306842,-9.08553141151826e-06,0.9998036136513898,-0.0023373667378786354,0.0,0.0,0.0,-0.002287398068962967,-0.0261402334312337,-0.0003906592171537387,-0.0006081529594441495,0.6489991733143522,-0.00025162111735973526,-0.0028862356352965853,0.044215261180604905,0.06879304482517985,0.6491878834845064,-1.502466724047349,-0.028212320922786797,0.24817135110224997,0.38612293414660986,0.7585766613692729,-0.0003848519757846948,-0.00438868416463335,0.24817135110224997,0.38612293414660986,0.7585766613692729,1.865545221473704,-0.022323555051337755,0.2926022692399898,0.45527001343488316,0.7900182729586732,7.817401475965505e-07,4.892919371387444e-07,0.3133056126453188,0.4874090389771656,0.69008101959921,0.317175396459399,0.4934163334710502,0.6714011591581888,0.5,-0.4,0.3
0.15,0.0004965070002072025,-0.012528119495240797,-0.14240692330032673,-0.01607967514225312,-0.15352596222692083,-0.023439528814945654,-0.1209041511364567,-7.610220131646076e-06,0.9997793458771714,-0.0024638377114848866,0.0,0.0,0.0,-0.002563173125424495,-0.02757773470845107,-0.000437774616342006,-0.0006814627916112412,0.6489989619632459,-0.00028210125431002864,-0.0030480136950293427,0.04417191546729526,0.06871724637979709,0.6492104235061338,-1.5027643557273045,-0.029761926683175854,0.24814668447234603,0.3860379715126432,0.7585909565570425,-0.00043112252925457873,-0.004625841462368875,0.24814668447234603,0.3860379715126432,0.7585909565570425,1.8653097537495733,-0.023545099594486186,0.2925847776324803,0.45519005431345416,0.7900114167796588,7.516635384102412e-07,4.3095734974206434e-07,0.3132799497112863,0.4873037572591754,0.6900643311005726,0.31714820617461453,0.49330631855744106,0.6713826328427995,0.5,-0.4,0.3
0.16,0.0004936589975841343,-0.012374371450247487,-0.14108570544689775,-0.015986277655699856,-0.15206472062730347,-0.02314896377588807,-0.1196709877614408,-6.557921440365603e-06,0.9997538257774556,-0.0025887384881596973,0.0,0.0,0.0,-0.002853188895197796,-0.0290018044525784,-0.0004873268037609559,-0.0007585557387245258,0.6489987137723469,-0.0003141893587745477,-0.003208810446451874,0.044126326124964026,0.0686375289127965,0.6492341015252125,-1.5030773348015105,-0.031296666788296096,0.2481207491321631,0.3859486054344997,0.7586059722168934,-0.00047973540656027336,-0.004860070242498884,0.2481207491321631,0.3859486054344997,0.7586059722168934,1.8650621955093423,-0.024754167240388675,0.2925663892841188,0.45510593867168203,0.7900041939978187,7.216018128163422e-07,3.8927093065285745e-07,0.3132529646600705,0.4871930202936565,0.6900467791042761,0.31711961426305213,0.49319060564355827,0.6713631501522122,0.5,-0.4,0.3
0.17,0.000500572998134885,-0.01222173224077533,-0.1397855726873855,-0.015897487025826947,-0.15062510205274027,-0.022859795488408732,-0.11845174339079995,-5.802568214296897e-06,0.9997270690044532,-0.0027120825004573693,0.0,0.0,0.0,-0.0031573132559670376,-0.030412662028498055,-0.0005392937683095304,-0.0008393962956369748,0.648998424958243,-0.0003478760910046359,-0.0033686732230088726,0.044078512873629044,0.06855392817962327,0.6492589028533307,-1.5034055148961198,-0.032816769662691196,0.24809355618887607,0.38585487509606864,0.7586216990273725,-0.0005306614786461578,-0.005091385623793357,0.24809355618887607,0.38585487509606864,0.7586216990273725,1.8648026700550902,-0.025950904341661443,0.2925471118095669,0.4550177017368338,0.7899966062581136,6.916768925956316e-07,3.6002192085275025e-07,0.31322466842913477,0.4870768769124687,0.6900283716067879,0.3170896322832596,0.49306924610417613,0.6713427202700915,0.5,-0.4,0.3
0.18000000000000002,0.0004989940025552642,-0.012070058253976647,-0.13850580336490764,-0.015813191907021955,-0.1492061459699734,-0.022571962535919615,-0.11724583389610932,-5.259971863818438e-06,0.9996990910925515,-0.0028338809932160836,0.0,0.0,0.0,-0.003475416193945782,-0.03181051828537808,-0.000593653876854543,-0.0009239495029755015,0.648998091596121,-0.0003831525719373071,-0.0035276480932671423,0.04402849507456199,0.06846647933191077,0.6492848128338798,-1.5037487518028902,-0.034322451854835664,0.24806511658375507,0.3857568189515579,0.7586381276769303,-0.0005838717571999998,-0.005319801702683125,0.24806511658375507,0.3857568189515579,0.7586381276769303,1.8645312992975305,-0.027135450050422807,0.2925269527169435,0.4549253779858635,0.7899886550853054,6.619814149192016e-07,3.402612657483345e-07,0.3131950717722565,0.4869553750548441,0.6900091164662634,0.31705827159567945,0.49294229039484044,0.6713213522384051,0.5,-0.4,0.3
0.19000000000000003,0.0005637970025418326,-0.011919254027348461,-0.13724577628190127,-0.01573329274627315,-0.14780705535211824,-0.02228543152360822,-0.1160527761467312,-4.872661510472803e-06,0.9996699074742231,-0.0029541437663852307,0.0,0.0,0.0,-0.0038073697317014456,-0.033195576855738505,-0.0006503858608744524,-0.0010121809283312544,0.6489977096246116,-0.00042001037206068105,-0.0036857800123373616,0.043976291742461225,0.06837521693860582,0.6493118168408836,-1.5041069033830805,-0.03581392030666944,0.2480354410941077,0.3856544747503751,0.7586552488717803,-0.0006393373885471886,-0.005545331962143368,0.2480354410941077,0.3856544747503751,0.7586552488717803,1.864248203814387,-0.028307937677086236,0.29250591940662035,0.454829001170751,0.7899803418991452,6.325870757262878e-07,3.27883009259948e-07,0.3131641852622954,0.48682856180092887,0.6899890214192564,0.3170255433661599,0.4928097880869434,0.6712990549744174,0.5,-0.4,0.3
0.20000000000000004,0.000496756998472847,-0.011769256382796925,-0.13600494855226636,-0.015657699467468658,-0.1464271535978381,-0.02200018857445586,-0.11487216323796523,-4.600629875054375e-06,0.999639533490601,-0.0030728796589090807,0.0,0.0,0.0,-0.004153047866028808,-0.03456803516006041,-0.0007094688048387963,-0.001104056650104742,0.6489972748504776,-0.00045844150145868206,-0.0038431129398000933,0.04392192155631762,0.06828017500411299,0.6493399002784955,-1.5044798294877146,-0.03729137398873974,0.24800454033636116,0.38554787955826697,0.7586730533420448,-0.0006970296503397025,-0.00576798955184897,0.24800454033636116,0.38554787955826697,0.7586730533420448,1.8639535028986827,-0.02946849570030683,0.29248401917182537,0.45472860434024787,0.7899716680264891,6.035503335525019e-07,3.213572127205161e-07,0.3131320192953019,0.48669648340006466,0.6899680940937649,0.31699145857071803,0.49267178789722665,0.6712758372839099,0.5,-0.4,0.3
0.21000000000000005,0.0005358939997677226,-0.011620024105284399,-0.13478283903397176,-0.01558632955310367,-0.14506585453271348,-0.021716233545948996,-0.1137036466251331,-4.415534634094177e-06,0.9996079843985098,-0.0031900968731146304,0.0,0.0,0.0,-0.004512326513656604,-0.03592808518991142,-0.0007708821359448613,-0.0011995432434171861,0.6489967829531491,-0.0004984384008034296,-0.0039996899344747795,0.043865402869212235,0.0681813869841368,0.6493690485809906,-1.504867391889896,-0.03875500510449746,0.24797242476975856,0.38543706977561343,0.7586915318468029,-0.0007569199501918917,-0.005987787483298741,0.24797242476975856,0.38543706977561343,0.7586915318468029,1.8636473145994188,-0.030617248529233868,0.2924612592003307,0.454624219858885,0.7899626347113324,5.749163869973503e-07,3.1955536393141887e-07,0.3130985840953508,0.48655918529513664,0.6899463420197774,0.316956028000962,0.4925283377131276,0.6712517078718232,0.5,-0.4,0.3
0.22000000000000006,0.0004956670018145815,-0.011471531194587214,-0.13357901578651576,-0.015519106629926248,-0.14372264112687916,-0.021433576025938428,-0.11254692305465497,-4.296978711034039e-06,0.9995752753750885,-0.003305803195434236,0.0,0.0,0.0,-0.004885083463129829,-0.03727591412539455,-0.0008346056149285126,-0.0012986077676479986,0.6489962294891085,-0.0005399939331034887,-0.004155553230005816,0.0438067537172374,0.06807888579972284,0.6493992472131148,-1.5052694542261693,-0.040204999994584566,0.24793910470035807,0.38532208115352656,0.7587106751784121,-0.0008189798256860956,-0.006204738767110623,0.24793910470035807,0.38532208115352656,0.7587106751784121,1.863329755756416,-0.03175431708711726,0.29243764657678123,0.4545158794238594,0.7899532431233922,5.467219990097676e-07,3.2163374573401793e-07,0.3130638897197334,0.4864167121439289,0.6899237726380699,0.3169192622698179,0.49237948461496994,0.6712266753510938,0.5,-0.4,0.3
0.23000000000000007,0.0004953630013915244,-0.01132376249038955,-0.13239308645334064,-0.01545595952976065,-0.14239705015044124,-0.021152232516468653,-0.11140172487539268,-4.230073092887791e-06,0.9995414215207487,-0.0034200061493378036,0.0,0.0,0.0,-0.005271198331613069,-0.038611704827169836,-0.0009006193277348589,-0.0014012177552653227,0.6489956098961327,-0.00058310137606654,-0.004310744296305079,0.04374599182769477,0.06797270384987068,0.6494304816706968,-1.505685881944802,-0.04164153982828161,0.24790459028515632,0.38520294880822553,0.758730474166338,-0.0008831809453486358,-0.006418856510278113,0.24790459028515632,0.38520294880822553,0.758730474166338,1.8630009420306386,-0.032879819264233535,0.2924131882853945,0.454403614080248,0.7899434943656507,5.189975353791151e-07,3.2695398376192397e-07,0.31302794606429596,0.48626910783815747,0.6899003933077474,0.31688117181736164,0.49222527489571066,0.6712007482501954,0.5,-0.4,0.3
0.24000000000000007,0.0005955969973001629,-0.011176710397608335,-0.13122469100665413,-0.015396821275131603,-0.14108866083624116,-0.020872224388651023,-0.11026781276389891,-4.203809019134777e-06,0.9995064378609599,-0.0035327131043013326,0.0,0.0,0.0,-0.005670552525652799,-0.03993563623229881,-0.0009689036778843823,-0.0015073412016943638,0.6489949194973943,-0.000627754414982568,-0.004465303891602685,0.04368313462669463,0.06786287302300156,0.6494627374814455,-1.506116542259446,-0.0430648011414982,0.24786889153624062,0.38507970723403884,0.7587509196806344,-0.0009494951103152856,-0.00663015398526688,0.24786889153624062,0.38507970723403884,0.7587509196806344,1.8626609879309524,-0.033993870273930984,0.29238789121287767,0.4542874542348831,0.7899333894811283,4.917684579605832e-07,3.35027953757977e-07,0.31299076286880867,0.4861164155206721,0.689876211312858,0.31684176691664623,0.49206575407876346,0.6711739350197234,0.5,-0.4,0.3
0.25000000000000006,0.0004996380012016743,-0.011030372864922589,-0.13007349600721219,-0.01534162856751422,-0.1397970864895548,-0.020593576416239753,-0.10914497020153341,-4.209951637680151e-06,0.9994703393472044,-0.003643931351952606,0.0,0.0,0.0,-0.006083029205173013,-0.041247883677536755,-0.0010394393794105048,-0.0016169465560310797,0.6489941535054272,-0.000673947136026108,-0.004619272104354001,0.04361819924625066,0.06774942470749333,0.6494960002058766,-1.5065613041070443,-0.044474956261384896,0.24783201832489898,0.3849523903152985,0.7587720026351689,-0.0010178942564819026,-0.006838644678660046,0.24783201832489898,0.3849523903152985,0.7587720026351689,1.8623100068380596,-0.03509658293592915,0.29236176215144416,0.4541674296691394,0.7899229294590775,4.6505643421023876e-07,3.454789631440053e-07,0.3129523497222808,0.4859586776011945,0.6898512338683146,0.31680105767944655,0.4919009669342889,0.6711462440382655,0.5,-0.4,0.3
0.26000000000000006,0.0005005839993827976,-0.010884751903139422,-0.1289391901524486,-0.015290321311523414,-0.1385219681330443,-0.020316315688430023,-0.10803299923375653,-4.242275900667938e-06,0.9994331408573316,-0.0037536681618703625,0.0,0.0,0.0,-0.006508513250130023,-0.04254861916522196,-0.0011122074502704269,-0.0017300027124490442,0.6489933070259598,-0.0007216740199263991,-0.004772688390029143,0.04355120253094863,0.06763238980144855,0.6495302554383284,-1.5070200381091527,-0.0458721736470358,0.24779398038566003,0.38482103133732637,0.7587937139906522,-0.0010883504569940705,-0.00704434232514068,0.24779398038566003,0.38482103133732637,0.7587937139906522,1.8619481110261462,-0.03618806790439265,0.29233480780187143,0.4540435695508245,0.7899121152407175,4.388801717294148e-07,3.580139886780534e-07,0.31291271606818405,0.4857959357708639,0.689825468125272,0.31675905406188737,0.49173095749423573,0.6711176836177121,0.5,-0.4,0.3
0.2700000000000001,0.0005001610006729607,-0.010739852377846172,-0.12782148083310574,-0.015242842099839338,-0.13726296961014894,-0.020040470787697467,-0.10693171718051658,-4.296031058659606e-06,0.9993948571954749,-0.0038619308225241677,0.0,0.0,0.0,-0.006946891229381115,-0.043838011584646015,-0.0011871892061530694,-0.0018464790021815447,0.6489923750616197,-0.0007709299359578423,-0.004925591603144377,0.04348216104425211,0.06751179872182415,0.6495654888080282,-1.5074926165360245,-0.04725661816663766,0.24775478732024947,0.38468566299666546,0.7588160447575123,-0.0011608359249671743,-0.007247260930602476,0.24775478732024947,0.38468566299666546,0.7588160447575123,1.8615754116826821,-0.037268433853598515,0.29230703477656517,0.4539159024453153,0.7899009477246091,4.132560535645734e-07,3.7240355307052025e-07,0.3128718712095696,0.4856282310157978,0.6897989211760844,0.31671576586994427,0.49155576906635523,0.6710882620081359,0.5,-0.4,0.3
0.2800000000000001,0.0004949549984303303,-0.010595681257311688,-0.12672009134005124,-0.015199135931603734,-0.136019773823415,-0.019766071182690914,-0.10584095406098415,-4.36756025737955e-06,0.9993555030916536,-0.00396872667012322,0.0,0.0,0.0,-0.0073980513714227685,-0.04511622689899034,-0.0012643662546251665,-0.001966345185987811,0.6489913525155138,-0.0008217101361992711,-0.005078020024142771,0.04341109107449187,0.06738768141302184,0.649601685980191,-1.5079789132729848,-0.048628451325651065,0.24771444860144406,0.38454631741067813,0.7588389859986395,-0.0012353230163547244,-0.007447414787038554,0.24771444860144406,0.38454631741067813,0.7588389859986395,1.8611920189266862,-0.03833778763070739,0.2922784496025924,0.45378445632606035,0.7898894277717269,3.881986275142384e-07,3.8846695597522657e-07,0.3128298243140533,0.4854556036298321,0.6897716000589168,0.31667120276479366,0.4913754442473595,0.6710579874023168,0.5,-0.4,0.3
0.2900000000000001,0.00064401499912492,-0.010452247169343357,-0.12563475858333173,-0.015159150083139832,-0.13479207981426056,-0.019493146775556525,-0.1047605505589963,-4.45402688390131e-06,0.999315093201143,-0.004074063109892391,0.0,0.0,0.0,-0.007861883536719004,-0.04638342830433054,-0.001343720489567643,-0.002089571447029503,0.6489902341946878,-0.000874010250033859,-0.005230011383458809,0.043338008640580045,0.06726006735501931,0.6496388326571261,-1.5084788037887062,-0.04998783145737304,0.2476729735768243,0.3844030261266078,0.7588625288320239,-0.0013117842329044285,-0.007644818481359933,0.2476729735768243,0.3844030261266078,0.7588625288320239,1.8607980418257275,-0.03939623438278268,0.29224905872467144,0.4536492585845369,0.7898775562102857,3.637209867340701e-07,4.0606130618549285e-07,0.312786584418669,0.48527809322656795,0.6897435117620789,0.31662537426801435,0.4911900249353588,0.6710268679399842,0.5,-0.4,0.3
0.3000000000000001,0.0004997110008844174,-0.010309559699044062,-0.12456523141785203,-0.015122833627748127,-0.13357960036624783,-0.019221727526496563,-0.10369035639975321,-4.5532154081851155e-06,0.9992736421036719,-0.004177947632881742,0.0,0.0,0.0,-0.008338279191391742,-0.04763977636583101,-0.001425234085863161,-0.002216128384097188,0.6489890148134674,-0.0009278262788767618,-0.005381602884290207,0.04326292949748362,0.06712898557110628,0.6496769145793394,-1.5089921651051008,-0.05133491388429603,0.24763037147243244,0.3842558201301728,0.7588866644332897,-0.001390192225156902,-0.007839486899687761,0.24763037147243244,0.3842558201301728,0.7588866644332897,1.8603935884118574,-0.04044387766346455,0.2922188685081184,0.45351033603972946,0.7898653338403444,3.3983506851356995e-07,4.250732884829994e-07,0.3127421604345987,0.48509573875081546,0.6897146632281164,0.3165782897666511,0.49099955234167264,0.670994911711812,0.5,-0.4,0.3
0.3100000000000001,0.0004962829989381135,-0.010167629294718393,-0.12351126908345667,-0.015090137486541089,-0.13238206019341936,-0.018951843202148738,-0.10263022904758323,-4.663384907948193e-06,0.9992311643024996,-0.004280387825798327,0.0,0.0,0.0,-0.008827131382105799,-0.048885429137196755,-0.0015088894943060744,-0.002345987005142721,0.6489876889966849,-0.0009831545910824395,-0.0055328312205676885,0.0431858691414794,0.06699446463527471,0.6497159175266191,-1.5095188757685845,-0.05266985105550078,0.2475866513963223,0.38410472985375965,0.7589113840381477,-0.00147051979544922,-0.008031435227889967,0.2475866513963223,0.38410472985375965,0.7589113840381477,1.8599787656966387,-0.04148081952340895,0.29218788524172523,0.4533677149471948,0.7898527614382291,3.1655189171540947e-07,4.4541292469439664e-07,0.3126965611517602,0.48490857848952534,0.689685061357708,0.3165299585181219,0.4908040670021105,0.6709621267632181,0.5,-0.4,0.3
0.3200000000000001,0.0004967759996361565,-0.010026466960632495,-0.12247264003746894,-0.015061014219367355,-0.1311991944231703,-0.018683523162454932,-0.10158003265026766,-4.783160178525793e-06,0.9991876742234064,-0.004381391379811639,0.0,0.0,0.0,-0.009328334711992408,-0.050120542264525315,-0.0015946694367079436,-0.0024791187210763507,0.6489862512827962,-0.0010399919170367687,-0.005683732595433099,0.04310684281521612,0.06685653267930666,0.6497558273190965,-1.5100588158225334,-0.053992792665930794,0.24754182234201572,0.3839497851842615,0.7589366789447641,-0.0015527399008985641,-0.008220678949603428,0.24754182234201572,0.3839497851842615,0.7589366789447641,1.8595536796853993,-0.042507160587705824,0.29215611514058115,0.4532214210077568,0.789839839760786,2.9388174637660537e-07,4.6700879454721067e-07,0.3126497952432725,0.48471665008226456,0.6896547130133848,0.31648038965499053,0.49060360878778003,0.6709285210979827,0.5,-0.4,0.3
0.3300000000000001,0.0004937910016451497,-0.009886084051589639,-0.12144912097733507,-0.015035417875396279,-0.13003074736904674,-0.01841679619861057,-0.10053963717790676,-4.911450072039876e-06,0.9991431862136191,-0.004480966096320355,0.0,0.0,0.0,-0.009841785317494573,-0.05134526907848442,-0.0016825569011785118,-0.002615495339797909,0.6489846961268881,-0.0010983353444130347,-0.005834342737626772,0.04302586551260084,0.06671521739959244,0.6497966298182748,-1.5106118667807862,-0.055303885760496746,0.24749589319186624,0.3837910154705998,0.7589625405160481,-0.0016368256563444776,-0.008407233842124058,0.24749589319186624,0.3837910154705998,0.7589625405160481,1.8591184353908208,-0.04352300012273903,0.292123564348833,0.4530714793758677,0.7898265695494795,2.7183434681002005e-07,4.898043472478797e-07,0.3126018712697969,0.48451999053128814,0.6896236250230925,0.3164295921896032,0.49039821691547886,0.6708941026817118,0.5,-0.4,0.3
0.34000000000000014,0.0005250549984339159,-0.009746492108373049,-0.12044049602739304,-0.015013303873122955,-0.1288764715240459,-0.018151690408607257,-0.09950891771529063,-5.047385690321831e-06,0.9990977145406932,-0.00457911989065188,0.0,0.0,0.0,-0.010367380846036469,-0.05255976067671593,-0.0017725351375652487,-0.00275508906043638,0.6489830179035816,-0.001158182313576841,-0.0059846969163807355,0.04294295198352509,0.06657054606370767,0.6498383109280201,-1.5111779116020583,-0.05660327482590931,0.24744887272033456,0.3836284495309652,0.7589889601818705,-0.0017227503372335621,-0.008591115970676577,0.24744887272033456,0.3836284495309652,0.7589889601818705,1.8586731368459402,-0.044528436094434486,0.29209023894238456,0.4529179146676708,0.7898129515343555,2.5041895619908505e-07,5.137550287224318e-07,0.31255279768375954,0.4843186362112516,0.6895918041836178,0.316377575018596,0.4901879299577153,0.6708588794451621,0.5,-0.4,0.3
0.35000000000000014,0.0004945699984091334,-0.009607702813047604,-0.11944655602515797,-0.014994628959367012,-0.12773612674518442,-0.017888233108531368,-0.09848775387669179,-5.190273215312669e-06,0.9990512733913689,-0.004675860794109675,0.0,0.0,0.0,-0.010905020434435654,-0.053764165998107426,-0.0018645876530373748,-0.0028978724677765967,0.6489812109098334,-0.001219530613127962,-0.006134829955111965,0.042858116738442475,0.06642254551677214,0.649880856595514,-1.5117568346651773,-0.05789110187244545,0.24740076959717253,0.3834621156598019,0.7590159294412125,-0.0018104873824342103,-0.008772341681439758,0.24740076959717253,0.3834621156598019,0.7590159294412125,1.8582178871166442,-0.04552356521943144,0.2920561449315292,0.45276075096878793,0.7897989864378769,2.2964448878194591e-07,5.388260263068309e-07,0.31250258283345334,0.4841126228785972,0.6895592572638929,0.3163243469272709,0.4899727858523933,0.6708228592874472,0.5,-0.4,0.3
0.36000000000000015,0.0004933189993607812,-0.009469727894260926,-0.11846709794289734,-0.014979351130425582,-0.12660947956135749,-0.017626450760260717,-0.09747602931846289,-5.339557620064488e-06,0.9990038768704135,-0.004771196955557438,0.0,0.0,0.0,-0.011454604687986583,-0.05495863188992658,-0.0019586982078019627,-0.0030438185268543503,0.648979269367638,-0.0012823783755750193,-0.006284776244705635,0.04277137405281037,0.06627124218761071,0.64992425281216,-1.5123485217450563,-0.059167506507561016,0.24735159239052817,0.3832920416345619,0.759043439864244,-0.0019000103969725674,-0.008950927593685041,0.24735159239052817,0.3832920416345619,0.759043439864244,1.857752788313707,-0.046508483010401495,0.2920212882635259,0.4526000118418585,0.7897846749786368,2.0951959414495616e-07,5.649904838683079e-07,0.31245123496703125,0.48390198568064585,0.6895259910081807,0.31626991659385467,0.4897528219121949,0.6707860500791235,0.5,-0.4,0.3
0.37000000000000016,0.000501787999382941,-0.009332579048147736,-0.11750192440189311,-0.014967429542329616,-0.12549630258948796,-0.01736636891634384,-0.09647363132995523,-5.494794551807413e-06,0.9989555389994519,-0.004865136642061138,0.0,0.0,0.0,-0.01201603566015767,-0.056143303169171245,-0.002054850810942043,-0.003192900577704826,0.6489771874266332,-0.001346724073135117,-0.00643456975600989,0.042682737971404414,0.06611666209473241,0.6499684856144469,-1.5129528599893298,-0.060432626002582805,0.24730134956997013,0.38311825472224337,0.759071483094337,-0.0019912931546824655,-0.009126890591191887,0.24730134956997013,0.38311825472224337,0.759071483094337,1.8572779416044276,-0.04748328381649266,0.291985674825115,0.4524357203338428,0.7897700178749606,1.9005272732808824e-07,5.922280797449747e-07,0.3123987622363912,0.48368675916441484,0.6894920121391579,0.3162142925936391,0.48952807483368066,0.670748459665176,0.5,-0.4,0.3
0.38000000000000017,0.0004968409994035028,-0.00919626786268641,-0.1165508432612733,-0.014958824423919569,-0.12439637403721815,-0.017108012178582363,-0.09548045048881909,-5.655628389268165e-06,0.9989062737157964,-0.004957688238737924,0.0,0.0,0.0,-0.012589216832853266,-0.0573183226790622,-0.002153029716368215,-0.003345092330251721,0.6489749591666127,-0.0014125665136494486,-0.006584244051433186,0.04259222231251443,0.06595883085214155,0.6500135410847624,-1.5135697378956008,-0.06168659535356312,0.24725004950943874,0.38294078168573265,0.7591000508500156,-0.0020843096007638075,-0.009300247813111902,0.24725004950943874,0.38294078168573265,0.7591000508500156,1.856793447223898,-0.048448060859681924,0.29194931044498007,0.45226789898310854,0.7897550158484017,1.7125220753861267e-07,6.205238852908385e-07,0.31234517270096074,0.48346697728518356,0.6894573273608994,0.3161574834030132,0.4892985807061322,0.6707100958679083,0.5,-0.4,0.3
0.3900000000000002,0.0005751770004280843,-0.009060805772298161,-0.11561366725805766,-0.01495349701232531,-0.12330947728259223,-0.016851404168597248,-0.09449638036789132,-5.821775002204911e-06,0.9988560948712841,-0.0050488602478462475,0.0,0.0,0.0,-0.013174053097199533,-0.05848383134142418,-0.002253219418876502,-0.003500367859326404,0.6489725785999472,-0.0014799048366061743,-0.006733832295672382,0.042499840672027375,0.06579777367499337,0.6500594053521627,-1.5141990452892462,-0.0629295473371622,0.2471977004901188,0.38275964878996505,0.759129134926844,-0.0021790338542452725,-0.009471016644418729,0.2471977004901188,0.38275964878996505,0.759129134926844,1.8562994044859484,-0.049402906267680256,0.2919122008961476,0.4520965698263183,0.7897396696271357,1.5312626764843573e-07,6.498674421520981e-07,0.3122904743313755,0.4832426734148294,0.6894219433617701,0.3160994974033807,0.4890643750201586,0.6706709664897391,0.5,-0.4,0.3
0.4000000000000002,0.0004981060010322835,-0.008926204184917526,-0.11469021362004661,-0.01495140966695576,-0.12223540055148696,-0.016596567522988034,-0.0935213172866694,-5.993008117454484e-06,0.9988050162311257,-0.005138661287415969,0.0,0.0,0.0,-0.013770450734818083,-0.0596399682054673,-0.002355404650306083,-0.003658701599807768,0.6489700396739173,-0.0015487385092641296,-0.006883367265795635,0.042405606427403854,0.06563351538510434,0.6501060645930913,-1.5148406733017408,-0.06416161256232836,0.24714431070324044,0.382574881807914,0.759158727199255,-0.0022754402103484037,-0.009639214706063624,0.24714431070324044,0.382574881807914,0.759158727199255,1.8557959117937888,-0.05034791110390587,0.2918743518983316,0.4519217544051244,0.7897239799492604,1.3568309613963266e-07,6.802520111284099e-07,0.31223467501305996,0.4830138803499443,0.689385866817234,0.3160403428849718,0.4888254926760789,0.6706310793159207,0.5,-0.4,0.3
0.4100000000000002,0.0005324500016286038,-0.008792474305524454,-0.11378030386142168,-0.014952525662653197,-0.12117393657093067,-0.016343523867026366,-0.09255516009573117,-6.169148460696496e-06,0.9987530514727585,-0.0052271000911220614,0.0,0.0,0.0,-0.014378317399548726,-0.0607868704926972,-0.0024595703757901073,-0.0038200683418726867,0.6489673362729603,-0.001619067322888783,-0.007032881362465193,0.042309532741556403,0.06546608041632683,0.6501535050320502,-1.515494514349461,-0.06538291951875272,0.2470898882528188,0.3823865060264199,0.7591888196223169,-0.002373503142752766,-0.009804859845083256,0.2470898882528188,0.3823865060264199,0.7591888196223169,1.8552830666503781,-0.05128316539497231,0.29183576912023235,0.4517434737726846,0.7897079475659988,1.1893087255591461e-07,7.116739554266505e-07,0.31217778254972206,0.4827806303197463,0.6893491043925761,0.31598002805056125,0.48858196799209425,0.67059044211717,0.5,-0.4,0.3
0.4200000000000002,0.0004972370006726123,-0.008659627080314626,-0.11288376355780827,-0.01495680911260884,-0.12012488228962104,-0.016092293804757532,-0.09159780999095024,-6.350055084949573e-06,0.9987002141847132,-0.00531418550643582,0.0,0.0,0.0,-0.01499756209960093,-0.061924673639781484,-0.0025657017900958586,-0.0039844432263519336,0.6489644622208331,-0.001690891389079701,-0.007182406619091725,0.042211632566631685,0.0652954928197953,0.6502017129422226,-1.5161604621129445,-0.06659359462185946,0.24703444115832732,0.3821945462518656,0.7592194042334415,-0.0024731973057592555,-0.0099679701244431,0.24703444115832732,0.3821945462518656,0.7592194042334415,1.8547609656685378,-0.0522087581560188,0.2917964581817839,0.4515617485000042,0.7896915732448135,1.0287779807487972e-07,7.441322339759443e-07,0.3121198046667579,0.4825429549937938,0.6893116627455464,0.31591856101908955,0.48833383471225916,0.6705490626522255,0.5,-0.4,0.3
0.4300000000000002,0.0004974570001650136,-0.008527673386541854,-0.11200042204090699,-0.014964225135811013,-0.11908803868794426,-0.0158428969362068,-0.09064917035415337,-6.535618382948743e-06,0.9986465178655023,-0.005399926492197468,0.0,0.0,0.0,-0.015628095180111472,-0.06305351133916662,-0.0026737843140501854,-0.00415180174018575,0.6489614112826947,-0.0017642111361818777,-0.007331974710217813,0.04211191864769977,0.065121776269051,0.6502506746460497,-1.5168384115165672,-0.06779376225500157,0.24697797735730004,0.3819990268157125,0.7592504731540419,-0.0025744975363506755,-0.010128563812782206,0.24697797735730004,0.3819990268157125,0.7592504731540419,1.854229704580831,-0.05312477741418275,0.29175642465634305,0.4513765986821206,0.7896748577724398,8.75321218326717e-08,7.77627979737204e-07,0.3120607490145597,0.48230088548952355,0.6892735485289354,0.31585594982917964,0.4880811260142718,0.6705069486703364,0.5,-0.4,0.3
0.4400000000000002,0.0004969359979440924,-0.008396623804736936,-0.11113011230912107,-0.014974739596684099,-0.11806321051797863,-0.015595351838407656,-0.0897091466107704,-6.725754417410159e-06,0.9985919759225189,-0.0054843321180500755,0.0,0.0,0.0,-0.01626982830607766,-0.06417351557664094,-0.0027838035910447796,-0.004322119711971143,0.6489581771671085,-0.001839027305797635,-0.007481616961575923,0.042010403526358535,0.06494495406505267,0.6503003765157571,-1.5175282587086263,-0.06898354480975707,0.24692050470788252,0.38179997157989876,0.7592820185911274,-0.002677378856151541,-0.010286659374330947,0.24692050470788252,0.38179997157989876,0.7592820185911274,1.8536893782492272,-0.054031310230479065,0.29171567407284094,0.4511880439441304,0.7896578019578299,7.290216329312541e-08,8.121641454144832e-07,0.31200062317175054,0.48205445237961014,0.6892347683930705,0.3157922024425748,0.487823874517083,0.6704641079136763,0.5,-0.4,0.3
0.45000000000000023,0.0004925499997625593,-0.008266488846463034,-0.11027267074974989,-0.014988319317052232,-0.11705020617341899,-0.015349676093119408,-0.08877764610822636,-6.920400329895193e-06,0.9985366016709565,-0.0055674115616522095,0.0,0.0,0.0,-0.016922674445657343,-0.06528481666800424,-0.002895745483619541,-0.004495373307598761,0.6489547535279687,-0.0019153409493730647,-0.007631364357542764,0.04190709954425207,0.06476504914107686,0.6503508049738373,-1.5182299010417977,-0.07016306272362782,0.24686203099131396,0.3815974039421095,0.7593140328388506,-0.0027818164732847945,-0.010442275458637119,0.24686203099131396,0.3815974039421095,0.7593140328388506,1.853140080674556,-0.05492844272025371,0.2916742119178776,0.4509961034470707,0.7896404066350206,5.8996331908648695e-08,8.477452078459527e-07,0.31193943464832674,0.4818036856991626,0.6891953289882494,0.3157273267474761,0.4875621122883387,0.6704205481196941,0.5,-0.4,0.3
0.46000000000000024,0.0005132330006745178,-0.008137278761984015,-0.10942793707438925,-0.015004931844401062,-0.1160488374788392,-0.015105886275965666,-0.08785457800618829,-7.119510560219976e-06,0.9984804083327411,-0.00564917410810077,0.0,0.0,0.0,-0.017586547853807775,-0.06638754329295893,-0.0030095960701190844,-0.004671539025972092,0.6489511339663518,-0.001993153424880198,-0.007781247550713286,0.04180201884651136,0.0645820840675148,0.6504019464934847,-1.5189432370539606,-0.07133243451643673,0.24680256391436411,0.38139134684091963,0.7593465082799963,-0.0028877857841286833,-0.010595430890571054,0.24680256391436411,0.38139134684091963,0.7593465082799963,1.8525819050057704,-0.05581626007242249,0.291632043637785,0.45080079589365274,0.7896226726659195,4.582314378039222e-08,8.843769144012067e-07,0.31187719088873495,0.4815486149527553,0.6891552369671019,0.3156613305618097,0.487295870851653,0.6703762770233976,0.5,-0.4,0.3
0.47000000000000025,0.0004970569971192162,-0.008009003628723754,-0.10859575413670619,-0.015024545529037911,-0.11505891956418057,-0.014863997975360754,-0.08693985318012248,-7.323053758412401e-06,0.9984234090354809,-0.005729629147487385,0.0,0.0,0.0,-0.01826136405625698,-0.0674818225283555,-0.003125341641421032,-0.004850593694807479,0.6489473120322948,-0.0020724663935717674,-0.007931296869157297,0.041695173385115955,0.06439608105656915,0.6504537875989849,-1.5196681664493608,-0.07249177682462025,0.2467421111117078,0.38118182276082246,0.7593794373874221,-0.0029952623749722423,-0.010746144660220107,0.2467421111117078,0.38118182276082246,0.7593794373874221,1.8520149435490343,-0.056694846567609904,0.29158917464063794,0.45060213953386524,0.7896046009430175,3.339123636824786e-08,9.220660689875093e-07,0.3118138992748649,0.4812892691213141,0.6891144989868905,0.31559422163640266,0.48702518119373445,0.670331302359577,0.5,-0.4,0.3
0.48000000000000026,0.0004932090014335699,-0.007881673229827045,-0.10777596786431443,-0.015047129364461703,-0.11408027070058802,-0.014624025791854123,-0.08603338413460498,-7.531010217566954e-06,0.9983656168114353,-0.005808786173295534,0.0,0.0,0.0,-0.018947039833789325,-0.06856777987961543,-0.0032429686977327554,-0.005032514466510245,0.6489432812265041,-0.002153281816816243,-0.008081542324447676,0.041586574922181416,0.06420706196685495,0.6505063148660618,-1.5204045900801093,-0.07364120443426563,0.2466806801482495,0.3809688537371413,0.7594128127254468,-0.0031042220235716106,-0.0108944359129735,0.2466806801482495,0.3809688537371413,0.7594128127254468,1.8514392877766286,-0.05756428559532432,0.29154561029822734,0.4504001521704418,0.7895861923920265,2.170938108748505e-08,9.608203462071335e-07,0.3117495671289714,0.48102567666885,0.6890731217117472,0.3155260076580824,0.4867500737713562,0.670285631864966,0.5,-0.4,0.3
0.49000000000000027,0.0004919300008623395,-0.007755297284403176,-0.10696842703916365,-0.01507265319916433,-0.11311271223281849,-0.014385983371828934,-0.08513508492766164,-7.743369750156301e-06,0.9983070445965048,-0.005886654779610475,0.0,0.0,0.0,-0.019643493206838593,-0.0696455393114732,-0.00336246394545518,-0.0052172788141253154,0.648939035001994,-0.002235601952997166,-0.008232013618092292,0.04147623503317263,0.06401504830790834,0.6505595149221792,-1.5211524099279896,-0.07478083031250825,0.2466182785213874,0.38075246136083507,0.7594466269511935,-0.0032146407006068472,-0.011040323939599413,0.2466182785213874,0.38075246136083507,0.7594466269511935,1.8508550283357026,-0.05842465967026465,0.2915013559479821,0.45019485116420577,0.7895674479744494,1.0786494371959375e-08,1.0006481314982565e-06,0.3116842017165149,0.48075786554905836,0.6890311118148553,0.31545669625268924,0.4864705785181897,0.6702392732803517,0.5,-0.4,0.3
0.5000000000000002,0.000494964999234071,-0.007629885380298684,-0.10617298322359492,-0.015101087645359973,-0.11215606845276815,-0.014149883414363615,-0.0842448711013366,-7.960129897949632e-06,0.9982477052292356,-0.005963244660579131,0.0,0.0,0.0,-0.020350643420366438,-0.0707152232765216,-0.003483814294109672,-0.005404864527356592,0.6489345667656596,-0.002319429354498005,-0.008382740150083936,0.04136416511004908,0.06382006124460717,0.6506133744468009,-1.5219115290865777,-0.07591076563825269,0.2465549136632342,0.38053266678319675,0.7594808728158791,-0.0033264945710430207,-0.011183828166660553,0.2465549136632342,0.38053266678319675,0.7594808728158791,1.850262255056865,-0.059276050447871376,0.2914564168948598,0.4499862534392902,0.7895483686900757,6.316468796785292e-10,1.041558379471369e-06,0.3116178102489407,0.48048586321177766,0.6889884759805665,0.31538629498802123,0.48618672485149494,0.6701922343526208,0.5,-0.4,0.3
0.5100000000000002,0.0004939530008414295,-0.007505446775939367,-0.10538949075497417,-0.015132403849872925,-0.1112101664503341,-0.013915737667101774,-0.08336265961768125,-8.181294442030377e-06,0.9981876114498323,-0.0060385656092350635,0.0,0.0,0.0,-0.02106841092901888,-0.07177695274301796,-0.0036070068533265607,-0.005595249708653209,0.648929869879785,-0.0024047668647633816,-0.008533751026537535,0.041250376364343984,0.06362212160150682,0.6506678801716088,-1.5226818517436527,-0.07703111983163105,0.24649059294279713,0.3803094907204481,0.7595155431660578,-0.0034397599953959446,-0.011324968146996805,0.24649059294279713,0.3803094907204481,0.7595155431660578,1.84966105696263,-0.06011853873918153,0.2914107984132076,0.4497743754882373,0.7895289555794087,-8.745928540484894e-09,1.0835604909650853e-06,0.31155039988639927,0.48020969660931445,0.688945220906461,0.31531481137671546,0.4858985416786747,0.6701445228367512,0.5,-0.4,0.3
0.5200000000000002,0.0004963370010955259,-0.007381990642693688,-0.10461780654595743,-0.015166573721877727,-0.11027483607580957,-0.013683556963643234,-0.08248836880316673,-8.40687214989426e-06,0.9981267758991956,-0.00611262751435597,0.0,0.0,0.0,-0.021796717382560466,-0.07283084722263682,-0.0037320289298949467,-0.005788412769362796,0.6489249376634867,-0.002491617615413744,-0.008685075065036265,0.04113487983017471,0.06342124986709252,0.6507230188806811,-1.5234632831638868,-0.07814200058197121,0.24642532366809614,0.3800829534582376,0.7595506309448214,-0.0035544135309019645,-0.011463763550165727,0.24642532366809614,0.3800829534582376,0.7595506309448214,1.849051522275717,-0.060952204525042505,0.29136450574856965,0.4495592333769849,0.7895092097260308,-1.7336829814482325e-08,1.1266642046736317e-06,0.3114819777403848,0.4799293922026443,0.6889013533053577,0.3152422528790418,0.48560605740370216,0.6700961464977553,0.5,-0.4,0.3
0.5300000000000002,0.000497061999340076,-0.007259525960454261,-0.10385779005186546,-0.015203569797635416,-0.10934990982755777,-0.013453351227959737,-0.08162191829619125,-8.636875693446413e-06,0.9980652111179743,-0.006185440359680824,0.0,0.0,0.0,-0.022535485611565882,-0.07387702479622482,-0.003858868024870135,-0.00598433242594643,0.6489197633940973,-0.002579985023436298,-0.008836740802255043,0.04101768636719115,0.06321746619795283,0.6507787774106291,-1.524255729671817,-0.07924351387538832,0.24635911308824454,0.37985307485604514,0.7595861291929497,-0.0036704319325960443,-0.011600234153258865,0.24635911308824454,0.37985307485604514,0.7595861291929497,1.848433738427216,-0.061777126969771244,0.2913175441194677,0.44934084274974395,0.7894891322588993,-2.5131480046261534e-08,1.170879497820916e-06,0.3114125508763188,0.4796449759674905,0.6888568799072641,0.3151686269056368,0.4853092999334244,0.6700471131125659,0.5,-0.4,0.3
0.5400000000000003,0.0006040180014679208,-0.007138061593499695,-0.10310930315907008,-0.015243365298103745,-0.10843522278845907,-0.013225129497363639,-0.08076322900032984,-8.871320740036368e-06,0.9980029295456314,-0.006257014222126196,0.0,0.0,0.0,-0.023284639613365878,-0.0749156021392296,-0.003987511830737969,-0.006182987696254577,0.6489143403084889,-0.002669872788438608,-0.008988776500231397,0.04089880666346153,0.06301079042287579,0.6508351426506986,-1.525059098635073,-0.08033576402125521,0.246291968395481,0.3796198743514916,0.7596220310500235,-0.003787792154298207,-0.011734399831760386,0.246291968395481,0.3796198743514916,0.7596220310500235,1.8478077920646239,-0.06259338443428654,0.29126991871914176,0.44911921883376504,0.7894687243545855,-3.212012276960775e-08,1.2162164986619442e-06,0.31134212631606806,0.47935647340028104,0.688811807461281,0.31509394082016645,0.48500829668374196,0.6699974304718783,0.5,-0.4,0.3
0.5500000000000003,0.0004920239989587571,-0.007017606249435704,-0.10237221013362585,-0.015285934063040449,-0.10753061254024221,-0.012998899933683208,-0.07991222304031403,-9.11022516492094e-06,0.9979399435195232,-0.0063273592707324845,0.0,0.0,0.0,-0.024044104538236362,-0.07594669454601229,-0.004117948228633927,-0.006384357895861149,0.6489086616043376,-0.002761284889970732,-0.009141210153212434,0.040778251238299146,0.06280124204687079,0.6508921015428305,-1.5258732984478705,-0.08141885367803724,0.24622389672716263,0.3793833709645603,0.7596583297554869,-0.003906471349510821,-0.011866280550636127,0.24622389672716263,0.3793833709645603,0.7596583297554869,1.8471737690597503,-0.06340105448877414,0.29122163471726226,0.44889437644400093,0.7894479872394446,-3.8292818215913356e-08,1.2626854060740489e-06,0.3112707110404065,0.47906390952398914,0.688766142737448,0.31501820194192875,0.4847030745856692,0.6699471063819346,0.5,-0.4,0.3
0.5600000000000003,0.0004948169989802409,-0.0068981683843017255,-0.10164637759692208,-0.015331250437301228,-0.10663591907005598,-0.012774669830830754,-0.07906882372100443,-9.353608375727093e-06,0.9978762652739902,-0.006396485765210978,0.0,0.0,0.0,-0.024813806675825445,-0.07697041595364659,-0.004250165285615882,-0.006588422634454406,0.6489027204413327,-0.002854225584909161,-0.009294069493842838,0.040656030445030425,0.06258884025511777,0.6509496410816858,-1.5266982385147503,-0.08249288387827186,0.24615490516771527,0.3791435833017295,0.7596950186496724,-0.004026446872227725,-0.011995896355533643,0.24615490516771527,0.3791435833017295,0.7596950186496724,1.8465317545165012,-0.06420021392491063,0.29117269726160794,0.4486663299876653,0.7894269221917305,-4.363944037331647e-08,1.3102964166499323e-06,0.311198311991419,0.47876730889385943,0.6887198925285435,0.31494141754839305,0.4843936600912789,0.6698961486662656,0.5,-0.4,0.3
0.5700000000000003,0.0004943659987475257,-0.00677975652628493,-0.10093167431741401,-0.015379289571650037,-0.10575098477819234,-0.01255244565977423,-0.07823295549251624,-9.601490727520671e-06,0.9978119069394688,-0.006464404053543881,0.0,0.0,0.0,-0.025593673441816088,-0.07798687896547418,-0.004384151251989863,-0.006795161812284174,0.64889650994233,-0.0029486994048913227,-0.009447381998215851,0.040532154473704216,0.062373603916845925,0.6510077483146361,-1.5275338292345608,-0.08355795405261476,0.24608500075053547,0.3789005295600246,0.7597320911747842,-0.004147696277655848,-0.012123267364057501,0.24608500075053547,0.3789005295600246,0.7597320911747842,1.8458818327785496,-0.06499093876767638,0.29112311147970343,0.44843509346869787,0.7894055305436515,-4.8149674730610115e-08,1.359059657781575e-06,0.3111249360748385,0.4784666956030307,0.6886730636518366,0.31486359487766746,0.4840800791795415,0.6698445651673852,0.5,-0.4,0.3
0.5800000000000003,0.0004921500003547408,-0.006662378873005706,-0.10022797133433503,-0.015430027000308447,-0.10487565432177459,-0.012332233047477242,-0.07740454391286378,-9.853892998526015e-06,0.9977468805416057,-0.006531124572763534,0.0,0.0,0.0,-0.026383633364803427,-0.07899619487257716,-0.004519894558685111,-0.00700455561665988,0.6488900231944521,-0.0030447111538306464,-0.009601174893932352,0.040406633353749215,0.06215555158914541,0.6510664103417171,-1.5283799819846766,-0.0846141620539625,0.2460141904598661,0.3786542275309834,0.759769540875839,-0.004270197322854391,-0.01224841375749625,0.2460141904598661,0.3786542275309834,0.759769540875839,1.845224087436884,-0.06577330428682084,0.29107288248044094,0.4482006804921254,0.7893838136833662,-5.181301714262389e-08,1.4089851237651663e-06,0.31105059016234443,0.4781620932880421,0.6886256629507873,0.31478474113092453,0.4837623573620452,0.6697923637484361,0.5,-0.4,0.3
0.5900000000000003,0.0004965740008628927,-0.0065460435791922095,-0.0995351417711221,-0.015483438910941227,-0.1040097746210602,-0.012114036819287188,-0.07658351561739779,-1.011083595249602e-05,0.9976811980003893,-0.006596657845792312,0.0,0.0,0.0,-0.02718361607339928,-0.07999847367648806,-0.004657383814680295,-0.007216584518502831,0.6488832532501368,-0.0031422659054699993,-0.009755475163935436,0.04027947695657415,0.06193470152071132,0.6511256143155499,-1.5292366091054514,-0.08566160418001526,0.24594248123262102,0.3784046946045444,0.7598073614015687,-0.004393927967288491,-0.012371355772335038,0.24594248123262102,0.3784046946045444,0.7598073614015687,1.8445586013372528,-0.06654738500795121,0.29102201535565775,0.447963104268335,0.7893617730569247,-5.461877292844434e-08,1.4600826194789696e-06,0.31097528109379247,0.47785352513424295,0.6885776972967022,0.31470486347475224,0.4834405196886183,0.6697395522947914,0.5,-0.4,0.3
0.6000000000000003,0.00049504100024933,-0.00643075872470706,-0.09885306079891043,-0.015539502088177504,-0.10315319479485008,-0.011897861011088029,-0.0757697982886743,-1.0372339930252802e-05,0.9976148711292945,-0.006661014481066414,0.0,0.0,0.0,-0.027993552283545057,-0.08099382411003371,-0.0047966078044774626,-0.007431229268947817,0.6488761931281343,-0.003241369001000447,-0.009910309553044849,0.04015069499811657,0.061711071655524155,0.6511853474412294,-1.530103623884887,-0.08670037519590101,0.2458698799601762,0.3781519477728573,0.7598455465052866,-0.004518866373302533,-0.012492113692195455,0.2458698799601762,0.3781519477728573,0.7598455465052866,1.8438854565874965,-0.06731325472331741,0.290970515181689,0.4477223776172536,0.7893394101701572,-5.655605697138153e-08,1.5123617044046633e-06,0.3108990156793972,0.47754101388109865,0.6885291735903467,0.3146239690434548,0.4831145907528454,0.6696861387156158,0.5,-0.4,0.3
0.6100000000000003,0.0004939999998896383,-0.006316532297369379,-0.098181605592919,-0.015598193884824516,-0.10230576610350628,-0.011683708883876334,-0.0749633206280364,-1.06384244970625e-05,0.9975479116344319,-0.0067242051718759,0.0,0.0,0.0,-0.02881337378602942,-0.08198235365781409,-0.00493755548562296,-0.007648470895993119,0.6488688358144556,-0.0033420260467397177,-0.010065704573926623,0.040020297041341114,0.0614846796364676,0.6512455969761791,-1.530980940543531,-0.08773056835615552,0.24579639349012677,0.37789600363401554,0.7598840900457113,-0.0046449909065138925,-0.012610707839895222,0.24579639349012677,0.37789600363401554,0.7598840900457113,1.8432047345647764,-0.06807098650229419,0.2909183870208948,0.44747851297243696,0.7893167265905033,-5.761379440866731e-08,1.5658316413714665e-06,0.3108218007018663,0.4772245818273952,0.6884800987635068,0.31454206494130027,0.48278459469748086,0.6696321309453767,0.5,-0.4,0.3
0.6200000000000003,0.0004994890005036723,-0.006203372073000361,-0.09752065534030974,-0.015659492079690585,-0.10146734186837514,-0.011471582927961271,-0.0741640123283101,-1.090910812620215e-05,0.9974803311137052,-0.00678624069552518,0.0,0.0,0.0,-0.02964301343420646,-0.08296416857624493,-0.0050802159862743885,-0.007868290701197853,0.6488611742632738,-0.003444242911867467,-0.010221686512774868,0.03988829249868816,0.06125554280888541,0.651306350229977,-1.531868474219583,-0.08875227542613295,0.2457220286280115,0.37763687839571486,0.7599229859877563,-0.0047722801361285904,-0.012727158569653696,0.2457220286280115,0.37763687839571486,0.7599229859877563,1.8425165159227022,-0.06882065270157875,0.29086563592316306,0.44723152238507147,0.7892937239487924,-5.778072191180303e-08,1.6205013478208172e-06,0.3107436429184891,0.4769042508363468,0.6884304797805095,0.31445915824471826,0.48245055521976277,0.6695775369453165,0.5,-0.4,0.3
0.6300000000000003,0.000498286997753894,-0.0060912857758063516,-0.09687009112283163,-0.015723375016137936,-0.1006377774589099,-0.011261484893168652,-0.07337180404952726,-1.118440791696223e-05,0.9974121410559826,-0.006847131911301488,0.0,0.0,0.0,-0.030482405131915025,-0.08393937391367923,-0.005224578602813413,-0.008090670256426917,0.6488532013977772,-0.003548025726203186,-0.010378281433571774,0.03975469063447175,0.061023678224078295,0.6513675945641493,-1.5327661409542088,-0.08976558670261192,0.24564679213899343,0.37737458787884126,0.7599622284032838,-0.004900712835179129,-0.012841486259338713,0.24564679213899343,0.37737458787884126,0.7599622284032838,1.8418208805983594,-0.06956232497511446,0.29081226692737544,0.4469814175278928,0.789270403940972,-5.704538943900027e-08,1.6763793497832913e-06,0.31066454906316654,0.47658004234061263,0.6883803236397017,0.3143752560044359,0.48211249557663505,0.6695223647048848,0.5,-0.4,0.3
0.6400000000000003,0.0004996810021111742,-0.005980281097581343,-0.0962297958629188,-0.01578982161504952,-0.09981693025149652,-0.011053415805941824,-0.07258662739521782,-1.1464339332650848e-05,0.9973433528402808,-0.006906889760007352,0.0,0.0,0.0,-0.03133148382158764,-0.0849080735293546,-0.005370632797502303,-0.008315591400640518,0.6488449101109783,-0.0036533808780405182,-0.010535515183733152,0.039619500567230355,0.060789102642743426,0.6514293173919358,-1.5336738576770599,-0.09077059103427229,0.24557069074950877,0.37710914752098956,0.7600018114718239,-0.0050302679806878935,-0.012953711303016972,0.24557069074950877,0.37710914752098956,0.7600018114718239,1.8411179078192386,-0.0702960742837724,0.2907582850628484,0.4467282096990227,0.7892467683297882,-5.539616271860103e-08,1.7334737368555897e-06,0.31058452584839563,0.47625197734722113,0.688329637374887,0.3142903652475633,0.48177043858987506,0.6694666222431297,0.5,-0.4,0.3
0.6500000000000004,0.0004965810003341176,-0.005870365704987751,-0.09559965428019068,-0.015858811359305947,-0.09900465958506666,-0.010847375984921956,-0.07180841489072193,-1.174891596606052e-05,0.9972739777349474,-0.006965525263696082,0.0,0.0,0.0,-0.03219018547254332,-0.08587037011180182,-0.005518368196183113,-0.008543036236726757,0.6488362932664791,-0.003760315012039356,-0.010693413399883648,0.03948273127203227,0.06055183253835768,0.651491506178027,-1.5345915421919925,-0.09176737584176123,0.24549373114888723,0.37684057237990987,0.7600417294812584,-0.005160924753757718,-0.013063854103674763,0.24549373114888723,0.37684057237990987,0.7600417294812584,1.8404076761100747,-0.07102197090479487,0.2907036953507544,0.44647190982572166,0.7892228189464133,-5.28212262994019e-08,1.7917921195983316e-06,0.3105035799672139,0.47592007644240086,0.68827842805672,0.3142044929796362,0.48142440665112596,0.6694103176100483,0.5,-0.4,0.3
0.6600000000000004,0.0004975980009476189,-0.0057615470319615295,-0.09497955294792726,-0.01593032406380815,-0.09820082666837604,-0.010643365036472521,-0.07103709996008445,-1.2038149325755273e-05,0.9972040268968513,-0.0070230495254768755,0.0,0.0,0.0,-0.033058447069460366,-0.08682636519681838,-0.005667774586018548,-0.008772987128376306,0.6488273436991918,-0.00386883502717412,-0.010852001513476707,0.03934439158273671,0.060311884100506336,0.6515541484382715,-1.5355191131629826,-0.09275602713731607,0.24541591999094436,0.37656887713688747,0.7600819768284666,-0.005292662539591073,-0.013171935066094466,0.24541591999094436,0.37656887713688747,0.7600819768284666,1.839690263299588,-0.07174008444102169,0.2906485028055231,0.4462125284680624,0.7891985576920227,-4.9308587130225756e-08,1.8513415886833168e-06,0.31042171809510366,0.4755843597963232,0.6882267027940557,0.31411764618661403,0.48107442172683923,0.6693534588878937,0.5,-0.4,0.3
0.6700000000000004,0.0004969129986420739,-0.0056538325247118965,-0.09436938014070961,-0.016004340115881116,-0.09740529459558767,-0.010441381892411325,-0.07027261690708364,-1.2332048643940885e-05,0.9971335113705803,-0.0070794737272630685,0.0,0.0,0.0,-0.03393620660103433,-0.08777615918600683,-0.005818841913275269,-0.009005426697000612,0.6488180542160205,-0.003978948074715266,-0.01101130475411479,0.03920449019420789,0.060069273238157354,0.6516172317393597,-1.5364564901002307,-0.09373662954346115,0.24533726389553343,0.3762940761000582,0.760122548019946,-0.005425460927437135,-0.013277974589685153,0.24533726389553343,0.3762940761000582,0.760122548019946,1.8389657465271394,-0.07245048382988419,0.2905927124362073,0.4459500758225282,0.7891739865393322,-4.484607848866307e-08,1.9121286761198536e-06,0.31033894689184227,0.4752448471677613,0.6881744687352674,0.31402983183682076,0.48072050536313193,0.6692960541924516,0.5,-0.4,0.3
0.6800000000000004,0.0004935439974360634,-0.005547229696921126,-0.09376902577315394,-0.016080840514327732,-0.09661792831923277,-0.010241424829752474,-0.06951490089661527,-1.2630620689996781e-05,0.9970624420876519,-0.007134809129909841,0.0,0.0,0.0,-0.03482340304880628,-0.08871985136378906,-0.005971560281146804,-0.009240337818689721,0.6488084175964997,-0.004090661556267993,-0.0111713481552736,0.03906303566448658,0.059824015582883784,0.651680743698478,-1.5374035933464507,-0.0947092663118595,0.24525776945006786,0.37601618320766006,0.7601634376723958,-0.005559299710471189,-0.013381993061693215,0.24525776945006786,0.37601618320766006,0.7601634376723958,1.8382342022492988,-0.07315323735221073,0.2905363292478267,0.4456845617255358,0.789149107534084,-3.9421364635963503e-08,1.974159316379606e-06,0.310255273003311,0.4749015579086657,0.6881217330695211,0.3139410568828408,0.4803626786905591,0.6692381116742757,0.5,-0.4,0.3
0.6900000000000004,0.0004952710005454719,-0.0054417456435416345,-0.09317838158996805,-0.016159806352378403,-0.0958385944948823,-0.010043491438883667,-0.06876388793318378,-1.293386960241208e-05,0.9969908298657154,-0.00718906707392149,0.0,0.0,0.0,-0.03571997637615502,-0.0896575399138081,-0.006125919947614999,-0.009477703621208,0.648798426593395,-0.0042039831218721605,-0.011332156560416877,0.03892003641692232,0.05957612649203619,0.651744671982939,-1.5383603440633498,-0.09567401934189522,0.2451774432110264,0.37573521203121835,0.7602046405132659,-0.005694158885608081,-0.013484010850609511,0.2451774432110264,0.37573521203121835,0.7602046405132659,1.8374957062463197,-0.07384841264084502,0.290479358242703,0.44541599565688045,0.7891239227964832,-3.30219459947786e-08,2.037438809564078e-06,0.3101707030632768,0.4745545109686508,0.6880685030280068,0.3138513282633841,0.4800009624287948,0.6691796395198804,0.5,-0.4,0.3
0.7000000000000004,0.0005051240004831925,-0.005337387903671706,-0.09259734073167958,-0.016241219693696227,-0.09506716164804419,-0.009847578719958477,-0.06801951484778646,-1.3241796741964012e-05,0.9969186854077775,-0.007242258975352466,0.0,0.0,0.0,-0.0366258675174724,-0.09058932193723089,-0.006281911323352813,-0.009717507481032986,0.6487880739332657,-0.004318920668111571,-0.011493754623940661,0.0387755007422573,0.059325621051863085,0.651809004309789,-1.5393266642182737,-0.09663096919770472,0.24509629170540298,0.3754511757786775,0.7602461513812873,-0.005830018653245635,-0.01358404829925543,0.24509629170540298,0.3754511757786775,0.7602461513812873,1.8367503336285402,-0.07453607668904728,0.2904218044217425,0.4451443867431187,0.7890984345226062,-2.5635164465235864e-08,2.1019717871030574e-06,0.3100852436951035,0.4742037248994152,0.6880147858851492,0.3137606529050775,0.4796353768912463,0.6691206459529142,0.5,-0.4,0.3
0.7100000000000004,0.000506133001181297,-0.005234163688020078,-0.09202579806147493,-0.016325062760055006,-0.094303499954984,-0.009653683022612589,-0.06728171927763338,-1.3554400532230407e-05,0.9968460193014155,-0.007294396330175244,0.0,0.0,0.0,-0.037541018367478134,-0.09151529346670703,-0.006439524969661123,-0.009959733020425646,0.6487773523169877,-0.0044354823363203415,-0.011656166820877624,0.0386294368006785,0.0590725140805861,0.6518737284453872,-1.5403024765710405,-0.09758019512687324,0.2450143214321598,0.375164087297463,0.7602879652269556,-0.005966859416949897,-0.013682125718840792,0.2450143214321598,0.375164087297463,0.7602879652269556,1.835998158842694,-0.07521629585876806,0.29036367278573255,0.44486974376086796,0.7890726449857435,-1.7248209832754735e-08,2.1677621750574097e-06,0.3099989015134597,0.47384921785906553,0.6879605889597594,0.3136690377242498,0.47926594198956973,0.6690611392352764,0.5,-0.4,0.3
0.7200000000000004,0.0005076980014564469,-0.005132080252011763,-0.09146364995866563,-0.016411318306821646,-0.09354748129506663,-0.009461800096010733,-0.06655043965125551,-1.3871676337930553e-05,0.9967728420179917,-0.007345490711104296,0.0,0.0,0.0,-0.038465371770706955,-0.09243554948359728,-0.006598751596444913,-0.010204364104540878,0.6487662544202442,-0.004553676510805124,-0.011819417448478173,0.03848185262382585,0.058816820131425425,0.6519388322049651,-1.5412877046609437,-0.09852177507694486,0.2449315388636386,0.3748739590774877,0.7603300771129944,-0.006104661783073468,-0.013778263382409967,0.2449315388636386,0.3748739590774877,0.7603300771129944,1.835239255678141,-0.07588913588871386,0.2903049683366014,0.44459207514004223,0.7890465565377124,-7.84812609488164e-09,2.234813162828135e-06,0.30991168312597267,0.47349100761637,0.6879059196161619,0.3135764896286589,0.47889267723811346,0.6690011276682085,0.5,-0.4,0.3
0.7300000000000004,0.0005057910020695999,-0.005031144794370293,-0.09091079433710869,-0.016499969498892597,-0.09279897919168556,-0.009271925092108294,-0.06582561517232488,-1.419361633251369e-05,0.9966991639118805,-0.00739555376801309,0.0,0.0,0.0,-0.03939887151114745,-0.0933501839331357,-0.006759582060224963,-0.010451384838572806,0.6487547728939773,-0.004673511817120582,-0.01198353063154639,0.03833275611676265,0.05855855349558024,0.6520043034521624,-1.5422822727939198,-0.09945578571245299,0.24484795044694718,0.37458080325410265,0.7603724822147874,-0.0062434065603138664,-0.013872481518795277,0.24484795044694718,0.37458080325410265,0.7603724822147874,1.834473697273026,-0.07655466190226715,0.29024569607865847,0.44431138896702105,0.7890201716101257,2.5781814921727223e-09,2.3031271698887093e-06,0.3098235951348462,0.4731291115549379,0.6878507852652853,0.31348301551918034,0.4785156017582869,0.6689406195933525,0.5,-0.4,0.3
0.7400000000000004,0.000507890999870142,-0.004931364436712438,-0.0903671306230337,-0.01659099988391982,-0.09205786877392719,-0.009084052577708793,-0.06510718580446873,-1.4520209381931884e-05,0.9966249952196942,-0.007444597227384464,0.0,0.0,0.0,-0.04034146230203428,-0.0942592897397763,-0.006922007362185335,-0.01070077956493528,0.6487429003648071,-0.004794997120385944,-0.012148530326535317,0.03818215505990781,0.05829772820516368,0.65207013009854,-1.5432861060298815,-0.10038230243136181,0.2447635626053175,0.37428463161098896,0.7604151758207833,-0.006383074759211407,-0.013964800306600748,0.2447635626053175,0.37428463161098896,0.7604151758207833,1.8337015561203485,-0.07721293841524257,0.2901858610198128,0.4440276929877514,0.7889934927156196,1.4043938984776089e-08,2.3727058148254737e-06,0.3097346441384398,0.4727635466773234,0.6877951933657175,0.3133886222914542,0.47813473428285086,0.6688796233937732,0.5,-0.4,0.3
0.7500000000000004,0.0005055969995737541,-0.004832746484526883,-0.08983255960764402,-0.016684393637921,-0.09132402680549045,-0.008898176572139746,-0.06439509225811169,-1.4851440934400094e-05,0.996550346059516,-0.007492632891540135,0.0,0.0,0.0,-0.0412930897757917,-0.09516295882231787,-0.007086018646256028,-0.010952532860477112,0.6487306294354178,-0.004918141523639689,-0.012314440325374515,0.038030057110929966,0.05803435803609339,0.6521363001030739,-1.5442991301702151,-0.1013013993811246,0.24467838173943457,0.37398545558299817,0.7604581533328746,-0.006523647591587995,-0.014055239868307364,0.24467838173943457,0.37398545558299817,0.7604581533328746,1.8329229040739652,-0.07786402934349144,0.2901254681727673,0.44374099461078753,0.7889665224490436,2.6562495884323826e-08,2.4435498851387016e-06,0.3096448367328079,0.4723943296090596,0.6877391514247297,0.3132933168374884,0.47775009316013844,0.6688181474949515,0.5,-0.4,0.3
0.7600000000000005,0.0005050250001659151,-0.004735298201502695,-0.08930698352216082,-0.016780135332472815,-0.09059733160096084,-0.008714290538416714,-0.06368927597594948,-1.5187292914707172e-05,0.9964752264301233,-0.0075396726404440605,0.0,0.0,0.0,-0.04225370047411358,-0.09606128210755437,-0.00725160719722827,-0.011206629533727972,0.6487179526849097,-0.005042954366257219,-0.012481284261753725,0.03787646980660929,0.05776845651094062,0.6522028014716253,-1.5453212717454374,-0.10221314947503049,0.24459241422875505,0.37368328625893243,0.7605014102667418,-0.00666510646993106,-0.014143820264757198,0.24459241422875505,0.37368328625893243,0.7605014102667418,1.8321378123545138,-0.07850799801037496,0.2900645225562105,0.4434513009102612,0.7889392634886031,4.0147316719460736e-08,2.5156593077141354e-06,0.30955417951322134,0.47202147660261395,0.6876826669992576,0.31319710604724205,0.4773616963581939,0.6687562003657351,0.5,-0.4,0.3
0.7700000000000005,0.0005129300006956328,-0.004639026558283105,-0.0887903061295312,-0.016878209655927706,-0.08987766293282395,-0.00853238737204745,-0.06298967911735193,-1.5527743630319342e-05,0.9963996462102076,-0.007585728431293597,0.0,0.0,0.0,-0.04322324183818736,-0.09695434954467622,-0.007418764438903532,-0.011463054622177,0.6487048626691219,-0.005169445222408011,-0.012649085615078453,0.037721400564663644,0.0575000369017366,0.652269622256394,-1.5463524580030095,-0.10311762440771599,0.24450566643280172,0.37337813438427264,0.7605449422521746,-0.006807433006720952,-0.01423056148954701,0.24450566643280172,0.37337813438427264,0.7605449422521746,1.8313463515552666,-0.07914490715409071,0.2900030291959902,0.44315861862879025,0.7889117185969668,5.481197233009179e-08,2.5890331211732287e-06,0.3094626790756553,0.4716450035412748,0.6876257476968535,0.31309999681017214,0.476969561468842,0.6686937905192621,0.5,-0.4,0.3
0.7800000000000005,0.0005100470007164404,-0.004543939031961382,-0.08828243232470279,-0.016978602226661338,-0.0891649021923161,-0.008352459490823319,-0.06229624454937732,-1.5872767683797526e-05,0.9963236151576139,-0.007630812295593172,0.0,0.0,0.0,-0.04420166219907149,-0.09784225012058854,-0.007587481932277457,-0.011721793389586793,0.6486913519209216,-0.005297623899524381,-0.01281786771163773,0.03756485668553444,0.057229112232736724,0.6523367505553493,-1.5473926168952972,-0.1040148946697468,0.24441814469241058,0.3730700103638596,0.7605887450333728,-0.006950609013700529,-0.014315483463310201,0.24441814469241058,0.3730700103638596,0.7605887450333728,1.8305485916479096,-0.07977481893484262,0.28994099312624094,0.4428629541803334,0.7888838906223433,7.057013082059664e-08,2.6636694491653443e-06,0.309370342018216,0.4712649259429782,0.6875684011766133,0.313001996016716,0.4765737057116969,0.66863092651386,0.5,-0.4,0.3
0.7900000000000005,0.0005072870008007158,-0.004450042565566678,-0.08778326859525087,-0.017081298512726897,-0.08845893211238232,-0.008174498746240919,-0.06160891582929606,-1.622233588195227e-05,0.9962471429085599,-0.007674936344106562,0.0,0.0,0.0,-0.04518891076818562,-0.09872507187123127,-0.007757751373752025,-0.011982831323331685,0.648677412950467,-0.0054275004368634265,-0.012987653733904344,0.037406845354147934,0.0569556952831479,0.6524041745116452,-1.5484416770676905,-0.10490502956380536,0.24432985533099116,0.372758924264517,0.76063281446921,-0.007094616501097959,-0.014398606028903698,0.24432985533099116,0.372758924264517,0.76063281446921,1.8297446019882497,-0.08039779494192367,0.2898784193905364,0.44256431365297594,0.7888557824995064,8.743554781248864e-08,2.739565473371987e-06,0.30927717494257806,0.4708812589640546,0.6875106351500575,0.3129031105597821,0.476174145938088,0.6685676169538989,0.5,-0.4,0.3
0.8000000000000005,0.0005064150027465075,-0.00435734462667664,-0.08729272250168041,-0.017186284907599894,-0.0877596369900826,-0.007998496538910382,-0.060927637196945605,-1.6576415167113506e-05,0.9961702389768666,-0.00771811276158701,0.0,0.0,0.0,-0.0461849376279605,-0.09960290189750674,-0.007929564593383504,-0.012246154131773077,0.648663038245437,-0.005559085104053751,-0.013158466719031613,0.037247373641633975,0.056679798589812855,0.6524718823130139,-1.5494995678468604,-0.10578809721811362,0.24424080465573003,0.3724448858176297,0.7606771465334844,-0.007239437676790396,-0.014479948945698855,0.24424080465573003,0.3724448858176297,0.7606771465334844,1.8289344513218584,-0.0810138962006188,0.289815313042984,0.4422627028116638,0.788827397250799,1.054220566745789e-07,2.8167174100576786e-06,0.30918318445534987,0.4704940174029208,0.6874524573819955,0.31280334733616594,0.47577089863493144,0.6685038704906303,0.5,-0.4,0.3
0.8100000000000005,0.0005060389994469006,-0.004265852326383816,-0.08681070306703231,-0.01729354781202677,-0.08706690244935578,-0.007824443743855491,-0.06025235355890951,-1.6934968537561937e-05,0.9960929127531808,-0.0077603538118716404,0.0,0.0,0.0,-0.047189693722594926,-0.10047582637600887,-0.0081029135531572,-0.01251174774165753,0.6486482202712367,-0.005692388399734829,-0.013330329568107611,0.037086448507020905,0.056401434449860455,0.6525398621911445,-1.5505662192291703,-0.10666416460207395,0.2441509989588015,0.3721279044216694,0.7607217373151338,-0.007385054945424066,-0.014559531885039695,0.2441509989588015,0.3721279044216694,0.7607217373151338,1.8281182077896394,-0.08162318317903645,0.2897516791493371,0.4419581271008763,0.7887987379870871,1.2454355803443924e-07,2.895120485184484e-06,0.3090883771694424,0.4701032157036989,0.6873938756913445,0.3127027132479667,0.4753639799285255,0.6684396958229814,0.5,-0.4,0.3
0.8200000000000005,0.0005082909992779605,-0.004175573128551574,-0.08633712041871577,-0.017403074360010526,-0.08638061558226573,-0.00765233079279673,-0.05958301048034065,-1.7297954987960575e-05,0.9960151735041969,-0.0078016718343545954,0.0,0.0,0.0,-0.048203130848959004,-0.10134393057364943,-0.008277790345295565,-0.012779598295548245,0.6486329514711728,-0.005827421050197107,-0.01350326504622788,0.03692407679889272,0.056120614923315604,0.652608102421043,-1.5516415618692219,-0.10753329753954352,0.2440604445185381,0.37180798914467317,0.7607665830184349,-0.007531450907479591,-0.014637374424943526,0.2440604445185381,0.37180798914467317,0.7607665830184349,1.8272959389333372,-0.08222571579477664,0.2896875227880683,0.4416505916472434,0.7887698079086887,1.448140091760933e-07,2.97476891288756e-06,0.30899275970538603,0.46970886795977584,0.6873348979519296,0.31260121520395007,0.4749534055882866,0.6683751016983298,0.5,-0.4,0.3
0.8300000000000005,0.0005050070030847564,-0.004086514330246573,-0.08587188601317597,-0.017514851861093153,-0.08570066479774241,-0.0074821476336442705,-0.058919554171429855,-1.766532944553377e-05,0.9959370303718715,-0.007842079247386247,0.0,0.0,0.0,-0.04922520164760787,-0.10220729885870165,-0.008454187190593406,-0.013049692149280274,0.6486172242666034,-0.005964194008095392,-0.013677295789827985,0.03676026525702074,0.05583735183567522,0.6526765913203749,-1.5527255270685445,-0.10839556072351664,0.24396914760059885,0.3714851487266717,0.7608116799631712,-0.0076786083582938746,-0.014713496045634742,0.24396914760059885,0.3714851487266717,0.7608116799631712,1.8264677117009755,-0.0828215534215211,0.2896228490514488,0.4413401012621047,0.7887406103062592,1.6624741290854004e-07,3.0556558736124367e-06,0.30889633869264027,0.4693109879172948,0.6872755320932434,0.31249886012090033,0.4745391910304145,0.6683100969132405,0.5,-0.4,0.3
0.8400000000000005,0.0005055889996583574,-0.003998683268944932,-0.08541491251276057,-0.017628868019020347,-0.08502693984523657,-0.007313883763324661,-0.05826193147645237,-1.803704271861081e-05,0.9958584923726356,-0.007881588546591581,0.0,0.0,0.0,-0.050255859593928406,-0.10306601471409117,-0.00863209643678392,-0.013322015869445468,0.6486010310570616,-0.006102718451179782,-0.013852444308438917,0.03659502051396157,0.055551656780447475,0.6527453172487937,-1.5538180467644196,-0.1092510177292984,0.24387711445910662,0.37115939158207356,0.760857024584783,-0.007826510287032079,-0.014787916124667243,0.24387711445910662,0.37115939158207356,0.760857024584783,1.8256335924522304,-0.0834107548954848,0.28955766304659947,0.4410266604440172,0.7887111485616484,1.8885780620201002e-07,3.1377734945178468e-06,0.3087991207708619,0.4689095889785898,0.6872157861011825,0.31239565492492966,0.4741213513215006,0.6682446903141795,0.5,-0.4,0.3
0.8500000000000005,0.0005039629977545701,-0.003912087478806593,-0.08496611369364448,-0.017745111067540648,-0.0843593318246475,-0.00714752825400071,-0.057610089864770564,-1.8413041447480063e-05,0.995779568396611,-0.007920212305180509,0.0,0.0,0.0,-0.05129505898940634,-0.10392016074945497,-0.008811510556933095,-0.013596556230903865,0.6485843642203538,-0.006243005781066073,-0.01402873298862912,0.03642834909662515,0.055263541121656296,0.6528142686072512,-1.554919053518839,-0.11009973102791276,0.2437843513377637,0.37083072580200327,0.7609026134344934,-0.007975139875614443,-0.014860653932380539,0.2437843513377637,0.37083072580200327,0.7609026134344934,1.824793646963744,-0.08399337852175945,0.28949196989652454,0.44071027338120944,0.7886814261487236,2.126592484378564e-07,3.2211128305854528e-06,0.3087011125911433,0.46850468420555996,0.6871556680187545,0.3122916065527543,0.47369990118207406,0.6681788907981995,0.5,-0.4,0.3
0.8600000000000005,0.0005064169999968726,-0.003826734348003992,-0.08452540458439584,-0.017863569419088732,-0.08369773308022554,-0.006983069730399541,-0.05696397741829501,-1.8793268061778213e-05,0.9957002672068119,-0.007957963175821346,0.0,0.0,0.0,-0.05234275495300503,-0.1047698187122797,-0.008992422147861187,-0.013873300214319007,0.6485672161126343,-0.006385067622059118,-0.014206184099304527,0.036260257427816744,0.05497301599631311,0.6528834338372952,-1.5560284805075968,-0.11094176199961021,0.24369086447096022,0.37049915915659326,0.7609484431794102,-0.008124480497600473,-0.014931728627618782,0.24369086447096022,0.37049915915659326,0.7609484431794102,1.8239479404343708,-0.08456948208056668,0.2894257747411448,0.4403909439539817,0.7886514466341569,2.376658093376029e-07,3.3056638472318475e-06,0.3086023208172383,0.4680962863229815,0.6870951859467529,0.3121867219529567,0.47327485499008426,0.6681127073135933,0.5,-0.4,0.3
0.8700000000000006,0.0005097920002299361,-0.0037426314937153565,-0.08409270126867463,-0.01798423203957894,-0.08304203726486059,-0.006820496417952099,-0.0563235428227738,-1.9177660745026956e-05,0.9956205974383524,-0.007994853889125105,0.0,0.0,0.0,-0.05339890341266917,-0.1056150695004256,-0.0091748239285931,-0.014152235003720901,0.6485495790684545,-0.00652891581999408,-0.014384819793495414,0.03609075182774685,0.0546800923168544,0.6529528014203501,-1.5571462615095053,-0.11177717094631602,0.2435966600848507,0.3701646990972334,0.7609945106026104,-0.008274515717027229,-0.015001159253221425,0.2435966600848507,0.3701646990972334,0.7609945106026104,1.8230965374903672,-0.08513912283338446,0.2893590827383004,0.4400686757370573,0.7886212136781853,2.638915566023534e-07,3.391415404416752e-06,0.30850275212674516,0.4676844077217659,0.6870343480444102,0.3120810080872021,0.47284622678432825,0.668046148860527,0.5,-0.4,0.3
0.8800000000000006,0.0005084359981992748,-0.0036597866973406973,-0.08366792089881314,-0.018107088361172252,-0.08239213929988842,-0.006659796146722602,-0.05568873535866181,-1.9566153403445425e-05,0.9955405675976422,-0.008030897255807082,0.0,0.0,0.0,-0.054463461096934306,-0.10645599317267715,-0.009358708738834471,-0.014433347984091335,0.6485314454007901,-0.006674562441132994,-0.014564662113891203,0.035919838515516174,0.05438478077354815,0.6530223598769843,-1.558272330895744,-0.11260601710471946,0.24350174439842276,0.36982735275877526,0.7610408126031966,-0.00842522928720803,-0.015068964732000659,0.24350174439842276,0.36982735275877526,0.7610408126031966,1.822239502190517,-0.08570235752898787,0.28929189906475256,0.43974347200188124,0.7885907310353332,2.9135054324756876e-07,3.4783552419394986e-06,0.308402413212277,0.46726906046215705,0.6869731625300162,0.31197447193144046,0.4724140302678161,0.6679792244916392,0.5,-0.4,0.3
0.8900000000000006,0.0005050760009908117,-0.0035782074718646723,-0.0832509818761289,-0.018232127847496185,-0.08174793524872603,-0.006500956319549389,-0.05505950488860978,-1.9958675641808114e-05,0.9954601860615645,-0.008066106168234964,0.0,0.0,0.0,-0.05553638552664294,-0.10729266895942943,-0.009544069537473686,-0.014716626738971632,0.6485128074010462,-0.006822019771108024,-0.014745732997502925,0.03574752361057598,0.054087091836869064,0.6530920977661635,-1.5594066236193345,-0.11342835865896236,0.24340612362456113,0.3694871269616894,0.7610873461963323,-0.00857660514949105,-0.015135163862756913,0.24340612362456113,0.3694871269616894,0.7610873461963323,1.8213768980312002,-0.08625924240939732,0.28922422891718635,0.4394153357188634,0.7885600025551012,3.2005679468628265e-07,3.5664699664138613e-06,0.30830131078262246,0.4668502562768654,0.6869116376815059,0.3118671204770965,0.47197827881107135,0.6679119433126095,0.5,-0.4,0.3
0.9000000000000006,0.0005079789989395067,-0.0034979018039954374,-0.08284180348415959,-0.01835934073299944,-0.08110932246913083,-0.00634396399633208,-0.05443580185118818,-2.03551527452954e-05,0.9953794610766686,-0.008100493597672885,0.0,0.0,0.0,-0.056617635006785814,-0.10812517527517797,-0.009730899401112289,-0.015002059048098171,0.6484936573390387,-0.006971300313867811,-0.014928054275977886,0.03557381313415498,0.05378703575984146,0.6531620036844902,-1.5605490752047284,-0.114244252752065,0.24330980397106622,0.3691440282141883,0.7611341085132644,-0.00872862743197388,-0.015199775315974981,0.24330980397106622,0.3691440282141883,0.7611341085132644,1.8205087879514024,-0.08680983321570064,0.2891560775131675,0.43908426955958374,0.7885290321826353,3.5002429549906723e-07,3.655745039559538e-06,0.3081994515638481,0.46642800657416095,0.6868497818370337,0.3117589607321996,0.47153898545539036,0.6678443144827156,0.5,-0.4,0.3
0.9100000000000006,0.0005096489985589869,-0.003418877439532911,-0.08244030620833609,-0.01848871728062859,-0.08047619941946837,-0.006188805832787414,-0.053817577249104465,-2.07555056671199e-05,0.9952984007583402,-0.008134072598839477,0.0,0.0,0.0,-0.05770716861843119,-0.10895358972733982,-0.009919191522617946,-0.015289632885055247,0.6484739874629568,-0.0071224167907008905,-0.01511164768330788,0.035398713010667646,0.05348462258035465,0.6532320662654307,-1.5616996217375279,-0.11505375549887173,0.24321279164168624,0.36879806271430104,0.761181096801314,-0.008881280448184956,-0.015262817630371335,0.24321279164168624,0.36879806271430104,0.761181096801314,1.8196352343376654,-0.08735418519381494,0.28908745009212183,0.43875027589894,0.7884978239593523,3.812669760369788e-07,3.7461647681815216e-06,0.3080968423004135,0.4660023224408979,0.6867876033955058,0.3116499997225241,0.47109616291603024,0.6677763472153476,0.5,-0.4,0.3
0.9200000000000006,0.0005067290003353264,-0.003341142328053555,-0.08204641150508662,-0.01862024823812701,-0.07984846574178839,-0.006035468135180896,-0.05320478264095607,-2.115965102221484e-05,0.9952170130899717,-0.008166856307437624,0.0,0.0,0.0,-0.05880494621077443,-0.10977798912827241,-0.010108939209705028,-0.0155793364149542,0.6484537899993027,-0.00727538213926203,-0.015296534856114166,0.03522222906909132,0.05317986212344677,0.6533022741785289,-1.5628581998543118,-0.11585692199706288,0.24311509283711236,0.3684492363519107,0.7612283084238574,-0.009034548695722662,-0.015324309208821937,0.24311509283711236,0.3684492363519107,0.7612283084238574,1.8187562990289825,-0.0878923531001271,0.2890183519162777,0.43841335681725285,0.788466382023547,4.1379869869819756e-07,3.837712295511227e-06,0.3079934897562386,0.46557321464549417,0.6867251108170981,0.31154024449267986,0.47064982358535234,0.6677080507785095,0.5,-0.4,0.3
0.9300000000000006,0.0005074590008007362,-0.0032647046649559655,-0.08166004176560382,-0.018753924866798444,-0.07922602225025155,-0.005883936874864562,-0.05259737013334381,-2.15675010880087e-05,0.9951353059221307,-0.008198857942024563,0.0,0.0,0.0,-0.059910928393284685,-0.11059844950498253,-0.010300135883538725,-0.01587115799213249,0.6484330571528124,-0.007430209512646978,-0.015482737338495436,0.03504436704431989,0.05287276400356148,0.6533726161286083,-1.564024746732585,-0.11665380633899454,0.24301671375596284,0.3680975547107532,0.7612757408602832,-0.009188416854860089,-0.0153842683148458,0.24301671375596284,0.3680975547107532,0.7612757408602832,1.817872043321641,-0.08842439120705435,0.2889487882716026,0.4380735141023272,0.7884347106109661,4.476332440507882e-07,3.930369594375149e-06,0.30788940071575416,0.4651406936408595,0.6866623126237451,0.31142970210718435,0.4701999795359123,0.6676394344952926,0.5,-0.4,0.3
0.9400000000000006,0.000506098000187194,-0.0031895726615935732,-0.08128112040782454,-0.01888973869876534,-0.07860877085423346,-0.005734197674064703,-0.051995292371448176,-2.197896381127066e-05,0.9950532869717039,-0.008230090806331828,0.0,0.0,0.0,-0.061025076527944935,-0.11141504610847305,-0.01049277507736234,-0.01616508615787149,0.648411781106357,-0.007586912278518613,-0.015670276587163422,0.03486513257849646,0.05256333762677734,0.6534430808549612,-1.5651992000808412,-0.11744446162342377,0.24291766059576717,0.36774302307037016,0.7613233917059256,-0.00934286978711605,-0.015442713069233085,0.24291766059576717,0.36774302307037016,0.7613233917059256,1.8169825279740046,-0.08895035330852481,0.28887876446874494,0.43773074925145833,0.7884028140553475,4.827842967947326e-07,4.0241174620028394e-06,0.3077845819849487,0.46470476956726037,0.6865992173995972,0.3113183796515288,0.469746642523485,0.6675705077443167,0.5,-0.4,0.3
0.9500000000000006,0.0005048150014772546,-0.003047127699408264,-0.08130061055950322,-0.01907770184392711,-0.07752959520641323,-0.005345474347939208,-0.051326891138796016,0.0005014539025364039,0.9949708524822557,-0.008277312248443677,0.0,0.0,0.0,-0.06214735246121869,-0.11222776230182804,-0.010686852223192211,-0.01646110837939708,0.648389954025935,-0.007745504018260124,-0.015859173974151076,0.034684537085391716,0.05225158840127247,0.6535136571141986,-1.5663823463974809,-0.11839384666248401,0.24281803080201703,0.367385695902382,0.7613709381980022,-0.009498144208814917,-0.01554906551674241,0.24281803080201703,0.367385695902382,0.7613709381980022,1.816087441163738,-0.08954300200572034,0.2888083987682319,0.43738513817546293,0.7883702740377921,2.3915103045840208e-08,-9.229417559321589e-05,0.30767910967237616,0.46426540668101796,0.6865353712046206,0.31120634535539377,0.4692897559343927,0.6675008099273922,0.5,-0.4,0.3
0.9600000000000006,0.0005048239981988445,-0.0029778271761018993,-0.0809082245914361,-0.019213880692606336,-0.07694840579165774,-0.005214645798506126,-0.050734550129763134,0.00046951343875175456,0.9948880963371892,-0.008306376564536063,0.0,0.0,0.0,-0.06327775865649411,-0.11304076439027338,-0.010882366529897157,-0.016759224919690934,0.6483675672589053,-0.007906003528186031,-0.016049950992590347,0.03450257485862077,0.051937517486041695,0.6535843361824067,-1.5675732301204088,-0.11916696859648852,0.2427177384239881,0.36702550274315593,0.7614187333294207,-0.009653947672882654,-0.015602068527192644,0.2427177384239881,0.36702550274315593,0.7614187333294207,1.815187221047984,-0.09005634390322702,0.2887375838580251,0.4370365774958526,0.7883375601649211,-3.8228512485399827e-07,-8.680377732215964e-05,0.3075729251404067,0.4638226392043108,0.686471290885405,0.3110935496791696,0.4688293797105647,0.6674308667210095,0.5,-0.4,0.3
0.9700000000000006,0.0005074170003354084,-0.0029102347995243402,-0.08052494005109534,-0.019352510875711035,-0.07637039811607382,-0.0050844138185178744,-0.05014743886644446,0.0004395655106064544,0.9948050580483991,-0.00833464478947925,0.0,0.0,0.0,-0.06441625561421069,-0.1138498417491455,-0.011079310805957667,-0.017059424392162882,0.6483446129418942,-0.008068424426181178,-0.01624208979951641,0.034319250085850295,0.05162113563309958,0.6536551066636801,-1.5687717893950188,-0.11993426924696773,0.24261677832110004,0.3666624568963978,0.7614667740645729,-0.009810268690908506,-0.015653771823574993,0.24261677832110004,0.3666624568963978,0.7614667740645729,1.8142819272007553,-0.09056376295256792,0.2886663114791533,0.4366850783667088,0.7883046759637695,-7.370871497934751e-07,-8.162523489343466e-05,0.30746602092956726,0.4633764871821087,0.6864069840368705,0.3109799853128222,0.468365535558819,0.6673606864804408,0.5,-0.4,0.3
0.9800000000000006,0.000506327000039164,-0.0028437914753528942,-0.08015059515685241,-0.01949354877579501,-0.0757956440675207,-0.004954879186192779,-0.04956556462827855,0.00041147596876555813,0.9947217446056927,-0.008362233467595416,0.0,0.0,0.0,-0.06556280500357327,-0.11465508620132843,-0.01127767856679521,-0.017361695366663994,0.6483210831836959,-0.008232780575263901,-0.01643561490827352,0.03413456849429994,0.0513024521447104,0.6537259572246216,-1.569977966365371,-0.12069578365389605,0.2425151573820268,0.36629656364937296,0.7615150563589607,-0.009967094270440485,-0.015704174030255872,0.2425151573820268,0.36629656364937296,0.7615150563589607,1.8133716183474875,-0.09106530880672146,0.2885945877768638,0.4363306425048256,0.7882716236529095,-1.0434213278110438e-06,-7.673956214780762e-05,0.3073584045201079,0.4629269603981877,0.6863424567979745,0.3108656599861348,0.46789823477077874,0.6672902760774259,0.5,-0.4,0.3
0.9900000000000007,0.0005054849971202202,-0.002691222397230811,-0.07980839243278726,-0.019637271058254788,-0.07521207905629934,-0.004821982478056749,-0.04899438277718482,0.0004086759903281462,0.9946380459401084,-0.008405346112053584,0.0,0.0,0.0,-0.06671736925836123,-0.11545671101931873,-0.011477465507384453,-0.017666025260148464,0.648296970072715,-0.00839908607922421,-0.01663055039603147,0.03394854167946986,0.05098147214214789,0.6537968765684273,-1.5711924807011108,-0.12145912041793765,0.2424129713556019,0.36592786955232404,0.7615632828282466,-0.01012464282217017,-0.01575418929089771,0.2424129713556019,0.36592786955232404,0.7615632828282466,1.8124560060500043,-0.09156376897777699,0.28852252866023104,0.4359733350598376,0.7882380178223725,-1.7612253239191832e-06,-7.654385371483417e-05,0.3072501531137163,0.4624740210069501,0.6862772914290118,0.3107506436657696,0.46742742024940104,0.6672192117293183,0.5,-0.4,0.3
1.0000000000000007,0.0005038659983256366,-0.002631868051146548,-0.0794489850390846,-0.01978259443300366,-0.07464538995424363,-0.00469574903999069,-0.04842218444071128,0.00038256355988254174,0.994554066121,-0.00843075313644734,0.0,0.0,0.0,-0.06787991452084985,-0.11625479055892193,-0.011678664234670543,-0.01797240486499388,0.6482722656134894,-0.00856735531029034,-0.016826923106614017,0.033761169625437126,0.050658207063637634,0.6538678536136369,-1.5724144949087444,-0.12220898893495923,0.24231014446534674,0.3655563315210062,0.7616117458138649,-0.010282667181426477,-0.015801940738924304,0.24231014446534674,0.3655563315210062,0.7616117458138649,1.811535494425596,-0.09205377097193326,0.2884500380739834,0.4356130859649752,0.7882042517988435,-2.433207302664439e-06,-7.195122935977315e-05,0.30714121250994514,0.46201771834884936,0.6862119217593894,0.31063488997461086,0.4669531636542464,0.667147934836127,0.5,-0.4,0.3
1.0100000000000007,0.0005037999981141184,-0.002573993785101064,-0.07909804649377605,-0.019930271109489056,-0.07408184480568192,-0.0045702485070353155,-0.04785505197943646,0.0003580268897782337,0.9944698399331267,-0.008455459353401477,0.0,0.0,0.0,-0.06905040461215715,-0.11704927509958697,-0.011881268084995112,-0.01828082360242408,0.6482469618523063,-0.008737602800799778,-0.017024749050944053,0.03357245636251453,0.05033266657550871,0.6539388771233362,-1.573643951272723,-0.12295318192203004,0.2422066732215734,0.365181960667845,0.7616604421192309,-0.010441156957108276,-0.01584843957420413,0.2422066732215734,0.365181960667845,0.7616604421192309,1.8106101400081267,-0.0925380514413219,0.28837710984156306,0.4352499041085698,0.7881703286581602,-3.0614414324629014e-06,-6.761136412897651e-05,0.3070315773279372,0.4615580697900623,0.6861463547046087,0.31051839368053047,0.4664754839361357,0.6670764530310477,0.5,-0.4,0.3
1.0200000000000007,0.0005138729975442402,-0.0025170393557735066,-0.07875545073548729,-0.02008026452555685,-0.07352149711758249,-0.004445566516917562,-0.047292997791128166,0.0003349671626486557,0.9943853733858027,-0.008479584490117407,0.0,0.0,0.0,-0.07022880443613352,-0.11784025019708677,-0.012085271060986632,-0.018591270842796558,0.6482210508069413,-0.008909843318420166,-0.017224051762038943,0.03338240724097228,0.0500048590701576,0.6540099359150333,-1.5748807933816642,-0.1236917342472448,0.24210256459929397,0.36480476080116353,0.7617093685155184,-0.010600099634176295,-0.015893684923991094,0.24210256459929397,0.36480476080116353,0.7617093685155184,1.8096799995274968,-0.09301665825356006,0.2883037503201356,0.4348837897351515,0.7881362514504687,-3.6483076193396315e-06,-6.351005506543151e-05,0.3069212552941019,0.46109508365128926,0.6860805971250655,0.3104011627658713,0.4659943909253337,0.6670047738866725,0.5,-0.4,0.3
1.0300000000000007,0.0005069990002084523,-0.002461039895252176,-0.0784210265870654,-0.020232550650092745,-0.07296434472941615,-0.0043217487434557,-0.046735972520538016,0.0003132848991884223,0.9943006722077178,-0.008503138809346797,0.0,0.0,0.0,-0.07141507973246472,-0.11862779928763528,-0.012290667294674122,-0.018903736161230554,0.6481945244711561,-0.0090840918624931,-0.01742485440729451,0.03319102751169549,0.04967479270553583,0.6540810188447493,-1.5761249651518505,-0.12442467814197046,0.24199782559832317,0.36442473533745856,0.7617585220012196,-0.010759482765276513,-0.015937684959522407,0.24199782559832317,0.36442473533745856,0.7617585220012196,1.808745129211023,-0.09348964213643145,0.2882299659262609,0.4345147426957495,0.7881020234619707,-4.196040838600119e-06,-5.963254962748632e-05,0.3068102542014368,0.460628767869762,0.6860146560905745,0.31028320528090897,0.46550989407051196,0.6669329051800332,0.5,-0.4,0.3
1.0400000000000007,0.0005062529999122489,-0.002406032889191688,-0.07809461083402247,-0.020387107934470877,-0.07241037970859487,-0.004198835567906456,-0.04618392738106464,0.00029288790621615765,0.9942157420264307,-0.008526132268679331,0.0,0.0,0.0,-0.07260919705804002,-0.11941200409028524,-0.012497451041085376,-0.01921820933447687,0.6481673748144816,-0.00926036366163105,-0.01762717991379544,0.032998322320038014,0.049342475416457414,0.6541521148051832,-1.5773764108214003,-0.12515204579381317,0.24189246318033145,0.36404188735169685,0.7618078997953749,-0.010919293989749251,-0.015980448358251482,0.24189246318033145,0.36404188735169685,0.7618078997953749,1.8078055847835508,-0.09395705334190205,0.28815576306009905,0.43414276250734324,0.7880676482071014,-4.706738343199422e-06,-5.596508241322018e-05,0.30669858182969023,0.46015913006012554,0.6859485388717932,0.31016452926325866,0.46502200249989795,0.6668608548838851,0.5,-0.4,0.3
1.0500000000000007,0.0005072290005045943,-0.002352053605640038,-0.07777604840253782,-0.020543916067934348,-0.07185958893456235,-0.00407686261065833,-0.045636814499741996,0.0002736907453854457,0.9941305883657465,-0.00854857519784627,0.0,0.0,0.0,-0.07381112377062199,-0.120192944691983,-0.012705616675464533,-0.01953468033629979,0.6481395937819536,-0.009438674171562446,-0.017831050993140148,0.03280429670856861,0.04900791491909985,0.6542232127240198,-1.5786350749494176,-0.12587386930892253,0.24178648427237884,0.3636562195830227,0.7618574993299321,-0.011079521037727283,-0.016021984198649804,0.24178648427237884,0.3636562195830227,0.7618574993299321,1.8068614214722998,-0.09441894163457983,0.28808114810909663,0.4337678483590878,0.7880331294200088,-5.182368898590023e-06,-5.249481289040011e-05,0.3065862459486533,0.4596861775197076,0.6858822529310123,0.3100451427410938,0.4645307250263655,0.6667886311573682,0.5,-0.4,0.3
1.0600000000000007,0.0005068159989605192,-0.00229913554109646,-0.07746519161054366,-0.02070295618873863,-0.07131195463927309,-0.003955861148133205,-0.04509458687324369,0.00025561419482367475,0.9940452166421414,-0.008570478280492956,0.0,0.0,0.0,-0.07502082801334044,-0.12097069962900697,-0.012915158690657002,-0.019853139333058253,0.648111173293835,-0.00961903907310064,-0.01803649015381949,0.032608955619720555,0.04867111871525277,0.6542943015622894,-1.5799009024146708,-0.12659018066023742,0.24167989577060728,0.363267734439864,0.7619073182426411,-0.011240151733662959,-0.016062301912265643,0.24167989577060728,0.363267734439864,0.7619073182426411,1.8059126940116457,-0.09487535630074996,0.2880061274518948,0.43338999911784487,0.7879984710466639,-5.62478136201156e-06,-4.920975793763164e-05,0.30647325432171574,0.4592099172332073,0.6858158059136291,0.30992505373663554,0.46403607015196663,0.6667162423373609,0.5,-0.4,0.3
